Ligne 125 Major/Ligne 125 Major.cube
# VEGAS Pro LUT
TITLE "Ligne 125 Major"
LUT_3D_SIZE 33
0.00000000 0.23529412 0.65098041
0.00456519 0.23878515 0.65257376
0.01074400 0.24351013 0.65473026
0.01847378 0.24942113 0.65742815
0.02769188 0.25647026 0.66064543
0.03833564 0.26460961 0.66436028
0.05034242 0.27379125 0.66855091
0.06364956 0.28396732 0.67319536
0.07819442 0.29508984 0.67827177
0.09391434 0.30711097 0.68375838
0.11074668 0.31998277 0.68963319
0.12862878 0.33365729 0.69587439
0.14749800 0.34808671 0.70246011
0.16729167 0.36322305 0.70936847
0.18794715 0.37901843 0.71657765
0.20940180 0.39542490 0.72406572
0.23159297 0.41239461 0.73181087
0.25445798 0.42987964 0.73979121
0.27793419 0.44783205 0.74798489
0.30195901 0.46620393 0.75637001
0.32646969 0.48494741 0.76492471
0.35140365 0.50401455 0.77362716
0.37669820 0.52335745 0.78245544
0.40229073 0.54292822 0.79138774
0.42811856 0.56267887 0.80040216
0.45411903 0.58256161 0.80947685
0.48022950 0.60252845 0.81858993
0.50638735 0.62253147 0.82771951
0.53252989 0.64252287 0.83684379
0.55859447 0.66245461 0.84594083
0.58451849 0.68227887 0.85498881
0.61023927 0.70194763 0.86396587
0.63569409 0.72141314 0.87285012
0.01048883 0.24331498 0.65464121
0.01816265 0.24918321 0.65731955
0.02732711 0.25619131 0.66051811
0.03791953 0.26429141 0.66421509
0.04987727 0.27343556 0.66838855
0.06313769 0.28357589 0.67301673
0.07763812 0.29466444 0.67807764
0.09331592 0.30665335 0.68354952
0.11010845 0.31949469 0.68941039
0.12795304 0.33314055 0.69563854
0.14678705 0.34754303 0.70221198
0.16654782 0.36265421 0.70910889
0.18717271 0.37842619 0.71630734
0.20859908 0.39481106 0.72378558
0.23076424 0.41176090 0.73152167
0.25360557 0.42922780 0.73949373
0.27706042 0.44716385 0.74767995
0.30106616 0.46552119 0.75605839
0.32556006 0.48425183 0.76460725
0.35047957 0.50330788 0.77330464
0.37576199 0.52264148 0.78212869
0.40134463 0.54220474 0.79105753
0.42716491 0.56194967 0.80006933
0.45316017 0.58182836 0.80914217
0.47926769 0.60179293 0.81825423
0.50542492 0.62179554 0.82738358
0.53156912 0.64178813 0.83650845
0.55763769 0.66172296 0.84560686
0.58356798 0.68155199 0.85465705
0.60929734 0.70122737 0.86363709
0.63476306 0.72070116 0.87252516
0.65990257 0.73992550 0.88129932
0.68465316 0.75885242 0.88993776
0.02696427 0.25591385 0.66039145
0.03750527 0.26397461 0.66407049
0.04941389 0.27308121 0.66822684
0.06262749 0.28318572 0.67283863
0.07708342 0.29424027 0.67788404
0.09271902 0.30619690 0.68334115
0.10947164 0.31900772 0.68918818
0.12727863 0.33262485 0.69540316
0.14607735 0.34700033 0.70196426
0.16580515 0.36208630 0.70884967
0.18639936 0.37783480 0.71603745
0.20779733 0.39419797 0.72350574
0.22993644 0.41112787 0.73123276
0.25275400 0.42857659 0.73919654
0.27618739 0.44649625 0.74737525
0.30017397 0.46483892 0.75574702
0.32465103 0.48355669 0.76428998
0.34955600 0.50260162 0.77298230
0.37482613 0.52192587 0.78180206
0.40039888 0.54148149 0.79072744
0.42621154 0.56122059 0.79973656
0.45220143 0.58109522 0.80880755
0.47830597 0.60105747 0.81791854
0.50446242 0.62105954 0.82704771
0.53060824 0.64105338 0.83617306
0.55668074 0.66099113 0.84527290
0.58261722 0.68082494 0.85432523
0.60835505 0.70050681 0.86330825
0.63383162 0.71998888 0.87220007
0.65898418 0.73922324 0.88097882
0.68375021 0.75816196 0.88962263
0.70806700 0.77675712 0.89810967
0.73187190 0.79496086 0.90641803
0.04895228 0.27272820 0.66806573
0.06211898 0.28279686 0.67266113
0.07653031 0.29381728 0.67769098
0.09212362 0.30574158 0.68313336
0.10883626 0.31852186 0.68896639
0.12660557 0.33211014 0.69516826
0.14536892 0.34645858 0.70171702
0.16506363 0.36151925 0.70859087
0.18562709 0.37724423 0.71576792
0.20699660 0.39358565 0.72322631
0.22910956 0.41049555 0.73094416
0.25190327 0.42792603 0.73889959
0.27531511 0.44582921 0.74707079
0.29928243 0.46415716 0.75543582
0.32374257 0.48286197 0.76397294
0.34863290 0.50189573 0.77266014
0.37389073 0.52121055 0.78147560
0.39945343 0.54075849 0.79039747
0.42525837 0.56049168 0.79940391
0.45124286 0.58036220 0.80847299
0.47734427 0.60032213 0.81758291
0.50349998 0.62032354 0.82671177
0.52964729 0.64031851 0.83583766
0.55572355 0.66025919 0.84493881
0.58166617 0.68009764 0.85399330
0.60741240 0.69978595 0.86297923
0.63289970 0.71927625 0.87187481
0.65806532 0.73852056 0.88065809
0.68284667 0.75747097 0.88930726
0.70718110 0.77607965 0.89780045
0.73100597 0.79429865 0.90611583
0.75425857 0.81208009 0.91423142
0.77687627 0.82937598 0.92212546
0.07597880 0.29339555 0.67749852
0.09152973 0.30528745 0.68292606
0.10820230 0.31803706 0.68874514
0.12593386 0.33159646 0.69493377
0.14466174 0.34591779 0.70147020
0.16432330 0.36095312 0.70833248
0.18485589 0.37665451 0.71549875
0.20619687 0.39297408 0.72294718
0.22828358 0.40986392 0.73065585
0.25105336 0.42727610 0.73860294
0.27444360 0.44516274 0.74676663
0.29839158 0.46347591 0.75512493
0.32283470 0.48216772 0.76365602
0.34771031 0.50119025 0.77233809
0.37295574 0.52049553 0.78114927
0.39850834 0.54003578 0.79006761
0.42430547 0.55976301 0.79907131
0.45028445 0.57962930 0.80813849
0.47638270 0.59958678 0.81724733
0.50253749 0.61958748 0.82637584
0.52868623 0.63958359 0.83550227
0.55476624 0.65952712 0.84460467
0.58071482 0.67937016 0.85366124
0.60646945 0.69906485 0.86265010
0.63196737 0.71856326 0.87154937
0.65714592 0.73781747 0.88033724
0.68194252 0.75677961 0.88899171
0.70629448 0.77540165 0.89749104
0.73013920 0.79363585 0.90581328
0.75341398 0.81143421 0.91393661
0.77605617 0.82874882 0.92183924
0.79800308 0.84553176 0.92949915
0.81919217 0.86173517 0.93689454
0.10756978 0.31755337 0.68852437
0.12526348 0.33108383 0.69469982
0.14395583 0.34537798 0.70122379
0.16358416 0.36038789 0.70807451
0.18408582 0.37606561 0.71522999
0.20539816 0.39236331 0.72266841
0.22745854 0.40923300 0.73036790
0.25020432 0.42662683 0.73830664
0.27357280 0.44449687 0.74646270
0.29750139 0.46279520 0.75481421
0.32192740 0.48147389 0.76333940
0.34678820 0.50048512 0.77201629
0.37202114 0.51978087 0.78082305
0.39756355 0.53931332 0.78973788
0.42335281 0.55903447 0.79873884
0.44932622 0.57889652 0.80780405
0.47542116 0.59885150 0.81691170
0.50157499 0.61885148 0.82603991
0.52772504 0.63884860 0.83516681
0.55380869 0.65879488 0.84427047
0.57976323 0.67864251 0.85332912
0.60552609 0.69834352 0.86232090
0.63103455 0.71784997 0.87122381
0.65622598 0.73711401 0.88001615
0.68103778 0.75608772 0.88867593
0.70540720 0.77472317 0.89718133
0.72927171 0.79297245 0.90551054
0.75256854 0.81078768 0.91364157
0.77523512 0.82812095 0.92155266
0.79720873 0.84492433 0.92922187
0.81842679 0.86114991 0.93662739
0.83882660 0.87674975 0.94374734
0.85834557 0.89167601 0.95055985
0.14325118 0.34483913 0.70097786
0.16284618 0.35982355 0.70781690
0.18331683 0.37547758 0.71496159
0.20460045 0.39175329 0.72239000
0.22663443 0.40860280 0.73008025
0.24935609 0.42597818 0.73801059
0.27270278 0.44383153 0.74615902
0.29661188 0.46211496 0.75450379
0.32102072 0.48078054 0.76302290
0.34586662 0.49978036 0.77169466
0.37108698 0.51906651 0.78049701
0.39661911 0.53859109 0.78940827
0.42240039 0.55830616 0.79840642
0.44836813 0.57816386 0.80746967
0.47445974 0.59811628 0.81657612
0.50061250 0.61811543 0.82570398
0.52676380 0.63811350 0.83483130
0.55285102 0.65806252 0.84393626
0.57881141 0.67791462 0.85299695
0.60458243 0.69762188 0.86199152
0.63010138 0.71713632 0.87089813
0.65530556 0.73641014 0.87969488
0.68013245 0.75539535 0.88835996
0.70451927 0.77404416 0.89687145
0.72840339 0.79230851 0.90520746
0.75172222 0.81014055 0.91334617
0.77441311 0.82749236 0.92126578
0.79641330 0.84431607 0.92894429
0.81766027 0.86056376 0.93635988
0.83809131 0.87618750 0.94349068
0.85764378 0.89113939 0.95031488
0.87625504 0.90537149 0.95681059
0.89386243 0.91883594 0.96295589
0.18254894 0.37489036 0.71469355
0.20380376 0.39114407 0.72211194
0.22581124 0.40797332 0.72979295
0.24850872 0.42533019 0.73771483
0.27183354 0.44316682 0.74585563
0.29572305 0.46143526 0.75419354
0.32011458 0.48008764 0.76270670
0.34494555 0.49907601 0.77137315
0.37015322 0.51835245 0.78017116
0.39567500 0.53786910 0.78907871
0.42144823 0.55757803 0.79807407
0.44741023 0.57743132 0.80713534
0.47349837 0.59738111 0.81624061
0.49965000 0.61737943 0.82536805
0.52580249 0.63737833 0.83449578
0.55189312 0.65733004 0.84360194
0.57785934 0.67718655 0.85266465
0.60363841 0.69689995 0.86166203
0.62916774 0.71642238 0.87057227
0.65438461 0.73570591 0.87937349
0.67922646 0.75470257 0.88804376
0.70363057 0.77336454 0.89656126
0.72753435 0.79164392 0.90490413
0.75087512 0.80949271 0.91305053
0.77359015 0.82686305 0.92097855
0.79561692 0.84370708 0.92866629
0.81689268 0.85997677 0.93609196
0.83735490 0.87562430 0.94323367
0.85694075 0.89060175 0.95006955
0.87558776 0.90486121 0.95657772
0.89323318 0.91835475 0.96273631
0.90981436 0.93103451 0.96852344
0.92526865 0.94285250 0.97391731
0.22498900 0.40734452 0.72950596
0.24766220 0.42468286 0.73741937
0.27096504 0.44250268 0.74555254
0.29483488 0.46075609 0.75388354
0.31920907 0.47939518 0.76239061
0.34402496 0.49837205 0.77105188
0.36921990 0.51763874 0.77984542
0.39473122 0.53714740 0.78874934
0.42049631 0.55685014 0.79774189
0.44645247 0.57669896 0.80680108
0.47253710 0.59664601 0.81590509
0.49868751 0.61664337 0.82503211
0.52484107 0.63664317 0.83416021
0.55093509 0.65659744 0.84326756
0.57690698 0.67645830 0.85233223
0.60269403 0.69617778 0.86133242
0.62823367 0.71570808 0.87024629
0.65346318 0.73500127 0.87905186
0.67831993 0.75400937 0.88772738
0.70274127 0.77268451 0.89625090
0.72666454 0.79097879 0.90460056
0.75002712 0.80884427 0.91275454
0.77276629 0.82623303 0.92069101
0.79481947 0.84309727 0.92838800
0.81612402 0.85938895 0.93582368
0.83661723 0.87506026 0.94297624
0.85623646 0.89006317 0.94982374
0.87491912 0.90434992 0.95634431
0.89260244 0.91787249 0.96251613
0.90922391 0.93058300 0.96831739
0.92472082 0.94243354 0.97372609
0.93903047 0.95337623 0.97872043
0.95209026 0.96336317 0.98327857
0.27009732 0.44183913 0.74524969
0.29394740 0.46007743 0.75357383
0.31830415 0.47870317 0.76207483
0.34310490 0.49766847 0.77073073
0.36828700 0.51692533 0.77951980
0.39378780 0.53642595 0.78842008
0.41954467 0.55612236 0.79740971
0.44549492 0.57596672 0.80646688
0.47157592 0.59591097 0.81556964
0.49772501 0.61590737 0.82469618
0.52387953 0.63590789 0.83382463
0.54997689 0.65586466 0.84293312
0.57595438 0.67572981 0.85199976
0.60174936 0.69545537 0.86100274
0.62729919 0.71499354 0.86992013
0.65254122 0.73429626 0.87873006
0.67741281 0.75331569 0.88741076
0.70185125 0.77200389 0.89594024
0.72579396 0.79031307 0.90429670
0.74917829 0.80819517 0.91245830
0.77194154 0.82560235 0.92040312
0.79402107 0.84248668 0.92810929
0.81535423 0.85880029 0.93555498
0.83587837 0.87449527 0.94271833
0.85553092 0.88952363 0.94957745
0.87424910 0.90383756 0.95611048
0.89197034 0.91738909 0.96229553
0.90863198 0.93013030 0.96811074
0.92417133 0.94201338 0.97353429
0.93852580 0.95299029 0.97854429
0.95163268 0.96301323 0.98311883
0.96342933 0.97203422 0.98723614
0.97385317 0.98000538 0.99087423
0.31739983 0.47801164 0.76175916
0.34218538 0.49696529 0.77040982
0.36735454 0.51621228 0.77919436
0.39284474 0.53570479 0.78809094
0.41859329 0.55539483 0.79707766
0.44453752 0.57523459 0.80613273
0.47061482 0.59517604 0.81523418
0.49676251 0.61517131 0.82436025
0.52291799 0.63517255 0.83348900
0.54901850 0.65513182 0.84259862
0.57500154 0.67500120 0.85166723
0.60080433 0.69473273 0.86067289
0.62636429 0.71427858 0.86959380
0.65161878 0.73359084 0.87840813
0.67650509 0.75262153 0.88709396
0.70096058 0.77132279 0.89562941
0.72492266 0.78964674 0.90399259
0.74832863 0.80754542 0.91216177
0.77111578 0.82497090 0.92011493
0.79322159 0.84187537 0.92783028
0.81458336 0.85821080 0.93528599
0.83513838 0.87392938 0.94246006
0.85482407 0.88898313 0.94933075
0.87357777 0.90332419 0.95587617
0.89133680 0.91690457 0.96207440
0.90803850 0.92967647 0.96790361
0.92362028 0.94159198 0.97334200
0.93801939 0.95260310 0.97836757
0.95117331 0.96266192 0.98295856
0.96301931 0.97172064 0.98709303
0.97349471 0.97973126 0.99074912
0.98253697 0.98664588 0.99390507
0.99008328 0.99241662 0.99653888
0.36642253 0.51549959 0.77886903
0.39190200 0.53498387 0.78776187
0.41764215 0.55466753 0.79674572
0.44358030 0.57450259 0.80579865
0.46965382 0.59444118 0.81489879
0.49580005 0.61443532 0.82402432
0.52195632 0.63443720 0.83315337
0.54806000 0.65439886 0.84226412
0.57404846 0.67427236 0.85133457
0.59985900 0.69400984 0.86034298
0.62542903 0.71356338 0.86926740
0.65069580 0.73288506 0.87808597
0.67559677 0.75192696 0.88677692
0.70006925 0.77064121 0.89531827
0.72405058 0.78897983 0.90368825
0.74747807 0.80689502 0.91186494
0.77028918 0.82433879 0.91982645
0.79242116 0.84126323 0.92755091
0.81381136 0.85762048 0.93501651
0.83439720 0.87336254 0.94220138
0.85411596 0.88844162 0.94908363
0.87290508 0.90280974 0.95564139
0.89070177 0.91641903 0.96185279
0.90744352 0.92922151 0.96769595
0.92306757 0.94116932 0.97314906
0.93751138 0.95221460 0.97819024
0.95071220 0.96230930 0.98279756
0.96260738 0.97140563 0.98694927
0.97313434 0.97945571 0.99062335
0.98223042 0.98641151 0.99379808
0.98983288 0.99222517 0.99645150
0.99587917 0.99684882 0.99856174
0.99968165 0.99975657 0.99988890
0.41669130 0.55394042 0.79641384
0.44262329 0.57377076 0.80546463
0.46869293 0.59370637 0.81456339
0.49483758 0.61369932 0.82368845
0.52099460 0.63370174 0.83281773
0.54710132 0.65366572 0.84192950
0.57309514 0.67354333 0.85100186
0.59891331 0.69328666 0.86001289
0.62449330 0.71284783 0.86894083
0.64977235 0.73217887 0.87776369
0.67468792 0.75123191 0.88645971
0.69917727 0.76995909 0.89500695
0.72317773 0.78831238 0.90338361
0.74662673 0.80624396 0.91156775
0.76946163 0.82370591 0.91953760
0.79161966 0.84065032 0.92727119
0.81303829 0.85702932 0.93474668
0.83365482 0.87279487 0.94194227
0.85340661 0.88789916 0.94883603
0.87223101 0.90229434 0.95540613
0.89006537 0.91593236 0.96163064
0.90684700 0.92876536 0.96748781
0.92251331 0.94074547 0.97295564
0.93700165 0.95182478 0.97801232
0.95024925 0.96195531 0.98263603
0.96219361 0.97108924 0.98680484
0.97277206 0.97917861 0.99049693
0.98192185 0.98617554 0.99369037
0.98958039 0.99203205 0.99636334
0.99568504 0.99670035 0.99849403
0.99982315 0.99986476 0.99993831
0.99518102 0.99631488 0.99831808
0.98892820 0.99153334 0.99613571
0.46773213 0.59297162 0.81422806
0.49387515 0.61296332 0.82335252
0.52003282 0.63296628 0.83248204
0.54614252 0.65293252 0.84159482
0.57214159 0.67281413 0.85066903
0.59796733 0.69256324 0.85968274
0.62355715 0.71213198 0.86861408
0.64884841 0.73147231 0.87744123
0.67377841 0.75053644 0.88614231
0.69828457 0.76927644 0.89469540
0.72230417 0.78764439 0.90307873
0.74577457 0.80559230 0.91127032
0.76863313 0.82307243 0.91924846
0.79081720 0.84003669 0.92699111
0.81226414 0.85643733 0.93447649
0.83291131 0.87222630 0.94168276
0.85269600 0.88735580 0.94858801
0.87155563 0.90177786 0.95517039
0.88942754 0.91544455 0.96140802
0.90624899 0.92830807 0.96727908
0.92195743 0.94032043 0.97276163
0.93649018 0.95143366 0.97783387
0.94978464 0.96160001 0.98247385
0.96177804 0.97077143 0.98665977
0.97240782 0.97890007 0.99036980
0.98161125 0.98593801 0.99358195
0.98932582 0.99183738 0.99627447
0.99548870 0.99655020 0.99842548
0.99996239 0.99997127 0.99998689
0.99538070 0.99646759 0.99838775
0.98918605 0.99173051 0.99622571
0.98144102 0.98580784 0.99352252
0.97220832 0.97874755 0.99030018
0.51907092 0.63223076 0.83214635
0.54518354 0.65219915 0.84126014
0.57118773 0.67208475 0.85033613
0.59702104 0.69183958 0.85935247
0.62262064 0.71141577 0.86828721
0.64792401 0.73076540 0.87711859
0.67286843 0.74984056 0.88582468
0.69739127 0.76859331 0.89438361
0.72142982 0.78697574 0.90277356
0.74492157 0.80494004 0.91097265
0.76780379 0.82243818 0.91895896
0.79001379 0.83942229 0.92671067
0.81148893 0.85584450 0.93420595
0.83216661 0.87165684 0.94142288
0.85198414 0.88681144 0.94833958
0.87087893 0.90126038 0.95493424
0.88878828 0.91495574 0.96118492
0.90564948 0.92784959 0.96706980
0.92140001 0.93989414 0.97256708
0.93597710 0.95104134 0.97765476
0.94931817 0.96124333 0.98231107
0.96136057 0.97045219 0.98651409
0.97204161 0.97862005 0.99024200
0.98129869 0.98569900 0.99347287
0.98906910 0.99164104 0.99618489
0.99529022 0.99639839 0.99835622
0.99989939 0.99992305 0.99996489
0.99557823 0.99661863 0.99845672
0.98944181 0.99192607 0.99631500
0.98175269 0.98604620 0.99363130
0.97257358 0.97902685 0.99042767
0.96196717 0.97091609 0.98672581
0.94999605 0.96176165 0.98254764
0.57023370 0.67135519 0.85000312
0.59607440 0.69111568 0.85902202
0.62168372 0.71069932 0.86796021
0.64699906 0.73005813 0.87679577
0.67195779 0.74914420 0.88550687
0.69649726 0.76790965 0.89407158
0.72055477 0.78630662 0.90246814
0.74406773 0.80428708 0.91067463
0.76697350 0.82180321 0.91866916
0.78920931 0.83880711 0.92642993
0.81071264 0.85525084 0.93393499
0.83142078 0.87108648 0.94116253
0.85127103 0.88626611 0.94809067
0.87020087 0.90074188 0.95469755
0.88814759 0.91446579 0.96096128
0.90504849 0.92739004 0.96686006
0.92084098 0.93946660 0.97237194
0.93546236 0.95064765 0.97747511
0.94885004 0.96088529 0.98214763
0.96094126 0.97013158 0.98636776
0.97167355 0.97833860 0.99011350
0.98098409 0.98545843 0.99336308
0.98881030 0.99144316 0.99609458
0.99508953 0.99624491 0.99828613
0.99975914 0.99981582 0.99991590
0.99577355 0.99676806 0.99852490
0.98969543 0.99212003 0.99640352
0.98206234 0.98628300 0.99373943
0.97293699 0.97930473 0.99055445
0.96238196 0.97123325 0.98687059
0.95045990 0.96211642 0.98270953
0.93723351 0.95200211 0.97809327
0.92276543 0.94093829 0.97304362
0.62074637 0.70998251 0.86763304
0.64607370 0.72935045 0.87647277
0.67104661 0.74844742 0.88518882
0.69560266 0.76722556 0.89375937
0.71967900 0.78563690 0.90216249
0.74321312 0.80363357 0.91037637
0.76614225 0.82116759 0.91837907
0.78840387 0.83819121 0.92614883
0.80993521 0.85465634 0.93366367
0.83067375 0.87051523 0.94090182
0.85055673 0.88571984 0.94784135
0.86952150 0.90022230 0.95446044
0.88750547 0.91397476 0.96073723
0.90444595 0.92692930 0.96664977
0.92028034 0.93903792 0.97217625
0.93494594 0.95025277 0.97729486
0.94838005 0.96052593 0.98198366
0.96052015 0.96980953 0.98622078
0.97130352 0.97805560 0.98998433
0.98066747 0.98521632 0.99325258
0.98854941 0.99124366 0.99600351
0.99488664 0.99608982 0.99821532
0.99961656 0.99970680 0.99986619
0.99596673 0.99691570 0.99859232
0.98994696 0.99231237 0.99649131
0.98237002 0.98651820 0.99384677
0.97329837 0.97958112 0.99068063
0.96279484 0.97154897 0.98701465
0.95092201 0.96246976 0.98287082
0.93774253 0.95239133 0.97827089
0.92331898 0.94136161 0.97323686
0.90771413 0.92942846 0.96779042
0.89099061 0.91663986 0.96195358
0.67013490 0.74775022 0.88487065
0.69470733 0.76654088 0.89344686
0.71880245 0.78496659 0.90185654
0.74235761 0.80297935 0.91007775
0.76531017 0.82053131 0.91808867
0.78759742 0.83757448 0.92586732
0.80915678 0.85406107 0.93339199
0.82992554 0.86994308 0.94064069
0.84984112 0.88517261 0.94759160
0.86884081 0.89970177 0.95422286
0.88686198 0.91348267 0.96051258
0.90384197 0.92646736 0.96643895
0.91971815 0.93860799 0.97198004
0.93442780 0.94985658 0.97711402
0.94790840 0.96016526 0.98181903
0.96009719 0.96948606 0.98607314
0.97093153 0.97777116 0.98985451
0.98034883 0.98497266 0.99314135
0.98828644 0.99104255 0.99591172
0.99468160 0.99593300 0.99814379
0.99947178 0.99959606 0.99981564
0.99615765 0.99706173 0.99865896
0.99019641 0.99250317 0.99657834
0.98267561 0.98675191 0.99395347
0.97365791 0.97985601 0.99080610
0.96320593 0.97186333 0.98715812
0.95138234 0.96282178 0.98303145
0.93824977 0.95277923 0.97844797
0.92387092 0.94178367 0.97342944
0.90830845 0.92988294 0.96799785
0.89162493 0.91712493 0.96217501
0.87388307 0.90355766 0.95598274
0.85514551 0.88922894 0.94944292
0.71792519 0.78429574 0.90155035
0.74150133 0.80232453 0.90977889
0.76447713 0.81989431 0.91779792
0.78679001 0.83695704 0.92558551
0.80837727 0.85346496 0.93311989
0.82917625 0.86937004 0.94037914
0.84912425 0.88462442 0.94734144
0.86815876 0.89918023 0.95398480
0.88621706 0.91298950 0.96028751
0.90323645 0.92600435 0.96622765
0.91915435 0.93817681 0.97178328
0.93390805 0.94945908 0.97693259
0.94743496 0.95980316 0.98165375
0.95967239 0.96916121 0.98592484
0.97055769 0.97748530 0.98972404
0.98002821 0.98472744 0.99302948
0.98802131 0.99083984 0.99581921
0.99447441 0.99577451 0.99807143
0.99932468 0.99948359 0.99976432
0.99634641 0.99720609 0.99872482
0.99044377 0.99269229 0.99666470
0.98297918 0.98698407 0.99405938
0.97401541 0.98012948 0.99093086
0.96361512 0.97217625 0.98730099
0.95184088 0.96317244 0.98319155
0.93875539 0.95316589 0.97862440
0.92442131 0.94220454 0.97362155
0.90890121 0.93033624 0.96820474
0.89225787 0.91760892 0.96239591
0.87455380 0.90407056 0.95621681
0.85585177 0.88976902 0.94968945
0.83621436 0.87475216 0.94283563
0.81570429 0.85906798 0.93567717
0.76364326 0.81925660 0.91750687
0.78598160 0.83633888 0.92530340
0.80759662 0.85286802 0.93284744
0.82842571 0.86879617 0.94011724
0.84840620 0.88407534 0.94709080
0.86747539 0.89865768 0.95374632
0.88557070 0.91249526 0.96006191
0.90262944 0.92554015 0.96601576
0.91858894 0.93774450 0.97158593
0.93338662 0.94906038 0.97675061
0.94695973 0.95943981 0.98148793
0.95924574 0.96883500 0.98577595
0.97018188 0.97719795 0.98959291
0.97970557 0.98448074 0.99291688
0.98775417 0.99063557 0.99572599
0.99426502 0.99561441 0.99799836
0.99917537 0.99936944 0.99971217
0.99653298 0.99734873 0.99878997
0.99068898 0.99287981 0.99675024
0.98328078 0.98721468 0.99416465
0.97437108 0.98040140 0.99105501
0.96402246 0.97248775 0.98744315
0.95229769 0.96352172 0.98335093
0.93925929 0.95355123 0.97880030
0.92497003 0.94262415 0.97381306
0.90949249 0.93078840 0.96841109
0.89288932 0.91809183 0.96261626
0.87522322 0.90458244 0.95645046
0.85655677 0.89030814 0.94993550
0.83695269 0.87531674 0.94309330
0.81647354 0.85965627 0.93594569
0.79518211 0.84337455 0.92851454
0.77314091 0.82651949 0.92082173
0.80681497 0.85227031 0.93257463
0.82767409 0.86822134 0.93985486
0.84768689 0.88352525 0.94683975
0.86679071 0.89813411 0.95350736
0.88492298 0.91199994 0.95983589
0.90202093 0.92507488 0.96580338
0.91802204 0.93731093 0.97138810
0.93286353 0.94866037 0.97656804
0.94648284 0.95907509 0.98132145
0.95881730 0.96850735 0.98562640
0.96980423 0.97690910 0.98946106
0.97938097 0.98423254 0.99280357
0.98748493 0.99042964 0.99563199
0.99405342 0.99545264 0.99792451
0.99902380 0.99925351 0.99965930
0.99671733 0.99748975 0.99885428
0.99093205 0.99306571 0.99683511
0.98358029 0.98744375 0.99426919
0.97472471 0.98067182 0.99117845
0.96442795 0.97279787 0.98758465
0.95275265 0.96386969 0.98350978
0.93976152 0.95393527 0.97897559
0.92551714 0.94304252 0.97400403
0.91008222 0.93123937 0.96861696
0.89351934 0.91857362 0.96283615
0.87589121 0.90509331 0.95668364
0.85726047 0.89084625 0.95018113
0.83768976 0.87588042 0.94335055
0.81724173 0.86024368 0.93621379
0.79597902 0.84398401 0.92879272
0.77396435 0.82714921 0.92110914
0.75126028 0.80978727 0.91318494
0.72792947 0.79194605 0.90504205
0.84696639 0.88297427 0.94658828
0.86610478 0.89760953 0.95326793
0.88427383 0.91150355 0.95960933
0.90141100 0.92460841 0.96559048
0.91745353 0.93687624 0.97118968
0.93233877 0.94825906 0.97638494
0.94600415 0.95870906 0.98115438
0.95838702 0.96817827 0.98547626
0.96942461 0.97661883 0.98932856
0.97905439 0.98398274 0.99268955
0.98721361 0.99022216 0.99553728
0.99383974 0.99528921 0.99784994
0.99887002 0.99913591 0.99960560
0.99689949 0.99762905 0.99891788
0.99117303 0.99324995 0.99691921
0.98387778 0.98767126 0.99437302
0.97507644 0.98094082 0.99130118
0.96483159 0.97310650 0.98772556
0.95320588 0.96421629 0.98366797
0.94026208 0.95431805 0.97915030
0.92606270 0.94345969 0.97419441
0.91067040 0.93168914 0.96882224
0.89414793 0.91905433 0.96305555
0.87655789 0.90560311 0.95691627
0.85796297 0.89138341 0.95042628
0.83842570 0.87644321 0.94360739
0.81800884 0.86083031 0.93648154
0.79677498 0.84459263 0.92907047
0.77478683 0.82777816 0.92139620
0.75210702 0.81043476 0.91348052
0.72879815 0.79261035 0.90534526
0.70492297 0.77435285 0.89701235
