Ligne 125 Major/Ligne 125 Major.cube
# VEGAS Pro LUT
TITLE "Ligne 125 Major"
LUT_3D_SIZE 5
0.00000000 0.23529412 0.65098041
0.07819442 0.29508984 0.67827177
0.23159297 0.41239461 0.73181087
0.42811856 0.56267887 0.80040216
0.63569409 0.72141314 0.87285012
0.22498900 0.40734452 0.72950596
0.42049631 0.55685014 0.79774189
0.62823367 0.71570808 0.87024629
0.81612402 0.85938895 0.93582368
0.95209026 0.96336317 0.98327857
0.62074637 0.70998251 0.86763304
0.80993521 0.85465634 0.93366367
0.94838005 0.96052593 0.98198366
0.98994696 0.99231237 0.99649131
0.89099061 0.91663986 0.96195358
0.94455779 0.95760304 0.98064959
0.99188322 0.99379301 0.99716705
0.89602506 0.92048973 0.96371073
0.73139966 0.79459977 0.90625322
0.53008407 0.64065254 0.83599013
0.90096647 0.92426842 0.96543533
0.73830259 0.79987848 0.90866250
0.53776848 0.64652884 0.83867216
0.33144122 0.48874918 0.76665992
0.15139784 0.35106894 0.70382124
0.01890129 0.24974805 0.65757734
0.12955239 0.33436361 0.69619673
0.30317757 0.46713579 0.75679535
0.50769973 0.62353510 0.82817757
0.71104181 0.77903199 0.89914793
0.29604617 0.46168238 0.75430632
0.50000000 0.61764705 0.82549024
0.70395380 0.77361172 0.89667410
0.87583059 0.90504688 0.95666242
0.98355317 0.98742300 0.99425972
0.69682240 0.76815832 0.89418507
0.87044758 0.90093052 0.95478368
0.98109871 0.98554605 0.99340308
0.96223134 0.97111809 0.98681802
0.83372235 0.87284654 0.94196588
0.97851562 0.98357075 0.99250156
0.96548802 0.97360849 0.98795462
0.83962739 0.87736207 0.94402683
0.65722954 0.73788142 0.88036638
0.45037159 0.57969594 0.80816889
0.84545583 0.88181919 0.94606107
0.66456962 0.74349439 0.88292825
0.45804319 0.58556247 0.81084645
0.25795364 0.43255278 0.74101126
0.09637807 0.30899498 0.68461823
0.05161993 0.27476817 0.66899675
0.19006476 0.38063776 0.71731675
0.37925360 0.52531159 0.78334737
0.58710939 0.68426013 0.85589308
0.78155500 0.83295381 0.92375839
0.37176633 0.51958603 0.78073412
0.57950372 0.67844403 0.85323852
0.77501100 0.82794958 0.92147446
0.92621118 0.94357324 0.97424626
0.99882770 0.99910349 0.99959081
0.76840705 0.82289952 0.91916955
0.92180556 0.94020426 0.97270864
1.00000000 1.00000000 1.00000000
0.92180556 0.94020426 0.97270864
0.76840705 0.82289952 0.91916955
0.99882770 0.99910349 0.99959081
0.92621118 0.94357324 0.97424626
0.77501100 0.82794958 0.92147446
0.57950372 0.67844403 0.85323852
0.37176633 0.51958603 0.78073412
0.78155500 0.83295381 0.92375839
0.58710939 0.68426013 0.85589308
0.37925360 0.52531159 0.78334737
0.19006476 0.38063776 0.71731675
0.05161993 0.27476817 0.66899675
0.09637807 0.30899498 0.68461823
0.25795364 0.43255278 0.74101126
0.45804319 0.58556247 0.81084645
0.66456962 0.74349439 0.88292825
0.84545583 0.88181919 0.94606107
0.45037159 0.57969594 0.80816889
0.65722954 0.73788142 0.88036638
0.83962739 0.87736207 0.94402683
0.96548802 0.97360849 0.98795462
0.97851562 0.98357075 0.99250156
0.83372235 0.87284654 0.94196588
0.96223134 0.97111809 0.98681802
0.98109871 0.98554605 0.99340308
0.87044758 0.90093052 0.95478368
0.69682240 0.76815832 0.89418507
0.98355317 0.98742300 0.99425972
0.87583059 0.90504688 0.95666242
0.70395380 0.77361172 0.89667410
0.50000000 0.61764705 0.82549024
0.29604617 0.46168238 0.75430632
0.71104181 0.77903199 0.89914793
0.50769973 0.62353510 0.82817757
0.30317757 0.46713579 0.75679535
0.12955239 0.33436361 0.69619673
0.01890129 0.24974805 0.65757734
0.15139784 0.35106894 0.70382124
0.33144122 0.48874918 0.76665992
0.53776848 0.64652884 0.83867216
0.73830259 0.79987848 0.90866250
0.90096647 0.92426842 0.96543533
0.53008407 0.64065254 0.83599013
0.73139966 0.79459977 0.90625322
0.89602506 0.92048973 0.96371073
0.99188322 0.99379301 0.99716705
0.94455779 0.95760304 0.98064959
0.89099061 0.91663986 0.96195358
0.98994696 0.99231237 0.99649131
0.94838005 0.96052593 0.98198366
0.80993521 0.85465634 0.93366367
0.62074637 0.70998251 0.86763304
0.95209026 0.96336317 0.98327857
0.81612402 0.85938895 0.93582368
0.62823367 0.71570808 0.87024629
0.42049631 0.55685014 0.79774189
0.22498900 0.40734452 0.72950596
0.63569409 0.72141314 0.87285012
0.42811856 0.56267887 0.80040216
0.23159297 0.41239461 0.73181087
0.07819442 0.29508984 0.67827177
0.00000000 0.23529412 0.65098041
