Ligne 125 Major/Ligne 125 Major.cube
# VEGAS Pro LUT
TITLE "Ligne 125 Major"
LUT_3D_SIZE 9
0.00000000 0.23529412 0.65098041
0.02769188 0.25647026 0.66064543
0.07819442 0.29508984 0.67827177
0.14749800 0.34808671 0.70246011
0.23159297 0.41239461 0.73181087
0.32646969 0.48494741 0.76492471
0.42811856 0.56267887 0.80040216
0.53252989 0.64252287 0.83684379
0.63569409 0.72141314 0.87285012
0.07597880 0.29339555 0.67749852
0.14466174 0.34591779 0.70147020
0.22828358 0.40986392 0.73065585
0.32283470 0.48216772 0.76365602
0.42430547 0.55976301 0.79907131
0.52868623 0.63958359 0.83550227
0.63196737 0.71856326 0.87154937
0.73013920 0.79363585 0.90581328
0.81919217 0.86173517 0.93689454
0.22498900 0.40734452 0.72950596
0.31920907 0.47939518 0.76239061
0.42049631 0.55685014 0.79774189
0.52484107 0.63664317 0.83416021
0.62823367 0.71570808 0.87024629
0.72666454 0.79097879 0.90460056
0.81612402 0.85938895 0.93582368
0.89260244 0.91787249 0.96251613
0.95209026 0.96336317 0.98327857
0.41669130 0.55394042 0.79641384
0.52099460 0.63370174 0.83281773
0.62449330 0.71284783 0.86894083
0.72317773 0.78831238 0.90338361
0.81303829 0.85702932 0.93474668
0.89006537 0.91593236 0.96163064
0.95024925 0.96195531 0.98263603
0.98958039 0.99203205 0.99636334
0.98892820 0.99153334 0.99613571
0.62074637 0.70998251 0.86763304
0.71967900 0.78563690 0.90216249
0.80993521 0.85465634 0.93366367
0.88750547 0.91397476 0.96073723
0.94838005 0.96052593 0.98198366
0.98854941 0.99124366 0.99600351
0.98994696 0.99231237 0.99649131
0.95092201 0.96246976 0.98287082
0.89099061 0.91663986 0.96195358
0.80681497 0.85227031 0.93257463
0.88492298 0.91199994 0.95983589
0.94648284 0.95907509 0.98132145
0.98748493 0.99042964 0.99563199
0.99093205 0.99306571 0.99683511
0.95275265 0.96386969 0.98350978
0.89351934 0.91857362 0.96283615
0.81724173 0.86024368 0.93621379
0.72792947 0.79194605 0.90504205
0.94455779 0.95760304 0.98064959
0.98638725 0.98959023 0.99524885
0.99188322 0.99379301 0.99716705
0.95455486 0.96524781 0.98413873
0.89602506 0.92048973 0.96371073
0.82030344 0.86258501 0.93728238
0.73139966 0.79459977 0.90625322
0.63332331 0.71960020 0.87202269
0.53008407 0.64065254 0.83599013
0.99280024 0.99449432 0.99748713
0.95632833 0.96660399 0.98475772
0.89850748 0.92238808 0.96457714
0.82334733 0.86491263 0.93834478
0.73485744 0.79724395 0.90746003
0.63704753 0.72244811 0.87332249
0.53392720 0.64359140 0.83733147
0.42950606 0.56373996 0.80088645
0.32779378 0.48595995 0.76538688
0.90096647 0.92426842 0.96543533
0.82637310 0.86722648 0.93940079
0.73830259 0.79987848 0.90866250
0.64076453 0.72529054 0.87461978
0.53776848 0.64652884 0.83867216
0.43332419 0.56665969 0.80221903
0.33144122 0.48874918 0.76665992
0.23612922 0.41586351 0.73339415
0.15139784 0.35106894 0.70382124
0.00761236 0.24111533 0.65363729
0.04447423 0.26930383 0.66650277
0.10261799 0.31376672 0.68679613
0.17803404 0.37143779 0.71311778
0.26671273 0.43925092 0.74406838
0.36464441 0.51413983 0.77824843
0.46781948 0.59303844 0.81425858
0.57222825 0.67288041 0.85069931
0.67386115 0.75059968 0.88617116
0.10014835 0.31187814 0.68593413
0.17500000 0.36911765 0.71205884
0.26326180 0.43661198 0.74286395
0.36092412 0.51129490 0.77695000
0.46397731 0.59010029 0.81291759
0.56841177 0.66996193 0.84936726
0.67021781 0.74781364 0.88489956
0.76538587 0.82058918 0.91811508
0.84990621 0.88522238 0.94761431
0.25982359 0.43398276 0.74166393
0.35721111 0.50845557 0.77565408
0.46013704 0.58716363 0.81157726
0.56459171 0.66704071 0.84803396
0.66656548 0.74502069 0.88362485
0.76204878 0.81803733 0.91695035
0.84703189 0.88302439 0.94661117
0.91750526 0.93691581 0.97120774
0.96945918 0.97664529 0.98934066
0.45629883 0.58422852 0.81023765
0.56076831 0.66411692 0.84669954
0.66290438 0.74222100 0.88234705
0.75869751 0.81547457 0.91578072
0.84413797 0.88081139 0.94560111
0.91521615 0.93516529 0.97040880
0.96792245 0.97547013 0.98880434
0.99824721 0.99865961 0.99938822
0.97643250 0.98197782 0.99177450
0.65923470 0.73941481 0.88106626
0.75533223 0.81290114 0.91460615
0.84122461 0.87858349 0.94458425
0.91290224 0.93339580 0.96960115
0.96635544 0.97427183 0.98825741
0.99757463 0.99814528 0.99915349
0.97778904 0.98301512 0.99224794
0.93032008 0.94671535 0.97568035
0.86347347 0.89559740 0.95234960
0.83829200 0.87634093 0.94356072
0.91056359 0.93160748 0.96878493
0.96475834 0.97305048 0.98769999
0.99686652 0.99760383 0.99890637
0.97911388 0.98402828 0.99271035
0.93243432 0.94833213 0.97641826
0.86622959 0.89770496 0.95331150
0.78450930 0.83521301 0.92478955
0.69128311 0.76392233 0.89225173
0.96313131 0.97180629 0.98713213
0.99612314 0.99703532 0.99864691
0.98040694 0.98501706 0.99316162
0.93452215 0.94992870 0.97714692
0.86896467 0.89979649 0.95426607
0.78774410 0.83768666 0.92591852
0.69487017 0.76666540 0.89350373
0.59435242 0.68979895 0.85842103
0.49020055 0.61015338 0.82207000
0.98166788 0.98598135 0.99360174
0.93658334 0.95150489 0.97786635
0.87167853 0.90187180 0.95521331
0.79096317 0.84014833 0.92704207
0.69844693 0.76940060 0.89475209
0.59813935 0.69269478 0.85974276
0.49405012 0.61309713 0.82341361
0.39018887 0.53367382 0.78716397
0.29056522 0.45749104 0.75239336
0.87437105 0.90393078 0.95615304
0.79416633 0.84259778 0.92816001
0.70201313 0.77212769 0.89599675
0.60192114 0.69558674 0.86106271
0.49790001 0.61604118 0.82475728
0.39395931 0.53655714 0.78847992
0.29410872 0.46020079 0.75363010
0.20235786 0.39003837 0.72160727
0.12271636 0.32913604 0.69381082
0.01890129 0.24974805 0.65757734
0.06435027 0.28450316 0.67343992
0.12955239 0.33436361 0.69619673
0.21049805 0.39626321 0.72444838
0.30317757 0.46713579 0.75679535
0.40358135 0.54391515 0.79183823
0.50769973 0.62353510 0.82817757
0.61152309 0.70292944 0.86441398
0.71104181 0.77903199 0.89914793
0.12685017 0.33229718 0.69525361
0.20728765 0.39380822 0.72332788
0.29960656 0.46440500 0.75554895
0.39979720 0.54102141 0.79051745
0.50384998 0.62059116 0.82683390
0.60775524 0.70004809 0.86309892
0.70750332 0.77632606 0.89791292
0.79908466 0.84635884 0.92987663
0.87848955 0.90708029 0.95759046
0.29604617 0.46168238 0.75430632
0.39601827 0.53813159 0.78919852
0.50000000 0.61764705 0.82549024
0.60398173 0.69716251 0.86178190
0.70395380 0.77361172 0.89667410
0.79590666 0.84392864 0.92876744
0.87583059 0.90504688 0.95666242
0.93971592 0.95390040 0.97895968
0.98355317 0.98742300 0.99425972
0.49615005 0.61470294 0.82414651
0.60020280 0.69427276 0.86046296
0.70039344 0.77088910 0.89543146
0.79271233 0.84148592 0.92765254
0.87314981 0.90299696 0.95572680
0.93769628 0.95235598 0.97825480
0.98234212 0.98649693 0.99383706
0.99490517 0.99610394 0.99822181
0.96055853 0.96983886 0.98623413
0.69682240 0.76815832 0.89418507
0.78950197 0.83903092 0.92653203
0.87044758 0.90093052 0.95478368
0.93564975 0.95079094 0.97754049
0.98109871 0.98554605 0.99340308
0.99570280 0.99671388 0.99850017
0.96223134 0.97111809 0.98681802
0.90690130 0.92880690 0.96750671
0.83372235 0.87284654 0.94196588
0.86772406 0.89884782 0.95383310
0.93357641 0.94920552 0.97681689
0.97982317 0.98457062 0.99295789
0.99646538 0.99729705 0.99876636
0.96387458 0.97237468 0.98739153
0.90927768 0.93062407 0.96833611
0.83668435 0.87511158 0.94299966
0.75010425 0.80890322 0.91278148
0.65354699 0.73506534 0.87908113
0.97851562 0.98357075 0.99250156
0.99719280 0.99785334 0.99902022
0.96548802 0.97360849 0.98795462
0.91162968 0.93242270 0.96915704
0.83962739 0.87736207 0.94402683
0.75349081 0.81149292 0.91396344
0.65722954 0.73788142 0.88036638
0.55485326 0.65959364 0.84463507
0.45037159 0.57969594 0.80816889
0.96707147 0.97481936 0.98850727
0.91395706 0.93420249 0.96996933
0.84255123 0.87959802 0.94504732
0.75686359 0.81407219 0.91514063
0.66090381 0.74069113 0.88164878
0.55868149 0.66252112 0.84597117
0.45420620 0.58262825 0.80950725
0.35148767 0.50407881 0.77365649
0.25453553 0.42993891 0.73981827
0.84545583 0.88181919 0.94606107
0.76022255 0.81664079 0.91631299
0.66456962 0.74349439 0.88292825
0.56250662 0.66544622 0.84730625
0.45804319 0.58556247 0.81084645
0.35518900 0.50690925 0.77494836
0.25795364 0.43255278 0.74101126
0.17034680 0.36555931 0.71043479
0.09637807 0.30899498 0.68461823
0.03364456 0.26102230 0.66272300
0.08709778 0.30189830 0.68137926
0.15877540 0.35671061 0.70639616
0.24466778 0.42239299 0.73637426
0.34076527 0.49587932 0.76991415
0.44305828 0.57410336 0.80561644
0.54753709 0.65399897 0.84208161
0.65019220 0.73249990 0.87791020
0.74701381 0.80654001 0.91170287
0.15586202 0.35448271 0.70537931
0.24130249 0.41981956 0.73519969
0.33709559 0.49307311 0.76863337
0.43923169 0.57117718 0.80428088
0.54370117 0.65106559 0.84074277
0.64649439 0.72967219 0.87661964
0.74360168 0.80393070 0.91051197
0.83101344 0.87077498 0.94102037
0.90472001 0.92713886 0.96674544
0.33343449 0.49027345 0.76735556
0.43540829 0.56825340 0.80294645
0.53986299 0.64813048 0.83940315
0.64278889 0.72683853 0.87532634
0.74017638 0.80131137 0.90931648
0.82801586 0.86848277 0.93997419
0.90229774 0.92528647 0.96590000
0.95901227 0.96865642 0.98569447
0.99414986 0.99552637 0.99795818
0.53602266 0.64519382 0.83806282
0.63907588 0.72399920 0.87403041
0.73673820 0.79868215 0.90811646
0.82499999 0.86617649 0.93892157
0.89985168 0.92341596 0.96504629
0.95728350 0.96733445 0.98509109
0.99328595 0.99486572 0.99765664
0.98462582 0.98824328 0.99463409
0.94152844 0.95528644 0.97959226
0.73328727 0.79604322 0.90691203
0.82196593 0.86385632 0.93786263
0.89738202 0.92152739 0.96418428
0.95552576 0.96599030 0.98447764
0.99238765 0.99417877 0.99734312
0.98577452 0.98912174 0.99503505
0.94349611 0.95679116 0.98027903
0.88088787 0.90891427 0.95842755
0.80195946 0.84855723 0.93088001
0.89488900 0.91962099 0.96331418
0.95373923 0.96462411 0.98385406
0.99145508 0.99346566 0.99701768
0.98689032 0.98997492 0.99542445
0.94543624 0.95827478 0.98095620
0.88350487 0.91091549 0.95934093
0.80510587 0.85096329 0.93197811
0.71424884 0.78148443 0.90026724
0.61494339 0.70554495 0.86560768
0.99048847 0.99272650 0.99668032
0.98797292 0.99080282 0.99580228
0.94734865 0.95973724 0.98162365
0.88609964 0.91289973 0.96024656
0.80823541 0.85335648 0.93307042
0.71776563 0.78417373 0.90149468
0.61869997 0.70841759 0.86691880
0.51504803 0.62915438 0.83074224
0.41081944 0.54945016 0.79436445
0.94923317 0.96117830 0.98228139
0.88867188 0.91486675 0.96114433
0.81134784 0.85573661 0.93415672
0.72127080 0.78685415 0.90271807
0.62245035 0.71128553 0.86822778
0.51889604 0.63209701 0.83208531
0.41461766 0.55235469 0.79569012
0.31362474 0.47512481 0.76044160
0.21992692 0.40347353 0.72773921
0.81444305 0.85810351 0.93523699
0.72476417 0.78952551 0.90393728
0.62619430 0.71414858 0.86953449
0.52274311 0.63503885 0.83342803
0.41842031 0.55526263 0.79701728
0.31723550 0.47788596 0.76170182
0.22319826 0.40597513 0.72888100
0.14031827 0.34259632 0.69995421
0.07260518 0.29081571 0.67632103
0.05161993 0.27476817 0.66899675
0.11249453 0.32131934 0.69024318
0.19006476 0.38063776 0.71731675
0.28032100 0.44965723 0.74881792
0.37925360 0.52531159 0.78334737
0.48285294 0.60453463 0.81950557
0.58710939 0.68426013 0.85589308
0.68801326 0.76142192 0.89111054
0.78155500 0.83295381 0.92375839
0.18696168 0.37826481 0.71623373
0.27682227 0.44698173 0.74759680
0.37550670 0.52244633 0.78203958
0.47900540 0.60159236 0.81816268
0.58330870 0.68135369 0.85456657
0.68440700 0.75866413 0.88985187
0.77829057 0.83045751 0.92261904
0.86094993 0.89366758 0.95146883
0.92837530 0.94522816 0.97500157
0.37176633 0.51958603 0.78073412
0.47515896 0.59865093 0.81682020
0.57950372 0.67844403 0.85323852
0.68079090 0.75589895 0.88858980
0.77501100 0.82794958 0.92147446
0.85815430 0.89152974 0.95049310
0.92621118 0.94357324 0.97424626
0.97517198 0.98101389 0.99133456
0.99882770 0.99910349 0.99959081
0.57569456 0.67553115 0.85190910
0.67716527 0.75312638 0.88732439
0.77171642 0.82543021 0.92032456
0.85533828 0.88937634 0.94951022
0.92402118 0.94189858 0.97348189
0.97375560 0.97993076 0.99084020
0.99943191 0.99956554 0.99980170
0.97082978 0.97769338 0.98981905
0.91956449 0.93849051 0.97192645
0.76840705 0.82289952 0.91916955
0.85250199 0.88720739 0.94852030
0.92180556 0.94020426 0.97270864
0.97230810 0.97882384 0.99033499
1.00000000 1.00000000 1.00000000
0.97230810 0.97882384 0.99033499
0.92180556 0.94020426 0.97270864
0.85250199 0.88720739 0.94852030
0.76840705 0.82289952 0.91916955
0.91956449 0.93849051 0.97192645
0.97082978 0.97769338 0.98981905
0.99943191 0.99956554 0.99980170
0.97375560 0.97993076 0.99084020
0.92402118 0.94189858 0.97348189
0.85533828 0.88937634 0.94951022
0.77171642 0.82543021 0.92032456
0.67716527 0.75312638 0.88732439
0.57569456 0.67553115 0.85190910
0.99882770 0.99910349 0.99959081
0.97517198 0.98101389 0.99133456
0.92621118 0.94357324 0.97424626
0.85815430 0.89152974 0.95049310
0.77501100 0.82794958 0.92147446
0.68079090 0.75589895 0.88858980
0.57950372 0.67844403 0.85323852
0.47515896 0.59865093 0.81682020
0.37176633 0.51958603 0.78073412
0.92837530 0.94522816 0.97500157
0.86094993 0.89366758 0.95146883
0.77829057 0.83045751 0.92261904
0.68440700 0.75866413 0.88985187
0.58330870 0.68135369 0.85456657
0.47900540 0.60159236 0.81816268
0.37550670 0.52244633 0.78203958
0.27682227 0.44698173 0.74759680
0.18696168 0.37826481 0.71623373
0.78155500 0.83295381 0.92375839
0.68801326 0.76142192 0.89111054
0.58710939 0.68426013 0.85589308
0.48285294 0.60453463 0.81950557
0.37925360 0.52531159 0.78334737
0.28032100 0.44965723 0.74881792
0.19006476 0.38063776 0.71731675
0.11249453 0.32131934 0.69024318
0.05161993 0.27476817 0.66899675
0.07260518 0.29081571 0.67632103
0.14031827 0.34259632 0.69995421
0.22319826 0.40597513 0.72888100
0.31723550 0.47788596 0.76170182
0.41842031 0.55526263 0.79701728
0.52274311 0.63503885 0.83342803
0.62619430 0.71414858 0.86953449
0.72476417 0.78952551 0.90393728
0.81444305 0.85810351 0.93523699
0.21992692 0.40347353 0.72773921
0.31362474 0.47512481 0.76044160
0.41461766 0.55235469 0.79569012
0.51889604 0.63209701 0.83208531
0.62245035 0.71128553 0.86822778
0.72127080 0.78685415 0.90271807
0.81134784 0.85573661 0.93415672
0.88867188 0.91486675 0.96114433
0.94923317 0.96117830 0.98228139
0.41081944 0.54945016 0.79436445
0.51504803 0.62915438 0.83074224
0.61869997 0.70841759 0.86691880
0.71776563 0.78417373 0.90149468
0.80823541 0.85335648 0.93307042
0.88609964 0.91289973 0.96024656
0.94734865 0.95973724 0.98162365
0.98797292 0.99080282 0.99580228
0.99048847 0.99272650 0.99668032
0.61494339 0.70554495 0.86560768
0.71424884 0.78148443 0.90026724
0.80510587 0.85096329 0.93197811
0.88350487 0.91091549 0.95934093
0.94543624 0.95827478 0.98095620
0.98689032 0.98997492 0.99542445
0.99145508 0.99346566 0.99701768
0.95373923 0.96462411 0.98385406
0.89488900 0.91962099 0.96331418
0.80195946 0.84855723 0.93088001
0.88088787 0.90891427 0.95842755
0.94349611 0.95679116 0.98027903
0.98577452 0.98912174 0.99503505
0.99238765 0.99417877 0.99734312
0.95552576 0.96599030 0.98447764
0.89738202 0.92152739 0.96418428
0.82196593 0.86385632 0.93786263
0.73328727 0.79604322 0.90691203
0.94152844 0.95528644 0.97959226
0.98462582 0.98824328 0.99463409
0.99328595 0.99486572 0.99765664
0.95728350 0.96733445 0.98509109
0.89985168 0.92341596 0.96504629
0.82499999 0.86617649 0.93892157
0.73673820 0.79868215 0.90811646
0.63907588 0.72399920 0.87403041
0.53602266 0.64519382 0.83806282
0.99414986 0.99552637 0.99795818
0.95901227 0.96865642 0.98569447
0.90229774 0.92528647 0.96590000
0.82801586 0.86848277 0.93997419
0.74017638 0.80131137 0.90931648
0.64278889 0.72683853 0.87532634
0.53986299 0.64813048 0.83940315
0.43540829 0.56825340 0.80294645
0.33343449 0.49027345 0.76735556
0.90472001 0.92713886 0.96674544
0.83101344 0.87077498 0.94102037
0.74360168 0.80393070 0.91051197
0.64649439 0.72967219 0.87661964
0.54370117 0.65106559 0.84074277
0.43923169 0.57117718 0.80428088
0.33709559 0.49307311 0.76863337
0.24130249 0.41981956 0.73519969
0.15586202 0.35448271 0.70537931
0.74701381 0.80654001 0.91170287
0.65019220 0.73249990 0.87791020
0.54753709 0.65399897 0.84208161
0.44305828 0.57410336 0.80561644
0.34076527 0.49587932 0.76991415
0.24466778 0.42239299 0.73637426
0.15877540 0.35671061 0.70639616
0.08709778 0.30189830 0.68137926
0.03364456 0.26102230 0.66272300
0.09637807 0.30899498 0.68461823
0.17034680 0.36555931 0.71043479
0.25795364 0.43255278 0.74101126
0.35518900 0.50690925 0.77494836
0.45804319 0.58556247 0.81084645
0.56250662 0.66544622 0.84730625
0.66456962 0.74349439 0.88292825
0.76022255 0.81664079 0.91631299
0.84545583 0.88181919 0.94606107
0.25453553 0.42993891 0.73981827
0.35148767 0.50407881 0.77365649
0.45420620 0.58262825 0.80950725
0.55868149 0.66252112 0.84597117
0.66090381 0.74069113 0.88164878
0.75686359 0.81407219 0.91514063
0.84255123 0.87959802 0.94504732
0.91395706 0.93420249 0.96996933
0.96707147 0.97481936 0.98850727
0.45037159 0.57969594 0.80816889
0.55485326 0.65959364 0.84463507
0.65722954 0.73788142 0.88036638
0.75349081 0.81149292 0.91396344
0.83962739 0.87736207 0.94402683
0.91162968 0.93242270 0.96915704
0.96548802 0.97360849 0.98795462
0.99719280 0.99785334 0.99902022
0.97851562 0.98357075 0.99250156
0.65354699 0.73506534 0.87908113
0.75010425 0.80890322 0.91278148
0.83668435 0.87511158 0.94299966
0.90927768 0.93062407 0.96833611
0.96387458 0.97237468 0.98739153
0.99646538 0.99729705 0.99876636
0.97982317 0.98457062 0.99295789
0.93357641 0.94920552 0.97681689
0.86772406 0.89884782 0.95383310
0.83372235 0.87284654 0.94196588
0.90690130 0.92880690 0.96750671
0.96223134 0.97111809 0.98681802
0.99570280 0.99671388 0.99850017
0.98109871 0.98554605 0.99340308
0.93564975 0.95079094 0.97754049
0.87044758 0.90093052 0.95478368
0.78950197 0.83903092 0.92653203
0.69682240 0.76815832 0.89418507
0.96055853 0.96983886 0.98623413
0.99490517 0.99610394 0.99822181
0.98234212 0.98649693 0.99383706
0.93769628 0.95235598 0.97825480
0.87314981 0.90299696 0.95572680
0.79271233 0.84148592 0.92765254
0.70039344 0.77088910 0.89543146
0.60020280 0.69427276 0.86046296
0.49615005 0.61470294 0.82414651
0.98355317 0.98742300 0.99425972
0.93971592 0.95390040 0.97895968
0.87583059 0.90504688 0.95666242
0.79590666 0.84392864 0.92876744
0.70395380 0.77361172 0.89667410
0.60398173 0.69716251 0.86178190
0.50000000 0.61764705 0.82549024
0.39601827 0.53813159 0.78919852
0.29604617 0.46168238 0.75430632
0.87848955 0.90708029 0.95759046
0.79908466 0.84635884 0.92987663
0.70750332 0.77632606 0.89791292
0.60775524 0.70004809 0.86309892
0.50384998 0.62059116 0.82683390
0.39979720 0.54102141 0.79051745
0.29960656 0.46440500 0.75554895
0.20728765 0.39380822 0.72332788
0.12685017 0.33229718 0.69525361
0.71104181 0.77903199 0.89914793
0.61152309 0.70292944 0.86441398
0.50769973 0.62353510 0.82817757
0.40358135 0.54391515 0.79183823
0.30317757 0.46713579 0.75679535
0.21049805 0.39626321 0.72444838
0.12955239 0.33436361 0.69619673
0.06435027 0.28450316 0.67343992
0.01890129 0.24974805 0.65757734
0.12271636 0.32913604 0.69381082
0.20235786 0.39003837 0.72160727
0.29410872 0.46020079 0.75363010
0.39395931 0.53655714 0.78847992
0.49790001 0.61604118 0.82475728
0.60192114 0.69558674 0.86106271
0.70201313 0.77212769 0.89599675
0.79416633 0.84259778 0.92816001
0.87437105 0.90393078 0.95615304
0.29056522 0.45749104 0.75239336
0.39018887 0.53367382 0.78716397
0.49405012 0.61309713 0.82341361
0.59813935 0.69269478 0.85974276
0.69844693 0.76940060 0.89475209
0.79096317 0.84014833 0.92704207
0.87167853 0.90187180 0.95521331
0.93658334 0.95150489 0.97786635
0.98166788 0.98598135 0.99360174
0.49020055 0.61015338 0.82207000
0.59435242 0.68979895 0.85842103
0.69487017 0.76666540 0.89350373
0.78774410 0.83768666 0.92591852
0.86896467 0.89979649 0.95426607
0.93452215 0.94992870 0.97714692
0.98040694 0.98501706 0.99316162
0.99612314 0.99703532 0.99864691
0.96313131 0.97180629 0.98713213
0.69128311 0.76392233 0.89225173
0.78450930 0.83521301 0.92478955
0.86622959 0.89770496 0.95331150
0.93243432 0.94833213 0.97641826
0.97911388 0.98402828 0.99271035
0.99686652 0.99760383 0.99890637
0.96475834 0.97305048 0.98769999
0.91056359 0.93160748 0.96878493
0.83829200 0.87634093 0.94356072
0.86347347 0.89559740 0.95234960
0.93032008 0.94671535 0.97568035
0.97778904 0.98301512 0.99224794
0.99757463 0.99814528 0.99915349
0.96635544 0.97427183 0.98825741
0.91290224 0.93339580 0.96960115
0.84122461 0.87858349 0.94458425
0.75533223 0.81290114 0.91460615
0.65923470 0.73941481 0.88106626
0.97643250 0.98197782 0.99177450
0.99824721 0.99865961 0.99938822
0.96792245 0.97547013 0.98880434
0.91521615 0.93516529 0.97040880
0.84413797 0.88081139 0.94560111
0.75869751 0.81547457 0.91578072
0.66290438 0.74222100 0.88234705
0.56076831 0.66411692 0.84669954
0.45629883 0.58422852 0.81023765
0.96945918 0.97664529 0.98934066
0.91750526 0.93691581 0.97120774
0.84703189 0.88302439 0.94661117
0.76204878 0.81803733 0.91695035
0.66656548 0.74502069 0.88362485
0.56459171 0.66704071 0.84803396
0.46013704 0.58716363 0.81157726
0.35721111 0.50845557 0.77565408
0.25982359 0.43398276 0.74166393
0.84990621 0.88522238 0.94761431
0.76538587 0.82058918 0.91811508
0.67021781 0.74781364 0.88489956
0.56841177 0.66996193 0.84936726
0.46397731 0.59010029 0.81291759
0.36092412 0.51129490 0.77695000
0.26326180 0.43661198 0.74286395
0.17500000 0.36911765 0.71205884
0.10014835 0.31187814 0.68593413
0.67386115 0.75059968 0.88617116
0.57222825 0.67288041 0.85069931
0.46781948 0.59303844 0.81425858
0.36464441 0.51413983 0.77824843
0.26671273 0.43925092 0.74406838
0.17803404 0.37143779 0.71311778
0.10261799 0.31376672 0.68679613
0.04447423 0.26930383 0.66650277
0.00761236 0.24111533 0.65363729
0.15139784 0.35106894 0.70382124
0.23612922 0.41586351 0.73339415
0.33144122 0.48874918 0.76665992
0.43332419 0.56665969 0.80221903
0.53776848 0.64652884 0.83867216
0.64076453 0.72529054 0.87461978
0.73830259 0.79987848 0.90866250
0.82637310 0.86722648 0.93940079
0.90096647 0.92426842 0.96543533
0.32779378 0.48595995 0.76538688
0.42950606 0.56373996 0.80088645
0.53392720 0.64359140 0.83733147
0.63704753 0.72244811 0.87332249
0.73485744 0.79724395 0.90746003
0.82334733 0.86491263 0.93834478
0.89850748 0.92238808 0.96457714
0.95632833 0.96660399 0.98475772
0.99280024 0.99449432 0.99748713
0.53008407 0.64065254 0.83599013
0.63332331 0.71960020 0.87202269
0.73139966 0.79459977 0.90625322
0.82030344 0.86258501 0.93728238
0.89602506 0.92048973 0.96371073
0.95455486 0.96524781 0.98413873
0.99188322 0.99379301 0.99716705
0.98638725 0.98959023 0.99524885
0.94455779 0.95760304 0.98064959
0.72792947 0.79194605 0.90504205
0.81724173 0.86024368 0.93621379
0.89351934 0.91857362 0.96283615
0.95275265 0.96386969 0.98350978
0.99093205 0.99306571 0.99683511
0.98748493 0.99042964 0.99563199
0.94648284 0.95907509 0.98132145
0.88492298 0.91199994 0.95983589
0.80681497 0.85227031 0.93257463
0.89099061 0.91663986 0.96195358
0.95092201 0.96246976 0.98287082
0.98994696 0.99231237 0.99649131
0.98854941 0.99124366 0.99600351
0.94838005 0.96052593 0.98198366
0.88750547 0.91397476 0.96073723
0.80993521 0.85465634 0.93366367
0.71967900 0.78563690 0.90216249
0.62074637 0.70998251 0.86763304
0.98892820 0.99153334 0.99613571
0.98958039 0.99203205 0.99636334
0.95024925 0.96195531 0.98263603
0.89006537 0.91593236 0.96163064
0.81303829 0.85702932 0.93474668
0.72317773 0.78831238 0.90338361
0.62449330 0.71284783 0.86894083
0.52099460 0.63370174 0.83281773
0.41669130 0.55394042 0.79641384
0.95209026 0.96336317 0.98327857
0.89260244 0.91787249 0.96251613
0.81612402 0.85938895 0.93582368
0.72666454 0.79097879 0.90460056
0.62823367 0.71570808 0.87024629
0.52484107 0.63664317 0.83416021
0.42049631 0.55685014 0.79774189
0.31920907 0.47939518 0.76239061
0.22498900 0.40734452 0.72950596
0.81919217 0.86173517 0.93689454
0.73013920 0.79363585 0.90581328
0.63196737 0.71856326 0.87154937
0.52868623 0.63958359 0.83550227
0.42430547 0.55976301 0.79907131
0.32283470 0.48216772 0.76365602
0.22828358 0.40986392 0.73065585
0.14466174 0.34591779 0.70147020
0.07597880 0.29339555 0.67749852
0.63569409 0.72141314 0.87285012
0.53252989 0.64252287 0.83684379
0.42811856 0.56267887 0.80040216
0.32646969 0.48494741 0.76492471
0.23159297 0.41239461 0.73181087
0.14749800 0.34808671 0.70246011
0.07819442 0.29508984 0.67827177
0.02769188 0.25647026 0.66064543
0.00000000 0.23529412 0.65098041
