X Major 322/X Major 322.cube
# VEGAS Pro LUT
TITLE "X Major 322"
LUT_3D_SIZE 33
1.00000000 0.29411766 0.58039218
0.99560690 0.29691932 0.58224034
0.98959386 0.30052838 0.58463573
0.98202556 0.30491808 0.58755994
0.97296649 0.31006166 0.59099424
0.96248126 0.31593242 0.59492010
0.95063442 0.32250360 0.59931898
0.93749064 0.32974845 0.60417229
0.92311448 0.33764026 0.60946137
0.90757048 0.34615228 0.61516768
0.89092326 0.35525775 0.62127268
0.87323743 0.36492994 0.62775779
0.85457754 0.37514213 0.63460433
0.83500814 0.38586757 0.64179385
0.81459391 0.39707953 0.64930773
0.79339939 0.40875125 0.65712732
0.77148914 0.42085600 0.66523409
0.74892777 0.43336701 0.67360944
0.72577983 0.44625762 0.68223482
0.70210999 0.45950103 0.69109166
0.67798281 0.47307050 0.70016134
0.65346277 0.48693931 0.70942527
0.62861460 0.50108075 0.71886492
0.60350281 0.51546800 0.72846162
0.57819200 0.53007442 0.73819691
0.55274677 0.54487318 0.74805218
0.52723169 0.55983758 0.75800872
0.50171131 0.57494086 0.76804811
0.47625029 0.59015632 0.77815169
0.45091316 0.60545725 0.78830093
0.42576453 0.62081677 0.79847717
0.40086901 0.63620830 0.80866194
0.37629113 0.65160501 0.81883651
0.98984307 0.30038160 0.58453816
0.98233080 0.30474305 0.58744317
0.97332543 0.30985940 0.59085906
0.96289152 0.31570387 0.59476721
0.95109361 0.32224974 0.59914899
0.93799645 0.32947031 0.60398591
0.92366445 0.33733878 0.60925925
0.90816230 0.34582844 0.61495060
0.89155453 0.35491255 0.62104124
0.87390572 0.36456439 0.62751269
0.85528052 0.37475717 0.63434631
0.83574349 0.38546419 0.64152348
0.81535918 0.39665872 0.64902574
0.79419219 0.40831402 0.65683442
0.77230710 0.42040330 0.66493094
0.74976856 0.43289986 0.67329675
0.72664112 0.44577697 0.68191332
0.70298928 0.45900786 0.69076192
0.67887777 0.47256583 0.69982409
0.65437108 0.48642412 0.70908123
0.62953383 0.50055599 0.71851474
0.60443056 0.51493466 0.72810602
0.57912594 0.52953345 0.73783654
0.55368447 0.54432565 0.74768770
0.52817082 0.55928439 0.75764084
0.50264955 0.57438308 0.76767755
0.47718519 0.58959490 0.77777910
0.45184237 0.60489309 0.78792697
0.42668566 0.62025100 0.79810256
0.40177965 0.63564181 0.80828726
0.37718895 0.65103883 0.81846261
0.35297814 0.66641527 0.82860988
0.32921177 0.68174440 0.83871061
0.97368240 0.30965811 0.59072459
0.96329993 0.31547627 0.59461492
0.95155108 0.32199681 0.59897959
0.93850052 0.32919300 0.60380006
0.92421281 0.33703813 0.60905772
0.90875256 0.34550542 0.61473399
0.89218432 0.35456812 0.62081033
0.87457269 0.36419955 0.62726808
0.85598230 0.37437293 0.63408870
0.83647764 0.38506150 0.64125359
0.81612337 0.39623857 0.64874423
0.79498404 0.40787736 0.65654194
0.77312422 0.41995117 0.66462821
0.75060856 0.43243322 0.67298442
0.72750163 0.44529679 0.68159205
0.70386797 0.45851517 0.69043249
0.67977220 0.47206154 0.69948715
0.65527892 0.48590925 0.70873743
0.63045269 0.50003153 0.71816474
0.60535806 0.51440161 0.72775060
0.58005971 0.52899277 0.73747629
0.55462217 0.54377830 0.74732333
0.52911001 0.55873144 0.75727308
0.50358784 0.57382542 0.76730704
0.47812024 0.58903354 0.77740651
0.45277181 0.60432911 0.78755301
0.42760712 0.61968523 0.79772794
0.40269074 0.63507533 0.80791265
0.37808731 0.65047258 0.81808865
0.35386136 0.66585022 0.82823730
0.33007750 0.68118161 0.83834004
0.30680034 0.69643998 0.84837830
0.28409442 0.71159852 0.85833347
0.95200676 0.32174480 0.59881085
0.93900299 0.32891661 0.60361487
0.92475963 0.33673832 0.60885680
0.90934139 0.34518319 0.61451799
0.89281273 0.35422447 0.62057990
0.87523836 0.36383545 0.62702394
0.85668278 0.37398934 0.63383156
0.83721066 0.38465947 0.64098412
0.81688648 0.39581901 0.64846307
0.79577488 0.40744132 0.65624982
0.77394044 0.41949958 0.66432583
0.75144780 0.43196708 0.67267245
0.72836143 0.44481710 0.68127114
0.70474601 0.45802289 0.69010335
0.68066609 0.47155768 0.69915044
0.65618628 0.48539478 0.70839387
0.63137114 0.49950743 0.71781504
0.60628527 0.51386887 0.72739536
0.58099329 0.52845240 0.73711622
0.55555969 0.54323125 0.74695915
0.53004915 0.55817866 0.75690544
0.50452620 0.57326794 0.76693660
0.47905546 0.58847237 0.77703404
0.45370150 0.60376513 0.78717911
0.42852890 0.61911952 0.79735333
0.40360224 0.63450885 0.80753797
0.37898615 0.64990628 0.81771463
0.35474518 0.66528517 0.82786465
0.33094391 0.68061870 0.83796936
0.30764696 0.69588023 0.84801030
0.28491887 0.71104288 0.85796887
0.26282427 0.72608006 0.86782646
0.24142770 0.74096495 0.87756449
0.92530483 0.33643937 0.60865641
0.90992868 0.34486178 0.61430252
0.89343977 0.35388160 0.62035000
0.87590271 0.36347207 0.62678033
0.85738206 0.37360647 0.63357484
0.83794248 0.38425806 0.64071506
0.81764853 0.39540011 0.64818233
0.79656476 0.40700585 0.65595812
0.77475578 0.41904855 0.66402382
0.75228620 0.43150148 0.67236084
0.72922051 0.44433790 0.68095058
0.70562345 0.45753106 0.68977451
0.68155944 0.47105423 0.69881403
0.65709323 0.48488069 0.70805055
0.63228929 0.49898365 0.71746546
0.60721225 0.51333642 0.72704029
0.58192664 0.52791226 0.73675632
0.55649716 0.54268438 0.74659508
0.53098828 0.55762607 0.75653791
0.50546461 0.57271063 0.76656628
0.47999084 0.58791125 0.77666157
0.45463142 0.60320127 0.78680527
0.42945102 0.61855388 0.79697871
0.40451419 0.63394237 0.80716336
0.37988552 0.64933997 0.81734061
0.35562959 0.66472006 0.82749188
0.33181101 0.68005574 0.83759862
0.30849436 0.69532037 0.84764230
0.28574419 0.71048713 0.85760421
0.26362514 0.72552937 0.86746585
0.24220176 0.74042034 0.87720859
0.22153865 0.75513321 0.88681394
0.20170039 0.76964140 0.89626318
0.89406532 0.35353950 0.62012064
0.87656569 0.36310944 0.62653720
0.85808015 0.37322432 0.63331866
0.83867317 0.38385737 0.64044648
0.81840950 0.39498183 0.64790207
0.79735368 0.40657097 0.65566683
0.77557021 0.41859809 0.66372216
0.75312376 0.43103638 0.67204952
0.73007894 0.44385916 0.68063033
0.70650023 0.45703968 0.68944591
0.68245232 0.47055119 0.69847786
0.65799969 0.48436695 0.70770746
0.63320702 0.49846023 0.71711618
0.60813886 0.51280427 0.72668540
0.58285981 0.52737236 0.73639661
0.55743450 0.54213774 0.74623114
0.53192741 0.55707371 0.75617051
0.50640315 0.57215345 0.76619607
0.48092636 0.58735031 0.77628922
0.45556161 0.60263747 0.78643143
0.43037346 0.61798829 0.79660410
0.40542653 0.63337594 0.80678868
0.38078538 0.64877367 0.81696653
0.35651460 0.66415483 0.82711911
0.33267877 0.67949265 0.83722782
0.30934250 0.69476032 0.84727412
0.28657037 0.70993119 0.85723937
0.26442695 0.72497851 0.86710501
0.24297683 0.73987550 0.87685251
0.22228462 0.75459540 0.88646317
0.20241486 0.76911157 0.89591855
0.18343218 0.78339720 0.90520000
0.16540113 0.79742551 0.91428888
0.85877693 0.37284285 0.63306296
0.83940274 0.38345730 0.64017832
0.81916946 0.39456415 0.64762217
0.79814160 0.40613669 0.65537590
0.77638376 0.41814816 0.66342086
0.75396055 0.43057182 0.67173856
0.73093659 0.44338092 0.68031037
0.70737636 0.45654875 0.68911767
0.68334454 0.47004855 0.69814193
0.65890574 0.48385361 0.70736462
0.63412440 0.49793714 0.71676707
0.60906523 0.51227242 0.72633076
0.58379281 0.52683276 0.73603702
0.55837172 0.54159135 0.74586737
0.53286648 0.55652148 0.75580317
0.50734174 0.57159644 0.76582593
0.48186204 0.58678943 0.77591693
0.45649204 0.60207379 0.78605765
0.43129623 0.61742270 0.79622954
0.40633929 0.63280946 0.80641401
0.38168573 0.64820737 0.81659245
0.35740018 0.66358960 0.82674628
0.33354723 0.67892945 0.83685696
0.31019142 0.69420022 0.84690583
0.28739738 0.70937508 0.85687441
0.26522970 0.72442740 0.86674404
0.24375294 0.73933041 0.87649620
0.22303168 0.75405735 0.88611227
0.20313053 0.76858145 0.89557368
0.18411407 0.78287601 0.90486181
0.16604687 0.79691428 0.91395813
0.14899354 0.81066954 0.92284405
0.13301866 0.82411504 0.93150103
0.81992829 0.39414713 0.64734274
0.79892850 0.40570301 0.65508538
0.77719641 0.41769880 0.66311997
0.75479656 0.43010777 0.67142791
0.73179352 0.44290316 0.67999071
0.70825189 0.45605826 0.68878973
0.68423629 0.46954635 0.69780636
0.65981126 0.48334062 0.70702201
0.63504142 0.49741438 0.71641821
0.60999137 0.51174092 0.72597623
0.58472562 0.52629340 0.73567766
0.55930883 0.54104519 0.74550372
0.53380555 0.55596948 0.75543600
0.50828034 0.57103962 0.76545584
0.48279789 0.58622873 0.77554470
0.45742267 0.60151017 0.78568393
0.43221933 0.61685717 0.79585499
0.40725246 0.63224304 0.80603933
0.38258660 0.64764100 0.81621832
0.35828638 0.66302425 0.82637340
0.33441636 0.67836618 0.83648592
0.31104112 0.69363993 0.84653747
0.28822526 0.70881885 0.85650933
0.26603338 0.72387612 0.86638290
0.24453007 0.73878509 0.87613970
0.22377987 0.75351900 0.88576114
0.20384741 0.76805103 0.89522856
0.18479724 0.78235453 0.90452337
0.16669399 0.79640269 0.91362715
0.14960220 0.81016886 0.92252111
0.13358650 0.82362622 0.93118680
0.11871145 0.83674806 0.93960565
0.10504163 0.84950763 0.94775897
0.77800816 0.41725001 0.66281939
0.75563169 0.42964423 0.67111766
0.73264968 0.44242591 0.67967141
0.70912677 0.45556825 0.68846202
0.68512744 0.46904454 0.69747096
0.66071635 0.48282802 0.70667970
0.63595808 0.49689198 0.71606952
0.61091715 0.51120967 0.72562194
0.58565819 0.52575433 0.73531842
0.56024581 0.54049927 0.74514025
0.53474456 0.55541772 0.75506896
0.50921905 0.57048291 0.76508588
0.48373386 0.58566815 0.77517253
0.45835355 0.60094666 0.78531021
0.43314275 0.61629176 0.79548043
0.40816602 0.63167661 0.80566460
0.38348797 0.64707458 0.81584412
0.35917312 0.66245890 0.82600039
0.33528614 0.67780280 0.83611488
0.31189156 0.69307953 0.84616899
0.28905398 0.70826238 0.85614407
0.26683801 0.72332466 0.86602163
0.24530821 0.73823953 0.87578309
0.22452916 0.75298035 0.88540977
0.20456547 0.76752031 0.89488316
0.18548171 0.78183264 0.90418470
0.16734247 0.79589069 0.91329581
0.15021233 0.80966771 0.92219782
0.13415590 0.82313693 0.93087226
0.11923773 0.83627158 0.93930048
0.10552243 0.84904498 0.94746393
0.09307458 0.86143035 0.95534402
0.08195877 0.87340099 0.96292216
0.73350519 0.44194910 0.67935240
0.71000099 0.45507866 0.68813461
0.68601805 0.46854314 0.69713587
0.66162097 0.48231581 0.70633757
0.63687432 0.49636993 0.71572107
0.61184263 0.51067877 0.72526789
0.58659059 0.52521557 0.73495936
0.56118268 0.53995359 0.74477690
0.53568357 0.55486608 0.75470197
0.51015782 0.56992638 0.76471603
0.48466998 0.58510768 0.77480042
0.45928469 0.60038322 0.78493661
0.43406650 0.61572635 0.79510593
0.40908000 0.63111025 0.80528992
0.38438982 0.64650822 0.81546992
0.36006048 0.66189349 0.82562739
0.33615661 0.67723930 0.83574373
0.31274277 0.69251901 0.84580034
0.28988355 0.70770580 0.85577869
0.26764357 0.72277296 0.86566019
0.24608737 0.73769379 0.87542623
0.22527955 0.75244141 0.88505822
0.20528473 0.76698923 0.89453757
0.18616745 0.78131044 0.90384579
0.16799231 0.79537833 0.91296422
0.15082391 0.80916613 0.92187428
0.13472682 0.82264715 0.93055737
0.11976564 0.83579457 0.93899500
0.10600495 0.84858173 0.94716853
0.09350932 0.86098188 0.95505935
0.08234336 0.87296826 0.96264893
0.07257165 0.88451409 0.96991867
0.06425876 0.89559269 0.97684997
0.68690813 0.46804217 0.69680107
0.66252512 0.48180398 0.70599574
0.63779014 0.49584821 0.71537286
0.61276782 0.51014811 0.72491395
0.58752275 0.52467704 0.73460042
0.56211942 0.53940815 0.74441373
0.53662252 0.55431467 0.75433517
0.51109660 0.56937003 0.76434624
0.48560622 0.58454734 0.77442837
0.46021602 0.59981990 0.78456295
0.43499056 0.61516100 0.79473144
0.40999439 0.63054389 0.80491519
0.38529214 0.64594179 0.81509572
0.36094838 0.66132802 0.82525432
0.33702770 0.67667580 0.83537251
0.31359470 0.69195837 0.84543169
0.29071394 0.70714909 0.85541320
0.26845002 0.72222108 0.86529857
0.24686754 0.73714775 0.87506920
0.22603105 0.75190222 0.88470644
0.20600517 0.76645786 0.89419180
0.18685447 0.78078789 0.90350658
0.16864352 0.79486561 0.91263235
0.15143694 0.80866420 0.92155039
0.13529930 0.82215691 0.93024218
0.12029518 0.83531713 0.93868917
0.10648917 0.84811801 0.94687271
0.09394587 0.86053282 0.95477426
0.08272985 0.87253493 0.96237528
0.07290569 0.88409746 0.96965712
0.06453799 0.89519370 0.97660118
0.05769134 0.90579695 0.98318899
0.05243031 0.91588050 0.98940188
0.63870561 0.49532685 0.71502489
0.61369270 0.50961781 0.72456026
0.58845466 0.52413875 0.73424172
0.56305605 0.53886288 0.74405068
0.53756148 0.55376351 0.75396848
0.51203543 0.56881380 0.76397657
0.48654264 0.58398712 0.77405643
0.46114758 0.59925663 0.78418940
0.43591490 0.61459571 0.79435694
0.41090918 0.62997752 0.80454051
0.38619497 0.64537531 0.81472147
0.36183688 0.66076243 0.82488120
0.33789951 0.67611212 0.83500117
0.31444740 0.69139761 0.84506285
0.29154518 0.70659214 0.85504758
0.26925743 0.72166902 0.86493683
0.24764872 0.73660147 0.87471199
0.22678365 0.75136280 0.88435447
0.20672679 0.76592624 0.89384574
0.18754275 0.78026503 0.90316713
0.16929609 0.79435247 0.91230017
0.15205142 0.80816180 0.92122620
0.13587330 0.82166630 0.92992663
0.12082633 0.83483917 0.93838292
0.10697511 0.84765375 0.94657654
0.09438420 0.86008328 0.95448881
0.08311821 0.87210101 0.96210116
0.07324170 0.88368016 0.96939510
0.06481928 0.89479405 0.97635192
0.05791552 0.90541595 0.98295313
0.05259502 0.91551906 0.98918015
0.04892235 0.92507666 0.99501437
0.04755647 0.93388397 1.00000000
0.58938640 0.52360076 0.73388320
0.56399256 0.53831792 0.74368775
0.53850031 0.55321252 0.75360191
0.51297432 0.56825775 0.76360703
0.48747915 0.58342701 0.77368456
0.46207938 0.59869349 0.78381592
0.43683958 0.61403048 0.79398251
0.41182435 0.62941116 0.80416578
0.38709825 0.64480889 0.81434715
0.36272594 0.66019690 0.82450801
0.33877194 0.67554837 0.83462983
0.31530085 0.69083673 0.84469396
0.29237723 0.70603508 0.85468185
0.27006575 0.72111672 0.86457491
0.24843091 0.73605502 0.87435460
0.22753733 0.75082308 0.88400233
0.20744960 0.76539427 0.89349943
0.18823230 0.77974182 0.90282744
0.16995001 0.79383898 0.91196769
0.15266733 0.80765897 0.92090166
0.13644883 0.82117516 0.92961079
0.12135912 0.83436072 0.93807638
0.10746275 0.84718895 0.94627994
0.09482434 0.85963315 0.95420289
0.08350845 0.87166649 0.96182668
0.07357968 0.88326222 0.96913260
0.06510262 0.89439374 0.97610217
0.05814185 0.90503418 0.98271680
0.05276196 0.91515684 0.98895794
0.04902752 0.92473501 0.99480689
0.04733628 0.93364197 1.00000000
0.05399640 0.94004565 1.00000000
0.06202229 0.94609588 1.00000000
0.53943914 0.55266172 0.75323540
0.51391327 0.56770194 0.76323754
0.48841581 0.58286709 0.77331275
0.46301138 0.59813046 0.78344244
0.43776456 0.61346531 0.79360807
0.41273990 0.62884486 0.80379105
0.38800204 0.64424241 0.81397283
0.36361557 0.65963125 0.82413477
0.33964503 0.67498457 0.83425832
0.31615502 0.69027567 0.84432495
0.29321015 0.70547783 0.85431594
0.27087498 0.72056431 0.86421287
0.24921410 0.73550826 0.87399703
0.22829211 0.75028312 0.88364995
0.20817359 0.76486200 0.89315295
0.18892312 0.77921826 0.90248746
0.17060529 0.79332507 0.91163498
0.15328468 0.80715579 0.92057687
0.13702589 0.82068360 0.92929459
0.12189350 0.83388180 0.93776947
0.10795210 0.84672368 0.94598299
0.09526626 0.85918242 0.95391661
0.08390057 0.87123138 0.96155173
0.07391963 0.88284373 0.96886969
0.06538802 0.89399272 0.97585195
0.05837032 0.90465176 0.98247999
0.05293112 0.91479391 0.98873514
0.04913501 0.92439258 0.99459887
0.04711802 0.93339956 1.00000000
0.05372684 0.93981642 1.00000000
0.06170346 0.94587946 1.00000000
0.07099305 0.95159793 1.00000000
0.08154080 0.95698082 1.00000000
0.48935258 0.58230728 0.77294099
0.46394357 0.59756750 0.78306901
0.43868983 0.61290020 0.79323369
0.41365585 0.62827855 0.80341637
0.38890630 0.64367592 0.81359851
0.36450574 0.65906554 0.82376152
0.34051877 0.67442065 0.83388680
0.31700993 0.68971455 0.84395581
0.29404387 0.70492047 0.85394996
0.27168512 0.72001159 0.86385065
0.24999830 0.73496133 0.87363929
0.22904798 0.74974287 0.88329732
0.20889875 0.76432943 0.89280617
0.18961520 0.77869433 0.90214729
0.17126192 0.79281080 0.91130197
0.15390348 0.80665219 0.92025179
0.13760449 0.82019162 0.92897803
0.12242951 0.83340240 0.93746221
0.10844314 0.84625787 0.94568568
0.09570996 0.85873115 0.95362991
0.08429457 0.87079567 0.96127629
0.07426154 0.88242453 0.96860629
0.06567546 0.89359111 0.97560126
0.05860092 0.90426856 0.98224264
0.05310251 0.91443026 0.98851186
0.04924480 0.92404944 0.99439031
0.04709239 0.93309927 0.99985945
0.05345914 0.93958664 1.00000000
0.06138641 0.94566262 1.00000000
0.07062867 0.95139354 1.00000000
0.08113110 0.95678860 1.00000000
0.09283888 0.96185696 1.00000000
0.10569720 0.96660775 1.00000000
0.43961537 0.61233515 0.79285932
0.41457221 0.62771231 0.80304164
0.38981104 0.64310944 0.81322414
0.36539650 0.65849984 0.82338816
0.34139314 0.67385668 0.83351517
0.31786558 0.68915331 0.84358656
0.29487839 0.70436293 0.85358381
0.27249616 0.71945876 0.86348826
0.25078347 0.73441416 0.87328136
0.22980493 0.74920231 0.88294458
0.20962508 0.76379657 0.89245921
0.19030854 0.77817011 0.90180683
0.17191990 0.79229623 0.91096872
0.15452372 0.80614811 0.91992635
0.13818459 0.81969917 0.92866117
0.12296712 0.83292252 0.93715459
0.10893588 0.84579152 0.94538802
0.09615546 0.85827935 0.95334285
0.08469044 0.87035936 0.96100050
0.07460541 0.88200474 0.96834242
0.06596495 0.89318877 0.97535008
0.05883366 0.90388477 0.98200476
0.05327611 0.91406590 0.98828799
0.04935690 0.92370546 0.99418122
0.04714061 0.93277675 0.99966574
0.05319329 0.93935645 1.00000000
0.06107114 0.94544524 1.00000000
0.07026599 0.95118868 1.00000000
0.08072302 0.95659596 1.00000000
0.09238744 0.96167618 1.00000000
0.10520440 0.96643847 1.00000000
0.11911910 0.97089201 1.00000000
0.13407671 0.97504580 1.00000000
0.39071622 0.64254296 0.81284976
0.36628780 0.65793407 0.82301480
0.34226817 0.67329264 0.83314347
0.31872198 0.68859190 0.84321725
0.29571375 0.70380521 0.85321754
0.27330813 0.71890575 0.86312574
0.25156966 0.73386675 0.87292331
0.23056296 0.74866158 0.88259161
0.21035258 0.76326340 0.89211202
0.19100314 0.77764553 0.90146607
0.17257921 0.79178119 0.91063517
0.15514538 0.80564368 0.91960067
0.13876623 0.81920624 0.92834401
0.12350634 0.83244216 0.93684661
0.10943031 0.84532464 0.94508994
0.09660273 0.85782701 0.95305532
0.08508817 0.86992246 0.96072423
0.07495123 0.88158435 0.96807814
0.06625649 0.89278585 0.97509837
0.05906853 0.90350020 0.98176640
0.05345194 0.91370076 0.98806363
0.04947131 0.92336071 0.99397153
0.04719123 0.93245339 0.99947143
0.05292929 0.93912572 1.00000000
0.06075764 0.94522738 1.00000000
0.06990501 0.95098341 1.00000000
0.08031660 0.95640290 1.00000000
0.09193756 0.96149498 1.00000000
0.10471309 0.96626884 1.00000000
0.11858837 0.97073352 1.00000000
0.13350859 0.97489822 1.00000000
0.14941892 0.97877204 1.00000000
0.16626453 0.98236412 1.00000000
0.34314385 0.67272848 0.83277172
0.31957909 0.68803042 0.84284788
0.29654995 0.70324737 0.85285115
0.27412099 0.71835250 0.86276311
0.25235683 0.73331916 0.87256503
0.23132206 0.74812055 0.88223839
0.21108125 0.76272994 0.89176464
0.19169900 0.77712065 0.90112513
0.17323987 0.79126585 0.91030133
0.15576845 0.80513889 0.91927463
0.13934937 0.81871295 0.92802650
0.12404716 0.83196133 0.93653828
0.10992644 0.84485728 0.94479144
0.09705178 0.85737413 0.95276743
0.08548777 0.86948502 0.96044761
0.07529900 0.88116330 0.96781337
0.06655005 0.89238220 0.97484624
0.05930552 0.90311497 0.98152757
0.05362998 0.91333491 0.98783875
0.04958802 0.92301524 0.99376130
0.04724423 0.93212920 0.99927652
0.05266716 0.93889451 1.00000000
0.06044594 0.94500911 1.00000000
0.06954575 0.95077765 1.00000000
0.07991180 0.95620936 1.00000000
0.09148924 0.96131337 1.00000000
0.10422327 0.96609873 1.00000000
0.11805906 0.97057462 1.00000000
0.13294181 0.97475022 1.00000000
0.14881667 0.97863454 1.00000000
0.16562887 0.98223680 1.00000000
0.18332355 0.98556614 1.00000000
0.20184590 0.98863167 1.00000000
0.29738691 0.70268935 0.85248464
0.27493474 0.71779907 0.86240029
0.25314501 0.73277128 0.87220657
0.23208225 0.74757922 0.88188499
0.21181108 0.76219618 0.89141697
0.19239609 0.77659541 0.90078390
0.17390186 0.79075009 0.90996724
0.15639298 0.80463362 0.91894835
0.13993402 0.81821918 0.92770863
0.12458958 0.83148003 0.93622959
0.11042424 0.84438944 0.94449264
0.09750260 0.85692066 0.95247912
0.08588924 0.86904699 0.96017051
0.07564873 0.88074166 0.96754819
0.06684566 0.89197791 0.97459364
0.05954464 0.90272903 0.98128819
0.05381023 0.91296834 0.98761338
0.04970703 0.92266899 0.99355048
0.04729962 0.93180430 0.99908102
0.05240689 0.93866289 1.00000000
0.06013602 0.94479036 1.00000000
0.06918821 0.95057148 1.00000000
0.07950864 0.95601541 1.00000000
0.09104249 0.96113127 1.00000000
0.10373493 0.96592820 1.00000000
0.11753117 0.97041535 1.00000000
0.13237637 0.97460181 1.00000000
0.14821571 0.97849673 1.00000000
0.16499439 0.98210919 1.00000000
0.18265757 0.98544842 1.00000000
0.20115045 0.98852348 1.00000000
0.22041818 0.99134350 1.00000000
0.24040598 0.99391770 1.00000000
0.25393414 0.73222321 0.87184799
0.23284350 0.74703771 0.88153142
0.21254207 0.76166213 0.89106911
0.19309443 0.77606982 0.90044242
0.17456518 0.79023403 0.90963286
0.15701890 0.80412799 0.91862172
0.14052019 0.81772494 0.92739052
0.12513359 0.83099818 0.93592060
0.11092374 0.84392101 0.94419342
0.09795520 0.85646665 0.95219040
0.08629255 0.86860836 0.95989299
0.07600039 0.88031936 0.96728253
0.06714331 0.89157295 0.97434056
0.05978588 0.90234244 0.98104835
0.05399269 0.91260099 0.98738742
0.04982834 0.92232192 0.99333918
0.04735740 0.93147850 0.99888498
0.05214848 0.93843073 1.00000000
0.05982789 0.94457114 1.00000000
0.06883238 0.95036483 1.00000000
0.07910712 0.95582104 1.00000000
0.09059730 0.96094877 1.00000000
0.10324810 0.96575731 1.00000000
0.11700469 0.97025567 1.00000000
0.13181227 0.97445297 1.00000000
0.14761601 0.97835845 1.00000000
0.16436110 0.98198122 1.00000000
0.18199271 0.98533028 1.00000000
0.20045604 0.98841494 1.00000000
0.21969624 0.99124420 1.00000000
0.23965852 0.99382722 1.00000000
0.26028806 0.99617320 1.00000000
0.28153002 0.99829119 1.00000000
0.21327421 0.76112777 0.89072102
0.19379403 0.77554393 0.90010071
0.17522985 0.78971756 0.90929818
0.15764625 0.80362189 0.91829479
0.14110784 0.81723028 0.92707199
0.12567921 0.83051592 0.93561119
0.11142491 0.84345210 0.94389385
0.09840956 0.85601211 0.95190132
0.08669773 0.86816913 0.95961505
0.07635400 0.87989646 0.96701646
0.06744298 0.89116734 0.97408694
0.06002923 0.90195513 0.98080802
0.05417736 0.91223294 0.98716098
0.04995193 0.92197418 0.99312729
0.04741754 0.93115199 0.99868840
0.05189194 0.93819809 1.00000000
0.05952156 0.94435143 1.00000000
0.06847827 0.95015770 1.00000000
0.07870725 0.95562613 1.00000000
0.09015369 0.96076584 1.00000000
0.10276276 0.96558595 1.00000000
0.11647964 0.97009557 1.00000000
0.13124953 0.97430378 1.00000000
0.14701760 0.97821987 1.00000000
0.16372903 0.98185283 1.00000000
0.18132900 0.98521185 1.00000000
0.19976269 0.98830605 1.00000000
0.21897528 0.99114454 1.00000000
0.23891197 0.99373645 1.00000000
0.25951791 0.99609095 1.00000000
0.28073832 0.99821717 1.00000000
0.30251837 1.00000000 1.00000000
0.32480320 1.00000000 1.00000000
0.17589583 0.78920072 0.90896326
0.15827502 0.80311549 0.91796762
0.14169702 0.81673521 0.92675322
0.12622640 0.83003318 0.93530148
0.11192776 0.84298271 0.94359392
0.09886568 0.85555702 0.95161182
0.08710475 0.86772931 0.95933670
0.07670955 0.87947291 0.96674991
0.06774467 0.89076114 0.97383291
0.06027470 0.90156710 0.98056716
0.05436422 0.91186416 0.98693395
0.05007781 0.92162561 0.99291486
0.04748007 0.93082464 0.99849117
0.05163727 0.93796498 1.00000000
0.05921702 0.94413126 1.00000000
0.06812588 0.94995016 1.00000000
0.07830903 0.95543087 1.00000000
0.08971164 0.96058249 1.00000000
0.10227891 0.96541417 1.00000000
0.11595602 0.96993506 1.00000000
0.13068813 0.97415423 1.00000000
0.14642045 0.97808087 1.00000000
0.16309814 0.98172408 1.00000000
0.18066639 0.98509300 1.00000000
0.19907038 0.98819679 1.00000000
0.21825530 0.99104452 1.00000000
0.23816632 0.99364537 1.00000000
0.25874862 0.99600846 1.00000000
0.27994740 0.99814290 1.00000000
0.30170780 1.00000000 1.00000000
0.32397506 1.00000000 1.00000000
0.34669432 1.00000000 1.00000000
