X Major 322/X Major 322.cube
# VEGAS Pro LUT
TITLE "X Major 322"
LUT_3D_SIZE 9
1.00000000 0.29411766 0.58039218
0.97296649 0.31006166 0.59099424
0.92311448 0.33764026 0.60946137
0.85457754 0.37514213 0.63460433
0.77148914 0.42085600 0.66523409
0.67798281 0.47307050 0.70016134
0.57819200 0.53007442 0.73819691
0.47625029 0.59015632 0.77815169
0.37629113 0.65160501 0.81883651
0.92530483 0.33643937 0.60865641
0.85738206 0.37360647 0.63357484
0.77475578 0.41904855 0.66402382
0.68155944 0.47105423 0.69881403
0.58192664 0.52791226 0.73675632
0.47999084 0.58791125 0.77666157
0.37988552 0.64933997 0.81734061
0.28574419 0.71048713 0.85760421
0.20170039 0.76964140 0.89626318
0.77800816 0.41725001 0.66281939
0.68512744 0.46904454 0.69747096
0.58565819 0.52575433 0.73531842
0.48373386 0.58566815 0.77517253
0.38348797 0.64707458 0.81584412
0.28905398 0.70826238 0.85614407
0.20456547 0.76752031 0.89488316
0.13415590 0.82313693 0.93087226
0.08195877 0.87340099 0.96292216
0.58938640 0.52360076 0.73388320
0.48747915 0.58342701 0.77368456
0.38709825 0.64480889 0.81434715
0.29237723 0.70603508 0.85468185
0.20744960 0.76539427 0.89349943
0.13644883 0.82117516 0.92961079
0.08350845 0.87166649 0.96182668
0.05276196 0.91515684 0.98895794
0.06202229 0.94609588 1.00000000
0.39071622 0.64254296 0.81284976
0.29571375 0.70380521 0.85321754
0.21035258 0.76326340 0.89211202
0.13876623 0.81920624 0.92834401
0.08508817 0.86992246 0.96072423
0.05345194 0.91370076 0.98806363
0.06075764 0.94522738 1.00000000
0.10471309 0.96626884 1.00000000
0.16626453 0.98236412 1.00000000
0.21327421 0.76112777 0.89072102
0.14110784 0.81723028 0.92707199
0.08669773 0.86816913 0.95961505
0.05417736 0.91223294 0.98716098
0.05952156 0.94435143 1.00000000
0.10276276 0.96558595 1.00000000
0.16372903 0.98185283 1.00000000
0.23891197 0.99373645 1.00000000
0.32480320 1.00000000 1.00000000
0.08833691 0.86640644 0.95849907
0.05493799 0.91075355 0.98624986
0.05831422 0.94346792 1.00000000
0.10083641 0.96489632 1.00000000
0.16121274 0.98133564 1.00000000
0.23593482 0.99337018 1.00000000
0.32149428 1.00000000 1.00000000
0.41438273 1.00000000 1.00000000
0.51109171 1.00000000 1.00000000
0.05713578 0.94257683 1.00000000
0.09893423 0.96419996 1.00000000
0.15871587 0.98081243 1.00000000
0.23297235 0.99299866 1.00000000
0.31819528 1.00000000 1.00000000
0.41087624 1.00000000 1.00000000
0.50750685 1.00000000 1.00000000
0.60457879 1.00000000 1.00000000
0.69858354 1.00000000 1.00000000
0.15623860 0.98028326 1.00000000
0.23002473 0.99262202 1.00000000
0.31490636 1.00000000 1.00000000
0.40737510 1.00000000 1.00000000
0.50392258 1.00000000 1.00000000
0.60104042 1.00000000 1.00000000
0.69522023 1.00000000 1.00000000
0.78295356 1.00000000 1.00000000
0.86073214 1.00000000 1.00000000
0.99264747 0.29871541 0.58343107
0.95642632 0.31929719 0.59717208
0.89896280 0.35086110 0.61832482
0.82439023 0.39169583 0.64569998
0.73684222 0.44009003 0.67810851
0.64045227 0.49433246 0.71436113
0.53935379 0.55271178 0.75326872
0.43768045 0.61351669 0.79364210
0.33956563 0.67503583 0.83429211
0.90140527 0.34952515 0.61742908
0.82738888 0.39004913 0.64459640
0.74024498 0.43819556 0.67684084
0.64410710 0.49225312 0.71297312
0.54310864 0.55051059 0.75180411
0.44138318 0.61125654 0.79214466
0.34306422 0.67277980 0.83280551
0.25228524 0.73336893 0.87259758
0.17317975 0.79131269 0.91033167
0.74363565 0.43630907 0.67557842
0.64775538 0.49017951 0.71158874
0.54686248 0.54831278 0.75034153
0.44509056 0.60899752 0.79064757
0.34657302 0.67052245 0.83131772
0.25544342 0.73117632 0.87116283
0.17583522 0.78924769 0.90899372
0.11188198 0.84302539 0.94362116
0.06771716 0.89079809 0.97385603
0.55061519 0.54611838 0.74888104
0.44880232 0.60673958 0.78915101
0.35009181 0.66826397 0.82982886
0.25861719 0.72898018 0.86972541
0.17851190 0.78717691 0.90765142
0.11390948 0.84114289 0.94241780
0.06894342 0.88916677 0.97283536
0.04774724 0.92953730 0.99771488
0.07676820 0.95466316 1.00000000
0.35362041 0.66600436 0.82833892
0.26180634 0.72678059 0.86828524
0.18120955 0.78510034 0.90630484
0.11596355 0.83925229 0.94120854
0.07020184 0.88752514 0.97180712
0.04805795 0.92820758 0.99691147
0.07521781 0.95387048 1.00000000
0.12629592 0.97295713 1.00000000
0.19363239 0.98732048 1.00000000
0.18392797 0.78301817 0.90495408
0.11804399 0.83735377 0.93999344
0.07149224 0.88587326 0.97077149
0.04840622 0.92686522 0.99609905
0.07369418 0.95307064 1.00000000
0.12410725 0.97234225 1.00000000
0.19090775 0.98686898 1.00000000
0.27058727 0.99723530 1.00000000
0.35963744 1.00000000 1.00000000
0.07281439 0.88421112 0.96972847
0.04879185 0.92551035 0.99527758
0.07219747 0.95226359 1.00000000
0.12194075 0.97172087 1.00000000
0.18820052 0.98641187 1.00000000
0.26746839 0.99692088 1.00000000
0.35623601 1.00000000 1.00000000
0.45099494 1.00000000 1.00000000
0.54823679 1.00000000 1.00000000
0.07072788 0.95144933 1.00000000
0.11979661 0.97109312 1.00000000
0.18551092 0.98594904 1.00000000
0.26436239 0.99660158 1.00000000
0.35284266 1.00000000 1.00000000
0.44744334 1.00000000 1.00000000
0.54465604 1.00000000 1.00000000
0.64097238 1.00000000 1.00000000
0.73288393 1.00000000 1.00000000
0.18283908 0.98548055 1.00000000
0.26126942 0.99627739 1.00000000
0.34945762 1.00000000 1.00000000
0.44389528 1.00000000 1.00000000
0.54107404 1.00000000 1.00000000
0.63748550 1.00000000 1.00000000
0.72962129 1.00000000 1.00000000
0.81397301 1.00000000 1.00000000
0.88703221 1.00000000 1.00000000
0.98160607 0.30515838 0.58772022
0.93679827 0.33012918 0.60442740
0.87232399 0.36542961 0.62809277
0.79231673 0.40934840 0.65752733
0.70090997 0.46017423 0.69154173
0.60223722 0.51619577 0.72894686
0.50043207 0.57570171 0.76855361
0.39962789 0.63698083 0.80917275
0.30395827 0.69832170 0.84961504
0.87499648 0.36396775 0.62711269
0.79548740 0.40759981 0.65635598
0.70442683 0.45820183 0.69022298
0.60594815 0.51406258 0.72752452
0.50418496 0.57347065 0.76707131
0.40327075 0.63471484 0.80767423
0.30733901 0.69608378 0.84814411
0.22052322 0.75586617 0.88729185
0.14695694 0.81235075 0.92392814
0.70793360 0.45623657 0.68890893
0.60965461 0.51193416 0.72610515
0.50793904 0.57124209 0.76559043
0.40692034 0.63244903 0.80617559
0.31073207 0.69384366 0.84667140
0.22350767 0.75371480 0.88588881
0.14938071 0.81035095 0.92263860
0.09248466 0.86204100 0.95573157
0.05695303 0.90707350 0.98397851
0.51169401 0.56901604 0.76411098
0.41057646 0.63018346 0.80467677
0.31413725 0.69160151 0.84519696
0.22650985 0.75155902 0.88448250
0.15182780 0.80834454 0.92134410
0.09422460 0.86024684 0.95459265
0.05783375 0.90555459 0.98303896
0.05436695 0.94035757 1.00000000
0.09436878 0.96246189 1.00000000
0.31755435 0.68935740 0.84372085
0.22952954 0.74939895 0.88307285
0.15429801 0.80633146 0.92004472
0.09599325 0.85844374 0.95344728
0.05874878 0.90402442 0.98209131
0.05328975 0.93944019 1.00000000
0.09255142 0.96174198 1.00000000
0.15024219 0.97895885 1.00000000
0.22285366 0.99167520 1.00000000
0.15679114 0.80431187 0.91874051
0.09779041 0.85663182 0.95229542
0.05969791 0.90248311 0.98113561
0.05224223 0.93851519 1.00000000
0.09075900 0.96101522 1.00000000
0.14783394 0.97840875 1.00000000
0.21995866 0.99128032 1.00000000
0.30362475 1.00000000 1.00000000
0.39532387 1.00000000 1.00000000
0.06068093 0.90093070 0.98017192
0.05122458 0.93758249 1.00000000
0.08899170 0.96028149 1.00000000
0.14544606 0.97785258 1.00000000
0.21707927 0.99088013 1.00000000
0.30038294 0.99994862 1.00000000
0.39184868 1.00000000 1.00000000
0.48796809 1.00000000 1.00000000
0.58523285 1.00000000 1.00000000
0.08724970 0.95954084 1.00000000
0.14307873 0.97729021 1.00000000
0.21421567 0.99047458 1.00000000
0.29715216 0.99967837 1.00000000
0.38837978 1.00000000 1.00000000
0.48439017 1.00000000 1.00000000
0.58167493 1.00000000 1.00000000
0.67672563 1.00000000 1.00000000
0.76603401 1.00000000 1.00000000
0.21136805 0.99006367 1.00000000
0.29393259 0.99940354 1.00000000
0.38491735 1.00000000 1.00000000
0.48081395 1.00000000 1.00000000
0.57811397 1.00000000 1.00000000
0.67330909 1.00000000 1.00000000
0.76289082 1.00000000 1.00000000
0.84335083 1.00000000 1.00000000
0.91118073 1.00000000 1.00000000
0.96710491 0.31335169 0.59319377
0.91431129 0.34246275 0.61269414
0.84342718 0.38125095 0.63869941
0.75858611 0.42800504 0.67002040
0.66392148 0.48101372 0.70546788
0.56356686 0.53856564 0.74385267
0.46165580 0.59894949 0.78398567
0.36232173 0.66045398 0.82467765
0.26969820 0.72136778 0.86473942
0.84630758 0.37967235 0.63764125
0.76190668 0.42616370 0.66878772
0.66753024 0.47897258 0.70410448
0.56731176 0.53638768 0.74240226
0.46538469 0.59669763 0.78249204
0.36588261 0.65819126 0.82318449
0.27293894 0.71915716 0.86329055
0.19068725 0.77788401 0.90162098
0.12326104 0.83266056 0.93698663
0.67113113 0.47693768 0.70274508
0.57105428 0.53421360 0.74095428
0.46911687 0.59444743 0.78099918
0.36945230 0.65592784 0.82169056
0.27619416 0.71694344 0.86183923
0.19347587 0.77578300 0.90025610
0.12543100 0.83073521 0.93575186
0.07619303 0.88008875 0.96713746
0.04989547 0.92213231 0.99322367
0.47285211 0.59219891 0.77950722
0.37303069 0.65366375 0.82019591
0.27946362 0.71472681 0.86038560
0.19628435 0.77367675 0.89888722
0.12762642 0.82880229 0.93451154
0.07762332 0.87839210 0.96606940
0.05040855 0.92073494 0.99237168
0.06723668 0.94941974 1.00000000
0.11462960 0.96952462 1.00000000
0.28274715 0.71250731 0.85892969
0.19911247 0.77156532 0.89751446
0.12984708 0.82686186 0.93326575
0.07908444 0.87668568 0.96499425
0.05095807 0.91932541 0.99151093
0.06586205 0.94858021 1.00000000
0.11256402 0.96887434 1.00000000
0.17635745 0.98430634 1.00000000
0.25373393 0.99546063 1.00000000
0.13209279 0.82491404 0.93201447
0.08057620 0.87496948 0.96391207
0.05154383 0.91790384 0.99064153
0.06451530 0.94773328 1.00000000
0.11052158 0.96821743 1.00000000
0.17374839 0.98381799 1.00000000
0.25068730 0.99511933 1.00000000
0.33782998 1.00000000 1.00000000
0.43166801 1.00000000 1.00000000
0.05216561 0.91647035 0.98976350
0.06319661 0.94687897 1.00000000
0.10850245 0.96755397 1.00000000
0.17115788 0.98332381 1.00000000
0.24765451 0.99477291 1.00000000
0.33448395 1.00000000 1.00000000
0.42813784 1.00000000 1.00000000
0.52510774 1.00000000 1.00000000
0.62188530 1.00000000 1.00000000
0.10650679 0.96688384 1.00000000
0.16858611 0.98282379 1.00000000
0.24463570 0.99442148 1.00000000
0.33114716 1.00000000 1.00000000
0.42461213 1.00000000 1.00000000
0.52152222 1.00000000 1.00000000
0.61836904 1.00000000 1.00000000
0.71164417 1.00000000 1.00000000
0.79783928 1.00000000 1.00000000
0.24163105 0.99406499 1.00000000
0.32781979 1.00000000 1.00000000
0.42109111 1.00000000 1.00000000
0.51793659 1.00000000 1.00000000
0.61484790 1.00000000 1.00000000
0.70831662 1.00000000 1.00000000
0.79483432 1.00000000 1.00000000
0.87089270 1.00000000 1.00000000
0.93298328 1.00000000 1.00000000
0.94937313 0.32320055 0.59978575
0.88919461 0.35620305 0.62190652
0.81250149 0.39823028 0.65007877
0.72342741 0.44757092 0.68311334
0.62610584 0.50251365 0.71982098
0.52467024 0.56134713 0.75901264
0.42325416 0.62236011 0.79949898
0.32599109 0.68384123 0.84009099
0.23701452 0.74407929 0.87959933
0.81556767 0.39654407 0.64894891
0.72687584 0.44564596 0.68182564
0.62978446 0.50041288 0.71841925
0.52842695 0.55913359 0.75754058
0.42693692 0.62009668 0.79800040
0.32944781 0.68159097 0.83860952
0.24009316 0.74190503 0.87817883
0.16300644 0.79932761 0.91551918
0.10232117 0.85214740 0.94944131
0.63345724 0.49831754 0.71702093
0.53218353 0.55692309 0.75607032
0.43062511 0.61783403 0.79650193
0.33291557 0.67933905 0.83712667
0.24318840 0.73972684 0.87675536
0.16557711 0.79728615 0.91419870
0.10421521 0.85030562 0.94826770
0.06323619 0.89707392 0.97777301
0.04885444 0.93526024 1.00000000
0.43431848 0.61557215 0.79500383
0.33639410 0.67708564 0.83564252
0.24630004 0.73754489 0.87532884
0.16816978 0.79523855 0.91287374
0.10613684 0.84845531 0.94708788
0.06433471 0.89548391 0.97678220
0.04794131 0.93430072 1.00000000
0.08308219 0.95769328 1.00000000
0.13735619 0.97588366 1.00000000
0.24942787 0.73535913 0.87389952
0.17078424 0.79318488 0.91154420
0.10808585 0.84659666 0.94590199
0.06546621 0.89388329 0.97578365
0.04705882 0.93333334 1.00000000
0.08142890 0.95692843 1.00000000
0.13506116 0.97529984 1.00000000
0.20444722 0.98903197 1.00000000
0.28607872 0.99870920 1.00000000
0.11006203 0.84472972 0.94471002
0.06663048 0.89227200 0.97477740
0.04725910 0.93204069 0.99922323
0.07980168 0.95615655 1.00000000
0.13278747 0.97470975 1.00000000
0.20165612 0.98860222 1.00000000
0.28289926 0.99841827 1.00000000
0.37300852 1.00000000 1.00000000
0.46847546 1.00000000 1.00000000
0.04749754 0.93073517 0.99843729
0.07820071 0.95537752 1.00000000
0.13053526 0.97411335 1.00000000
0.19888176 0.98816693 1.00000000
0.27973181 0.99812257 1.00000000
0.36957705 1.00000000 1.00000000
0.46490905 1.00000000 1.00000000
0.56221944 1.00000000 1.00000000
0.65799987 1.00000000 1.00000000
0.12830473 0.97351062 1.00000000
0.19612432 0.98772609 1.00000000
0.27657655 0.99782217 1.00000000
0.36615300 1.00000000 1.00000000
0.46134531 1.00000000 1.00000000
0.55864507 1.00000000 1.00000000
0.65454394 1.00000000 1.00000000
0.74553347 1.00000000 1.00000000
0.82810533 1.00000000 1.00000000
0.27343363 0.99751693 1.00000000
0.36273655 1.00000000 1.00000000
0.45778444 1.00000000 1.00000000
0.55506885 1.00000000 1.00000000
0.65108138 1.00000000 1.00000000
0.74231368 1.00000000 1.00000000
0.82525742 1.00000000 1.00000000
0.89640409 1.00000000 1.00000000
0.95224535 1.00000000 1.00000000
0.92863977 0.33461004 0.60743028
0.86167717 0.37125528 0.63199860
0.77977604 0.41627273 0.66216499
0.68706989 0.46795112 0.69674021
0.58769220 0.52457911 0.73453522
0.48577648 0.58444548 0.77436078
0.38545626 0.64583880 0.81502765
0.29086503 0.70704782 0.85534674
0.20613629 0.76636124 0.89412886
0.78300589 0.41448808 0.66096979
0.69062400 0.46595174 0.69540387
0.59141850 0.52242798 0.73310149
0.48952293 0.58220547 0.77287340
0.38907078 0.64357293 0.81353045
0.29419553 0.70481908 0.85388339
0.20903072 0.76423258 0.89274311
0.13770984 0.82010210 0.92892045
0.08436640 0.87071639 0.96122622
0.59514117 0.52028126 0.73167062
0.49327132 0.57996768 0.77138728
0.39269283 0.64130694 0.81203282
0.29753917 0.70258790 0.85241801
0.21194391 0.76209909 0.89135373
0.14004049 0.81812936 0.92765081
0.08596242 0.86896724 0.96012008
0.05384324 0.91290158 0.98757231
0.06007987 0.94475049 1.00000000
0.39632225 0.63904089 0.81053478
0.30089578 0.70035428 0.85095066
0.21487561 0.75996095 0.88996083
0.14239524 0.81614953 0.92637604
0.08758816 0.86720884 0.95900714
0.05458789 0.91142744 0.98666507
0.05885943 0.94387043 1.00000000
0.10170904 0.96521062 1.00000000
0.16235411 0.98157144 1.00000000
0.21782565 0.75781810 0.88856435
0.14477392 0.81416279 0.92509609
0.08924342 0.86544108 0.95788753
0.05536765 0.90994173 0.98574942
0.05766784 0.94298279 1.00000000
0.09979585 0.96451735 1.00000000
0.15984839 0.98105097 1.00000000
0.23431711 0.99316818 1.00000000
0.31969360 1.00000000 1.00000000
0.09092798 0.86366421 0.95676118
0.05618231 0.90844446 0.98482555
0.05650525 0.94208765 1.00000000
0.09790692 0.96381730 1.00000000
0.15736219 0.98052454 1.00000000
0.23136272 0.99279386 1.00000000
0.31640005 1.00000000 1.00000000
0.40896586 1.00000000 1.00000000
0.50555170 1.00000000 1.00000000
0.05537185 0.94118488 1.00000000
0.09604242 0.96311045 1.00000000
0.15489569 0.97999209 1.00000000
0.22842325 0.99241436 1.00000000
0.31311673 1.00000000 1.00000000
0.40546772 1.00000000 1.00000000
0.50196785 1.00000000 1.00000000
0.59910876 1.00000000 1.00000000
0.69338197 1.00000000 1.00000000
0.15244904 0.97945362 1.00000000
0.22549890 0.99202955 1.00000000
0.30984375 1.00000000 1.00000000
0.40197518 1.00000000 1.00000000
0.49838483 1.00000000 1.00000000
0.59556431 1.00000000 1.00000000
0.69000518 1.00000000 1.00000000
0.77819914 1.00000000 1.00000000
0.85663778 1.00000000 1.00000000
0.30658132 1.00000000 1.00000000
0.39848846 1.00000000 1.00000000
0.49480286 1.00000000 1.00000000
0.59201616 1.00000000 1.00000000
0.68662000 1.00000000 1.00000000
0.77510589 1.00000000 1.00000000
0.85396558 1.00000000 1.00000000
0.91969055 1.00000000 1.00000000
0.96877253 1.00000000 1.00000000
0.90513396 0.34748536 0.61606151
0.83198822 0.38752455 0.64290440
0.74547988 0.43528348 0.67489207
0.64974248 0.48905087 0.71083516
0.54890954 0.54711539 0.74954462
0.44711462 0.60776579 0.78983122
0.34849113 0.66929066 0.83050579
0.25717264 0.72997880 0.87037909
0.17729262 0.78811890 0.90826207
0.74885130 0.43340951 0.67363787
0.65338022 0.48698619 0.70945656
0.55266148 0.54492295 0.74808532
0.45082870 0.60550851 0.78833491
0.35201532 0.66703159 0.82901627
0.26035482 0.72778082 0.86894017
0.17998075 0.78604496 0.90691745
0.11502659 0.84011263 0.94175893
0.06962586 0.88827264 0.97227544
0.55641192 0.54273409 0.74662817
0.45454687 0.60325253 0.78683925
0.35554916 0.66477144 0.82752579
0.26355228 0.72557944 0.86749864
0.18268976 0.78396535 0.90556860
0.11709508 0.83821774 0.94054651
0.07090174 0.88662535 0.97124314
0.04824328 0.92747694 0.99646944
0.07438342 0.95343512 1.00000000
0.35909250 0.66251028 0.82603431
0.26676482 0.72337478 0.86605448
0.18541943 0.78188008 0.90421551
0.11918982 0.83631492 0.93932825
0.07220949 0.88496786 0.97020352
0.04861195 0.92612773 0.99565208
0.07287445 0.95263135 1.00000000
0.12292276 0.97200412 1.00000000
0.18942891 0.98662031 1.00000000
0.18816957 0.77978939 0.90285832
0.12131061 0.83440423 0.93810427
0.07354888 0.88330024 0.96915650
0.04901787 0.92476612 0.99482578
0.07139251 0.95182037 1.00000000
0.12076844 0.97137928 1.00000000
0.18673128 0.98616010 1.00000000
0.26577261 0.99674731 1.00000000
0.35438406 1.00000000 1.00000000
0.07491971 0.88162255 0.96810222
0.04946082 0.92339212 0.99399060
0.06993776 0.95100212 1.00000000
0.11863656 0.97074795 1.00000000
0.18405133 0.98569423 1.00000000
0.26267371 0.99642533 1.00000000
0.35099524 1.00000000 1.00000000
0.44550759 1.00000000 1.00000000
0.54270238 1.00000000 1.00000000
0.06851039 0.95017654 1.00000000
0.11652732 0.97011012 1.00000000
0.18138929 0.98522264 1.00000000
0.25958791 0.99609846 1.00000000
0.34761479 1.00000000 1.00000000
0.44196156 1.00000000 1.00000000
0.53911978 1.00000000 1.00000000
0.63558114 1.00000000 1.00000000
0.72783720 1.00000000 1.00000000
0.17874527 0.98474526 1.00000000
0.25651541 0.99576664 1.00000000
0.34424287 1.00000000 1.00000000
0.43841928 1.00000000 1.00000000
0.53553629 1.00000000 1.00000000
0.63208544 1.00000000 1.00000000
0.72455835 1.00000000 1.00000000
0.80944669 1.00000000 1.00000000
0.88324207 1.00000000 1.00000000
0.34087971 1.00000000 1.00000000
0.43488103 1.00000000 1.00000000
0.53195196 1.00000000 1.00000000
0.62858421 1.00000000 1.00000000
0.72126925 1.00000000 1.00000000
0.80649877 1.00000000 1.00000000
0.88076437 1.00000000 1.00000000
0.94055772 1.00000000 1.00000000
0.98237032 0.99978119 1.00000000
0.87908483 0.36173168 0.62561339
0.80035675 0.40491602 0.65455812
0.70984209 0.45516765 0.68819416
0.61167437 0.51077527 0.72533226
0.50998712 0.57002753 0.76478326
0.40891379 0.63121319 0.80535805
0.31258795 0.69262093 0.84586740
0.22514305 0.75253946 0.88512212
0.15071261 0.80925739 0.92193311
0.71333295 0.45321354 0.68688738
0.61537355 0.50865442 0.72391772
0.51374257 0.56780297 0.76330471
0.41257340 0.62894779 0.80385923
0.31599966 0.69037771 0.84439206
0.22815479 0.75038129 0.88371402
0.15317233 0.80724728 0.92063594
0.09518577 0.85926443 0.95396870
0.05832862 0.90472132 0.98252308
0.51749861 0.56558108 0.76182771
0.41623923 0.62668282 0.80236036
0.31942320 0.68813252 0.84291506
0.23118396 0.74821889 0.88230264
0.15565507 0.80523068 0.91933393
0.09697000 0.85745651 0.95281982
0.05926227 0.90318507 0.98157102
0.05271468 0.93893659 1.00000000
0.09157064 0.96134639 1.00000000
0.32285833 0.68588549 0.84143645
0.23423034 0.74605238 0.88088804
0.15816060 0.80320758 0.91802710
0.09878262 0.85563976 0.95166451
0.06022991 0.90163773 0.98061097
0.05168344 0.93800741 1.00000000
0.08979189 0.96061587 1.00000000
0.14652893 0.97810614 1.00000000
0.21838613 0.99106270 1.00000000
0.16068871 0.80117810 0.91671556
0.10062342 0.85381436 0.95050281
0.06123133 0.90007931 0.97964293
0.05068215 0.93707049 1.00000000
0.08803837 0.95987839 1.00000000
0.14415222 0.97754663 1.00000000
0.21551533 0.99065959 1.00000000
0.29861930 0.99980175 1.00000000
0.38995576 1.00000000 1.00000000
0.06226633 0.89850998 0.97866702
0.04971100 0.93612581 1.00000000
0.08631023 0.95913392 1.00000000
0.14179617 0.97698092 1.00000000
0.21266043 0.99025112 1.00000000
0.29539463 0.99952900 1.00000000
0.38649037 1.00000000 1.00000000
0.48243928 1.00000000 1.00000000
0.57973295 1.00000000 1.00000000
0.08460766 0.95838249 1.00000000
0.13946092 0.97640902 1.00000000
0.20982160 0.98983723 1.00000000
0.29218125 0.99925166 1.00000000
0.38303155 1.00000000 1.00000000
0.47886407 1.00000000 1.00000000
0.57617044 1.00000000 1.00000000
0.67144227 1.00000000 1.00000000
0.76117116 1.00000000 1.00000000
0.20699899 0.98941791 1.00000000
0.28897938 0.99896961 1.00000000
0.37957948 1.00000000 1.00000000
0.47529086 1.00000000 1.00000000
0.57260519 1.00000000 1.00000000
0.66801399 1.00000000 1.00000000
0.75800896 1.00000000 1.00000000
0.83908170 1.00000000 1.00000000
0.90772378 1.00000000 1.00000000
0.37613431 1.00000000 1.00000000
0.47171983 1.00000000 1.00000000
0.56903732 1.00000000 1.00000000
0.66457844 1.00000000 1.00000000
0.75483471 1.00000000 1.00000000
0.83629787 1.00000000 1.00000000
0.90545940 1.00000000 1.00000000
0.95881099 1.00000000 1.00000000
0.99284428 0.99976069 1.00000000
0.85072142 0.37725410 0.63602018
0.76701188 0.42333484 0.66689378
0.67309183 0.47583041 0.70200533
0.57309467 0.53302950 0.74016553
0.47115391 0.59322077 0.78018528
0.37140310 0.65469295 0.82087541
0.27797574 0.71573472 0.86104667
0.19500533 0.77463478 0.89950991
0.12662536 0.82968181 0.93507606
0.67668003 0.47380531 0.70065230
0.57683319 0.53086168 0.73872143
0.47489074 0.59097320 0.77869385
0.37498614 0.65242857 0.81938034
0.28125289 0.71351647 0.85959178
0.19782454 0.77252567 0.89813894
0.12883458 0.82774478 0.93383271
0.07841648 0.87746251 0.96548384
0.05070379 0.91996759 0.99190325
0.47863033 0.58872741 0.77720332
0.37857753 0.65016371 0.81788462
0.28454402 0.71129549 0.85813463
0.20066331 0.77041143 0.89676410
0.13106892 0.82580030 0.93258387
0.07989435 0.87575078 0.96440482
0.05127310 0.91855150 0.99103779
0.06512399 0.94811916 1.00000000
0.11144709 0.96851683 1.00000000
0.28784886 0.70907170 0.85667527
0.20352140 0.76829219 0.89538544
0.13332820 0.82384849 0.93132967
0.08140273 0.87402934 0.96331882
0.05187853 0.91712344 0.99016368
0.06379253 0.94726825 1.00000000
0.10941733 0.96785635 1.00000000
0.17233306 0.98354912 1.00000000
0.24903134 0.99493098 1.00000000
0.13561220 0.82188934 0.93007010
0.08294144 0.87229830 0.96222579
0.05251988 0.91568345 0.98928100
0.06248921 0.94640988 1.00000000
0.10741099 0.96718925 1.00000000
0.16975276 0.98305178 1.00000000
0.24600615 0.99458188 1.00000000
0.33266273 1.00000000 1.00000000
0.42621416 1.00000000 1.00000000
0.05319693 0.91423160 0.98838985
0.06121422 0.94554406 1.00000000
0.10542822 0.96651548 1.00000000
0.16719128 0.98254853 1.00000000
0.24299502 0.99422771 1.00000000
0.32933107 1.00000000 1.00000000
0.42269099 1.00000000 1.00000000
0.51956642 1.00000000 1.00000000
0.61644900 1.00000000 1.00000000
0.10346920 0.96583503 1.00000000
0.16464882 0.98203945 1.00000000
0.23999816 0.99386835 1.00000000
0.32600889 1.00000000 1.00000000
0.41917259 1.00000000 1.00000000
0.51598084 1.00000000 1.00000000
0.61292529 1.00000000 1.00000000
0.70649761 1.00000000 1.00000000
0.79318929 1.00000000 1.00000000
0.23701574 0.99350393 1.00000000
0.32269639 1.00000000 1.00000000
0.41565910 1.00000000 1.00000000
0.51239544 1.00000000 1.00000000
0.60939705 1.00000000 1.00000000
0.70315558 1.00000000 1.00000000
0.79016256 1.00000000 1.00000000
0.86690968 1.00000000 1.00000000
0.92988849 1.00000000 1.00000000
0.41215071 1.00000000 1.00000000
0.50881040 1.00000000 1.00000000
0.60586441 1.00000000 1.00000000
0.69980443 1.00000000 1.00000000
0.78712195 1.00000000 1.00000000
0.86430866 1.00000000 1.00000000
0.92785615 1.00000000 1.00000000
0.97425610 0.99991095 1.00000000
1.00000000 1.00000000 1.00000000
