X Major 322/X Major 322.cube
# VEGAS Pro LUT
TITLE "X Major 322"
LUT_3D_SIZE 5
1.00000000 0.29411766 0.58039218
0.92311448 0.33764026 0.60946137
0.77148914 0.42085600 0.66523409
0.57819200 0.53007442 0.73819691
0.37629113 0.65160501 0.81883651
0.77800816 0.41725001 0.66281939
0.58565819 0.52575433 0.73531842
0.38348797 0.64707458 0.81584412
0.20456547 0.76752031 0.89488316
0.08195877 0.87340099 0.96292216
0.39071622 0.64254296 0.81284976
0.21035258 0.76326340 0.89211202
0.08508817 0.86992246 0.96072423
0.06075764 0.94522738 1.00000000
0.16626453 0.98236412 1.00000000
0.08833691 0.86640644 0.95849907
0.05831422 0.94346792 1.00000000
0.16121274 0.98133564 1.00000000
0.32149428 1.00000000 1.00000000
0.51109171 1.00000000 1.00000000
0.15623860 0.98028326 1.00000000
0.31490636 1.00000000 1.00000000
0.50392258 1.00000000 1.00000000
0.69522023 1.00000000 1.00000000
0.86073214 1.00000000 1.00000000
0.98160607 0.30515838 0.58772022
0.87232399 0.36542961 0.62809277
0.70090997 0.46017423 0.69154173
0.50043207 0.57570171 0.76855361
0.30395827 0.69832170 0.84961504
0.70793360 0.45623657 0.68890893
0.50793904 0.57124209 0.76559043
0.31073207 0.69384366 0.84667140
0.14938071 0.81035095 0.92263860
0.05695303 0.90707350 0.98397851
0.31755435 0.68935740 0.84372085
0.15429801 0.80633146 0.92004472
0.05874878 0.90402442 0.98209131
0.09255142 0.96174198 1.00000000
0.22285366 0.99167520 1.00000000
0.06068093 0.90093070 0.98017192
0.08899170 0.96028149 1.00000000
0.21707927 0.99088013 1.00000000
0.39184868 1.00000000 1.00000000
0.58523285 1.00000000 1.00000000
0.21136805 0.99006367 1.00000000
0.38491735 1.00000000 1.00000000
0.57811397 1.00000000 1.00000000
0.76289082 1.00000000 1.00000000
0.91118073 1.00000000 1.00000000
0.94937313 0.32320055 0.59978575
0.81250149 0.39823028 0.65007877
0.62610584 0.50251365 0.71982098
0.42325416 0.62236011 0.79949898
0.23701452 0.74407929 0.87959933
0.63345724 0.49831754 0.71702093
0.43062511 0.61783403 0.79650193
0.24318840 0.73972684 0.87675536
0.10421521 0.85030562 0.94826770
0.04885444 0.93526024 1.00000000
0.24942787 0.73535913 0.87389952
0.10808585 0.84659666 0.94590199
0.04705882 0.93333334 1.00000000
0.13506116 0.97529984 1.00000000
0.28607872 0.99870920 1.00000000
0.04749754 0.93073517 0.99843729
0.13053526 0.97411335 1.00000000
0.27973181 0.99812257 1.00000000
0.46490905 1.00000000 1.00000000
0.65799987 1.00000000 1.00000000
0.27343363 0.99751693 1.00000000
0.45778444 1.00000000 1.00000000
0.65108138 1.00000000 1.00000000
0.82525742 1.00000000 1.00000000
0.95224535 1.00000000 1.00000000
0.90513396 0.34748536 0.61606151
0.74547988 0.43528348 0.67489207
0.54890954 0.54711539 0.74954462
0.34849113 0.66929066 0.83050579
0.17729262 0.78811890 0.90826207
0.55641192 0.54273409 0.74662817
0.35554916 0.66477144 0.82752579
0.18268976 0.78396535 0.90556860
0.07090174 0.88662535 0.97124314
0.07438342 0.95343512 1.00000000
0.18816957 0.77978939 0.90285832
0.07354888 0.88330024 0.96915650
0.07139251 0.95182037 1.00000000
0.18673128 0.98616010 1.00000000
0.35438406 1.00000000 1.00000000
0.06851039 0.95017654 1.00000000
0.18138929 0.98522264 1.00000000
0.34761479 1.00000000 1.00000000
0.53911978 1.00000000 1.00000000
0.72783720 1.00000000 1.00000000
0.34087971 1.00000000 1.00000000
0.53195196 1.00000000 1.00000000
0.72126925 1.00000000 1.00000000
0.88076437 1.00000000 1.00000000
0.98237032 0.99978119 1.00000000
0.85072142 0.37725410 0.63602018
0.67309183 0.47583041 0.70200533
0.47115391 0.59322077 0.78018528
0.27797574 0.71573472 0.86104667
0.12662536 0.82968181 0.93507606
0.47863033 0.58872741 0.77720332
0.28454402 0.71129549 0.85813463
0.13106892 0.82580030 0.93258387
0.05127310 0.91855150 0.99103779
0.11144709 0.96851683 1.00000000
0.13561220 0.82188934 0.93007010
0.05251988 0.91568345 0.98928100
0.10741099 0.96718925 1.00000000
0.24600615 0.99458188 1.00000000
0.42621416 1.00000000 1.00000000
0.10346920 0.96583503 1.00000000
0.23999816 0.99386835 1.00000000
0.41917259 1.00000000 1.00000000
0.61292529 1.00000000 1.00000000
0.79318929 1.00000000 1.00000000
0.41215071 1.00000000 1.00000000
0.60586441 1.00000000 1.00000000
0.78712195 1.00000000 1.00000000
0.92785615 1.00000000 1.00000000
1.00000000 1.00000000 1.00000000
