Green Black Purple Solarize/Green Black Purple Solarize.cube
# VEGAS Pro LUT
TITLE "Green Black Purple Solarize"
LUT_3D_SIZE 9
0.51372552 0.12156863 1.00000000
0.49626043 0.18715903 0.94607741
0.46364367 0.31668893 0.84337795
0.41969517 0.47859851 0.70857996
0.36823484 0.64132798 0.55836165
0.31308264 0.77331758 0.40940118
0.25805849 0.84300745 0.27837676
0.22575480 0.82646364 0.21836987
0.20036142 0.78514510 0.18136822
0.46506777 0.31115666 0.84782708
0.42146847 0.47243419 0.71391445
0.37021682 0.63569272 0.56396788
0.31513277 0.76937234 0.41466567
0.26003623 0.84191334 0.28268591
0.22666483 0.82771301 0.21979584
0.20131433 0.78690243 0.18266906
0.17510432 0.73344326 0.14896926
0.14867100 0.66974354 0.11875034
0.37219363 0.63001734 0.56957507
0.31718290 0.76534438 0.41995358
0.26201913 0.84069383 0.28704104
0.22757281 0.82894200 0.22122636
0.20226608 0.78864270 0.18397453
0.17607643 0.73560619 0.15014771
0.14964004 0.67224056 0.11979978
0.12359314 0.60095388 0.09298462
0.09857191 0.52415431 0.06975611
0.26400697 0.83935034 0.29144138
0.22847876 0.83015049 0.22266145
0.20321664 0.79036570 0.18528464
0.17704819 0.73775512 0.15133086
0.15060961 0.67472678 0.12085399
0.12453710 0.60368890 0.09390791
0.09946688 0.52704942 0.07054650
0.07603513 0.44721657 0.05082365
0.05487807 0.36659837 0.03479324
0.20416597 0.79207134 0.18659939
0.17801958 0.73988992 0.15251873
0.15157968 0.67720222 0.12191299
0.12548243 0.60641629 0.09483606
0.10036406 0.52994025 0.07134181
0.07686076 0.45018223 0.05148415
0.05560875 0.36955026 0.03531694
0.03724422 0.29045242 0.02289408
0.02240338 0.21529688 0.01426945
0.15255021 0.67966670 0.12297676
0.12642908 0.60913604 0.09576905
0.10126343 0.53282666 0.07214205
0.07768944 0.45314670 0.05214964
0.05634333 0.37250420 0.03584571
0.03786130 0.29330727 0.02328414
0.02287955 0.21796402 0.01451882
0.01203429 0.14888254 0.00960363
0.00596172 0.08847089 0.00859244
0.10216495 0.53570849 0.07294720
0.07852113 0.45610985 0.05282012
0.05708179 0.37546012 0.03637955
0.03848312 0.29616734 0.02367934
0.02336133 0.22063965 0.01477340
0.01235261 0.15128513 0.00971561
0.00609319 0.09051186 0.00855985
0.00521926 0.04072795 0.01136000
0.01036702 0.00434148 0.01816994
0.05782409 0.37841788 0.03691844
0.03910964 0.29903251 0.02407968
0.02384867 0.22332363 0.01503320
0.01267736 0.15369934 0.00983288
0.00623195 0.09256770 0.00853261
0.00514861 0.04233683 0.01118627
0.01006357 0.00541482 0.01784774
0.08173770 0.03700447 0.08914050
0.22614330 0.16429108 0.23246410
0.02434154 0.22601585 0.01529819
0.01300851 0.15612504 0.00995542
0.00637796 0.09463830 0.00851072
0.00508609 0.04396373 0.01101796
0.00976909 0.00650943 0.01753103
0.07751149 0.03387467 0.08494392
0.21997857 0.15836561 0.22634724
0.40232524 0.34253225 0.40724790
0.59794748 0.55249625 0.60127670
0.50909686 0.13702598 0.98625565
0.48540431 0.23071718 0.91176862
0.44801652 0.37631506 0.79486376
0.40075341 0.54225975 0.65221918
0.34743491 0.69699156 0.50051326
0.29188097 0.80895060 0.35642403
0.24076961 0.84468621 0.24295747
0.21621215 0.81234485 0.20386119
0.19042495 0.76595342 0.16816054
0.44959036 0.37040484 0.79972279
0.40262288 0.53616017 0.65772969
0.34945947 0.69186366 0.50606155
0.29392007 0.80595547 0.36139664
0.24164137 0.84557694 0.24445985
0.21714129 0.81379831 0.20523968
0.19138806 0.76788116 0.16941316
0.16501786 0.71023351 0.13703416
0.13866690 0.64326352 0.10815659
0.35148081 0.68667948 0.51161939
0.29596114 0.80286133 0.36640131
0.24251057 0.84644520 0.24596676
0.21806873 0.81523269 0.20662276
0.19235031 0.76979303 0.17067043
0.16599154 0.71253425 0.13816366
0.13962862 0.64586455 0.10915631
0.11389774 0.57219189 0.08370229
0.08943511 0.49392450 0.06185546
0.24367209 0.84704953 0.24814281
0.21899444 0.81664783 0.20801044
0.19331172 0.77168888 0.17193238
0.16696525 0.71482223 0.13929789
0.14059119 0.64845610 0.11016084
0.11482579 0.57499844 0.08457514
0.09030522 0.49685737 0.06259465
0.06766570 0.41644105 0.04427327
0.04754344 0.33615750 0.02966487
0.19427224 0.77356857 0.17319898
0.16793889 0.71709740 0.14043684
0.14155458 0.65103805 0.11117019
0.11575551 0.57779860 0.08545287
0.09117788 0.49978718 0.06333879
0.06845789 0.41941190 0.04488184
0.04823175 0.33908081 0.03013589
0.03113566 0.26120204 0.01915483
0.01780582 0.18818364 0.01199253
0.14251877 0.65361029 0.11218432
0.11668690 0.58059233 0.08633548
0.09205306 0.50271380 0.06408789
0.06925345 0.42238280 0.04549544
0.04892429 0.34200743 0.03061201
0.03170178 0.26399577 0.01949148
0.01822211 0.19075590 0.01218774
0.00912150 0.12469593 0.00875468
0.00503615 0.06822395 0.00924617
0.09293072 0.50563711 0.06484193
0.07005236 0.42535368 0.04611406
0.04962104 0.34493726 0.03109322
0.03227296 0.26679596 0.01983330
0.01864433 0.19333787 0.01238819
0.00937134 0.12697110 0.00881177
0.00509021 0.07010371 0.00915793
0.00643713 0.02514382 0.01348054
0.02614753 0.00324716 0.03391498
0.05032196 0.34787014 0.03157952
0.03284918 0.26960248 0.02018028
0.01907244 0.19592945 0.01259388
0.00962794 0.12925912 0.00887418
0.00515188 0.07199959 0.00907507
0.00628048 0.02655896 0.01325044
0.02349992 0.00231798 0.03128243
0.13051376 0.07648716 0.13756303
0.29288909 0.23004720 0.29868624
0.01950641 0.19853050 0.01280480
0.00989126 0.13155988 0.00894189
0.00522115 0.07391147 0.00899759
0.00613228 0.02799336 0.01302578
0.02096325 0.00154210 0.02875980
0.12543300 0.07214444 0.13251987
0.28624299 0.22338399 0.29209268
0.47678924 0.42138246 0.48110899
0.67046773 0.63226146 0.67319965
0.50192207 0.16461664 0.96392065
0.47255737 0.28182086 0.87129372
0.43095383 0.43889892 0.74260783
0.38093141 0.60429102 0.59454119
0.32631004 0.74643731 0.44377205
0.27090964 0.83377808 0.30697858
0.23159210 0.83416587 0.22765410
0.20649074 0.79618359 0.18984613
0.18040219 0.74506944 0.15545432
0.43265694 0.43277958 0.74778759
0.38287657 0.59842497 0.60013849
0.32835671 0.74198568 0.44917324
0.27291730 0.83190185 0.31157014
0.23248850 0.83528161 0.22910948
0.20743559 0.79782832 0.19117686
0.18137208 0.74715465 0.15665843
0.15493418 0.68566859 0.12560806
0.12875810 0.61577833 0.09807966
0.33040214 0.73746139 0.45459253
0.27492887 0.82991028 0.31620231
0.23338267 0.83637619 0.23056942
0.20837907 0.79945523 0.19251221
0.18234147 0.74922520 0.15786721
0.15590607 0.68809432 0.12668832
0.12970908 0.61847055 0.09902938
0.10438670 0.54276198 0.07494432
0.08057515 0.46337682 0.05448701
0.23427458 0.83744943 0.23203389
0.20932116 0.80106407 0.19385219
0.18331032 0.75128102 0.15908070
0.15687828 0.69050848 0.12777333
0.13066125 0.62115449 0.09998395
0.10529543 0.54562718 0.07576645
0.08141701 0.46633458 0.05517472
0.05966221 0.38568482 0.03826263
0.04066722 0.30608603 0.02508407
0.18427859 0.75332195 0.16029887
0.15785079 0.69291103 0.12886310
0.13161457 0.62383008 0.10094334
0.10620616 0.54848719 0.07659348
0.08226175 0.46929047 0.05586741
0.06041755 0.38864800 0.03881899
0.04130976 0.30896786 0.02550213
0.02557459 0.23265818 0.01597070
0.01384825 0.16212700 0.01027858
0.13256902 0.62649721 0.10190757
0.10711887 0.55134207 0.07742542
0.08310933 0.47224444 0.05656507
0.06117659 0.39161247 0.03938041
0.04195686 0.31185427 0.02592531
0.02608635 0.23537792 0.01625366
0.01420125 0.16459149 0.01041934
0.00693776 0.10190311 0.00847624
0.00493211 0.04972084 0.01047824
0.08395972 0.47519630 0.05726771
0.06193931 0.39457813 0.03994687
0.04260850 0.31474513 0.02635361
0.02660350 0.23810536 0.01654181
0.01456050 0.16706695 0.01056536
0.00711572 0.10403797 0.00847815
0.00490536 0.05142652 0.01033406
0.00856562 0.01164071 0.01618697
0.05979732 0.02149474 0.06735148
0.04326463 0.31764027 0.02678702
0.02712600 0.24084038 0.01683515
0.01492598 0.16955324 0.01071665
0.00730076 0.10618693 0.00848541
0.00488656 0.05314956 0.01019529
0.00831957 0.01284923 0.01590020
0.05607801 0.01907609 0.06365711
0.18733756 0.12751070 0.19395790
0.36381528 0.30241936 0.36904749
0.01529765 0.17205024 0.01087321
0.00749286 0.10834987 0.00849799
0.00487567 0.05488984 0.01006193
0.00808229 0.01407826 0.01561891
0.05245591 0.01679327 0.06005906
0.18154454 0.12213624 0.18820919
0.35683009 0.29519960 0.36211824
0.55170852 0.50210506 0.55541700
0.73957592 0.70897418 0.74173635
0.49241287 0.20259143 0.93391937
0.45793128 0.33872092 0.82557696
0.41266730 0.50269139 0.68753457
0.36044088 0.66294307 0.53647029
0.30507192 0.78791618 0.38906246
0.25038037 0.84605086 0.26198924
0.22217862 0.82138652 0.21283951
0.19662583 0.77811342 0.17632766
0.17032841 0.72262657 0.14325254
0.41447929 0.49653170 0.69294590
0.36244133 0.65747935 0.54206520
0.30712029 0.78430951 0.39422733
0.25233611 0.84546232 0.26611051
0.22309625 0.82271439 0.21424760
0.19758299 0.77993655 0.17761035
0.17130169 0.72485638 0.14440782
0.14488856 0.65988201 0.11469394
0.11897983 0.58742148 0.08852255
0.30916938 0.78061390 0.39941889
0.25429779 0.84474212 0.27028105
0.22401197 0.82402235 0.21566026
0.19853911 0.78174299 0.17889768
0.17227480 0.72707278 0.14556785
0.14585525 0.66241974 0.11572465
0.11991668 0.59019202 0.08942198
0.09509529 0.51279765 0.06671372
0.07202729 0.43264475 0.04765375
0.22492577 0.82531029 0.21707751
0.19949415 0.78353274 0.18018965
0.17324768 0.72927570 0.14673258
0.14682259 0.66494721 0.11676016
0.12085505 0.59295547 0.09032629
0.09598128 0.51570857 0.06748483
0.07283750 0.43561447 0.04828968
0.05205990 0.35508138 0.03279473
0.03428468 0.27651736 0.02105385
0.17422034 0.73146492 0.14790203
0.14779054 0.66746438 0.11780046
0.12179489 0.59571189 0.09123545
0.09686962 0.51861560 0.06826088
0.07365092 0.43858361 0.04893063
0.05277499 0.35802400 0.03329859
0.03487805 0.27934489 0.02141865
0.02059628 0.20495433 0.01334468
0.01056590 0.13726044 0.00913057
0.12273619 0.59846103 0.09214947
0.09776026 0.52151865 0.06904186
0.07446750 0.44155201 0.04957658
0.05349411 0.36096916 0.03380753
0.03547630 0.28217819 0.02178860
0.02105027 0.20758720 0.01357365
0.01085221 0.13960429 0.00921659
0.00551835 0.08063754 0.00877128
0.00568487 0.03309505 0.01229162
0.07528723 0.44451958 0.05022753
0.05421724 0.36391672 0.03432155
0.03607942 0.28501719 0.02216370
0.02150998 0.21022901 0.01380785
0.01114510 0.14196032 0.00930790
0.00562101 0.08261921 0.00871773
0.00557391 0.03461377 0.01209122
0.01163999 0.00035208 0.01948226
0.10374545 0.05414910 0.11099102
0.03668737 0.28786173 0.02254394
0.02197537 0.21287964 0.01404727
0.01144455 0.14432845 0.00940451
0.00573110 0.08461623 0.00866955
0.00547122 0.03615109 0.01189626
0.01130113 0.00134111 0.01913854
0.09909672 0.05042218 0.10637585
0.25073463 0.18819742 0.25686359
0.43744737 0.37952986 0.44208634
0.01175051 0.14670853 0.00950641
0.00584856 0.08662847 0.00862672
0.00537678 0.03770689 0.01170674
0.01097138 0.00235189 0.01880033
0.09453146 0.04681359 0.10184339
0.24437162 0.18197238 0.25055036
0.43026537 0.37193477 0.43496242
0.62560868 0.58282238 0.62871045
0.80379760 0.78075689 0.80542523
0.48078096 0.24920116 0.89717621
0.44173780 0.39966816 0.77554286
0.39336866 0.56594330 0.63056833
0.33949351 0.71646678 0.47893095
0.28393227 0.81967890 0.33730888
0.23733787 0.84099185 0.23712793
0.21256441 0.80648160 0.19851667
0.18665266 0.75826776 0.16330878
0.16023888 0.69875824 0.13155816
0.39526910 0.55991197 0.63612205
0.34152880 0.71157414 0.48443425
0.28596190 0.81708598 0.34214824
0.23821934 0.84196895 0.23861262
0.21349986 0.80800879 0.19987717
0.18761873 0.76025635 0.16454314
0.16121213 0.70111978 0.13266437
0.13491628 0.63300717 0.10429478
0.10936737 0.55832648 0.07948823
0.28799424 0.81438786 0.34702289
0.23909836 0.84292406 0.24010184
0.21443376 0.80951726 0.20124228
0.18858409 0.76222962 0.16578215
0.16218555 0.70346916 0.13377532
0.13587435 0.63564408 0.10527568
0.11028668 0.56116241 0.08033709
0.08605877 0.48243228 0.05901346
0.06382680 0.40186173 0.04135866
0.21536604 0.81100696 0.20261200
0.18954870 0.76418728 0.16702585
0.16315907 0.70580626 0.13489102
0.13683340 0.63827199 0.10626139
0.11120784 0.56399256 0.08119085
0.08691863 0.48537603 0.05973326
0.06460196 0.40483055 0.04194254
0.04489404 0.32476419 0.02787255
0.02843107 0.24758501 0.01757717
0.16413270 0.70813102 0.13601147
0.13779339 0.64089078 0.10725193
0.11213081 0.56681681 0.08204949
0.08778116 0.48831722 0.06045803
0.06538065 0.40780002 0.04253145
0.04556548 0.32767335 0.02832362
0.02897186 0.25034529 0.01788843
0.01623598 0.17822395 0.01127976
0.00799406 0.11371741 0.00855149
0.11305555 0.56963509 0.08291302
0.08864633 0.49125564 0.06118777
0.06616284 0.41077003 0.04312540
0.04624128 0.33058631 0.02877980
0.02951787 0.25311264 0.01820486
0.01662880 0.18075708 0.01145446
0.00821027 0.11592773 0.00858248
0.00489850 0.06103268 0.00964280
0.00732969 0.01848003 0.01468932
0.06694849 0.41374043 0.04372438
0.04692141 0.33350295 0.02924109
0.03006907 0.25588691 0.01852648
0.01702766 0.18330039 0.01163442
0.00843340 0.11815149 0.00861880
0.00492248 0.06284829 0.00953350
0.00713112 0.01979890 0.01443241
0.03753667 0.00831850 0.04523569
0.15651740 0.09933257 0.16337210
0.03062543 0.25866798 0.01885326
0.01743255 0.18585376 0.01181962
0.00866341 0.12038857 0.00866043
0.00495421 0.06468049 0.00942959
0.00694115 0.02113763 0.01418096
0.03446811 0.00680623 0.04218607
0.15108152 0.09447855 0.15797715
0.31923044 0.25666961 0.32481864
0.51231086 0.45950103 0.51634133
0.00890026 0.12263885 0.00870738
0.00499364 0.06652915 0.00933106
0.00675975 0.02249608 0.01393498
0.03150531 0.00544066 0.03924123
0.14571539 0.08972538 0.15265131
0.31243971 0.24977520 0.31808189
0.50507426 0.45171174 0.50916380
0.69701511 0.66165674 0.69952780
0.86165822 0.84573179 0.86280477
0.46723807 0.30269665 0.85461551
0.42418861 0.46291336 0.72211564
0.37326965 0.62690538 0.57263356
0.31830105 0.76311296 0.42284751
0.26310280 0.83997625 0.28943568
0.22806722 0.82960373 0.22200857
0.20278472 0.78958464 0.18468857
0.17660652 0.73678005 0.15079248
0.15016884 0.67359799 0.12037421
0.37523806 0.62117130 0.57824039
0.32035077 0.75896019 0.42817003
0.26509327 0.83856589 0.29386032
0.22897203 0.83080101 0.22344615
0.20373461 0.79129821 0.18600121
0.17757809 0.73892134 0.15197821
0.15113868 0.67607838 0.12143103
0.12505257 0.60517752 0.09441357
0.09995598 0.52862680 0.07097970
0.26708844 0.83703411 0.29832885
0.22987473 0.83197755 0.22488828
0.20468326 0.79299432 0.18731847
0.17854927 0.74104840 0.15316863
0.15210900 0.67854786 0.12249263
0.12599862 0.60790074 0.09534436
0.10085435 0.53151524 0.07177769
0.07731239 0.45179936 0.05184653
0.05600895 0.37116125 0.03560473
0.20563063 0.79467291 0.18864039
0.17952006 0.74316120 0.15436377
0.15307976 0.68100631 0.12355901
0.12694599 0.61061621 0.09627999
0.10175490 0.53439915 0.07258061
0.07814272 0.45476314 0.05251474
0.05674564 0.37411627 0.03613627
0.03819989 0.29486668 0.02349907
0.02314164 0.21942241 0.01465704
0.15405096 0.68345356 0.12463015
0.12789463 0.61332381 0.09722048
0.10265758 0.53727847 0.07338845
0.07897604 0.45772555 0.05318795
0.05748621 0.37707323 0.03667286
0.03882428 0.29772955 0.02389707
0.02362646 0.22210261 0.01491446
0.01252896 0.15260053 0.00977892
0.00616797 0.09163139 0.00854432
0.10356237 0.54015297 0.07420120
0.07981233 0.46068648 0.05386614
0.05823059 0.38003191 0.03721452
0.03945335 0.30059743 0.02430021
0.02411682 0.22479109 0.01517710
0.01285720 0.15502103 0.00989907
0.00631069 0.09369530 0.00852000
0.00511350 0.04322201 0.01109379
0.00990183 0.00600925 0.01767431
0.05897877 0.38299227 0.03776123
0.04008709 0.30347022 0.02470847
0.02461270 0.22748776 0.01544493
0.01319182 0.15745294 0.01002449
0.00646065 0.09577389 0.00850103
0.00505539 0.04485868 0.01092844
0.00961225 0.00711541 0.01736060
0.07524412 0.03222077 0.08269237
0.21663865 0.15516746 0.22303322
0.02511407 0.23019247 0.01571797
0.01353279 0.15989618 0.01015519
0.00661782 0.09786705 0.00848741
0.00500535 0.04651318 0.01076851
0.00933159 0.00824266 0.01705239
0.07115753 0.02928737 0.07863412
0.21055791 0.14936753 0.21699953
0.39135048 0.33104959 0.39636153
0.58693123 0.54045522 0.59035093
0.00678216 0.09997466 0.00847913
0.00496334 0.04818539 0.01061400
0.00905983 0.00939087 0.01674966
0.06716296 0.02648320 0.07466705
0.20453317 0.14365095 0.21102132
0.38427430 0.32366696 0.38934228
0.57978237 0.53265291 0.58326077
0.76445335 0.73673046 0.76640755
0.91168326 0.90202123 0.91241348
0.45199591 0.36132872 0.80716175
0.40549546 0.52670741 0.66621977
0.35258192 0.68382853 0.51465458
0.29707521 0.80113238 0.36914432
0.24298359 0.84690934 0.24679062
0.21857388 0.81600696 0.20737910
0.19287483 0.77082908 0.17135820
0.16652265 0.71378386 0.13878174
0.14015356 0.64727926 0.10970365
0.35459793 0.67856038 0.52022541
0.29911891 0.79788828 0.37419689
0.24472614 0.84700012 0.25028795
0.21949863 0.81741154 0.20876929
0.19383575 0.77271616 0.17262268
0.16749632 0.71606487 0.13991855
0.14111657 0.64986563 0.11071080
0.11533270 0.57652658 0.08505329
0.09078091 0.49845585 0.06299993
0.24666367 0.84680337 0.25426117
0.22042161 0.81879663 0.21016406
0.19479576 0.77458709 0.17389183
0.16846995 0.71833295 0.14106010
0.14208041 0.65244228 0.11172276
0.11626334 0.57932323 0.08593369
0.09165494 0.50138396 0.06374678
0.06889142 0.42103240 0.04521591
0.04860898 0.34067675 0.03039496
0.19575481 0.77644163 0.17516562
0.16944349 0.72058797 0.14220637
0.14304501 0.65500915 0.11273952
0.11719561 0.58211339 0.08681896
0.09253147 0.50430876 0.06449857
0.06968881 0.42400330 0.04583224
0.04930382 0.34360513 0.03087385
0.03201271 0.26552236 0.01967729
0.01845168 0.19216305 0.01229643
0.14401037 0.65756613 0.11376108
0.11812948 0.58489692 0.08770910
0.09341048 0.50723016 0.06525531
0.07048953 0.42697406 0.04645360
0.05000285 0.34653664 0.03135784
0.03258664 0.26832601 0.02002193
0.01887711 0.19475028 0.01249974
0.00951047 0.12821752 0.00884516
0.00512291 0.07113583 0.00911207
0.09429191 0.51014811 0.06601699
0.07129354 0.42994457 0.04707997
0.05070603 0.34947118 0.03184692
0.03316559 0.27113596 0.02037172
0.01930843 0.19734703 0.01270828
0.00977074 0.13051251 0.00891045
0.00518873 0.07304046 0.00903214
0.00619860 0.02733898 0.01312722
0.02210244 0.00187566 0.02989274
0.05141334 0.35240859 0.03234108
0.03374953 0.27395204 0.02072668
0.01974558 0.19995321 0.01292205
0.01003771 0.13282016 0.00898106
0.00526211 0.07496101 0.00895759
0.00605499 0.02878384 0.01290554
0.01962684 0.00118411 0.02743062
0.12269372 0.06982158 0.12980083
0.28263471 0.21977609 0.28851289
0.02018856 0.20256867 0.01314105
0.01031136 0.13514037 0.00905696
0.00534304 0.07689738 0.00888842
0.00591979 0.03024776 0.01268931
0.01726422 0.00064848 0.02508044
0.11773138 0.06564824 0.12487497
0.27605137 0.21321142 0.28198147
0.46562022 0.40945965 0.47003075
0.65983391 0.62051463 0.66265363
0.00543147 0.07884943 0.00882462
0.00579294 0.03173064 0.01247852
0.01501591 0.00027044 0.02284352
0.11284732 0.06158664 0.12002669
0.26951033 0.20671262 0.27549192
0.45840091 0.40177003 0.46287006
0.65291512 0.61288053 0.65579188
0.82644892 0.80616581 0.82788825
0.95239830 0.94774753 0.95278996
0.43526620 0.42334819 0.75573915
0.38587007 0.58930105 0.60877967
0.33151725 0.73496354 0.45755580
0.27602768 0.82877594 0.31874582
0.23386945 0.83696425 0.23136766
0.20889311 0.80033499 0.19324253
0.18287000 0.75034839 0.15852854
0.15643632 0.68941253 0.12727955
0.13022830 0.61993551 0.09954946
0.33356038 0.73033017 0.46300140
0.27804497 0.82660925 0.32343921
0.23476011 0.83802587 0.23283461
0.20983441 0.80193400 0.19458503
0.18383855 0.75239611 0.15974458
0.15740870 0.69182044 0.12836716
0.13118111 0.62261498 0.10050666
0.10579194 0.54718781 0.07621695
0.08187742 0.46794713 0.05555193
0.23564847 0.83906609 0.23430611
0.21077427 0.80351478 0.19593212
0.18480650 0.75442892 0.16096529
0.15838136 0.69421661 0.12945953
0.13213503 0.62528592 0.10146868
0.10670376 0.55004507 0.07704666
0.08272371 0.47090197 0.05624733
0.06083111 0.39026484 0.03912459
0.04166216 0.31054172 0.02573232
0.18577383 0.75644660 0.16219071
0.15935424 0.69660097 0.13055666
0.13309008 0.62794840 0.10243554
0.10761754 0.55289698 0.07788128
0.08357283 0.47385481 0.05694772
0.06159217 0.39322996 0.03968876
0.04231174 0.31343055 0.02615829
0.02636776 0.23686467 0.01641019
0.01439643 0.16594039 0.01049834
0.13404618 0.63060224 0.10340723
0.10853326 0.55574352 0.07872079
0.08442475 0.47680551 0.05765307
0.06235687 0.39619622 0.04025798
0.04296584 0.31632379 0.02658938
0.02688784 0.23959626 0.01670117
0.01475908 0.16842176 0.01064723
0.00721578 0.10520839 0.00848145
0.00489412 0.05236422 0.01025770
0.08527942 0.47975394 0.05836340
0.06312520 0.39916345 0.04083223
0.04362442 0.31922126 0.02702559
0.02741326 0.24233536 0.01699735
0.01512794 0.17091392 0.01080139
0.00740467 0.10736499 0.00849161
0.00487964 0.05409668 0.01012188
0.00818906 0.01351708 0.01574609
0.05409019 0.01781397 0.06168251
0.04428744 0.32212287 0.02746691
0.02794399 0.24508187 0.01729871
0.01550298 0.17341672 0.01096081
0.00760059 0.10953550 0.00850711
0.00487305 0.05584631 0.00999147
0.00795656 0.01475723 0.01546779
0.05052166 0.01560595 0.05813754
0.17841098 0.11924324 0.18509954
0.35303107 0.29128078 0.35834962
0.01588415 0.17593007 0.01112549
0.00780353 0.11171981 0.00852793
0.00487433 0.05761299 0.00986646
0.00773278 0.01601770 0.01519497
0.04705240 0.01353635 0.05469090
0.17271514 0.11401115 0.17944711
0.34608740 0.28413254 0.35146150
0.54056519 0.49002215 0.54436487
0.72954452 0.69780171 0.73178798
0.00488345 0.05939661 0.00974686
0.00751770 0.01729837 0.01492762
0.04368371 0.01160687 0.05134392
0.16708389 0.10887331 0.17385864
0.33917230 0.27703270 0.34460163
0.53334498 0.48220670 0.53720373
0.72299796 0.69051695 0.72529566
0.88152719 0.86808521 0.88250840
0.98232865 0.98103303 0.98247260
0.41726065 0.48700589 0.70127225
0.36552411 0.64894515 0.55071962
0.31028733 0.77856123 0.40226161
0.25537020 0.84429437 0.27257636
0.22451065 0.82472736 0.21643274
0.19906017 0.78272134 0.17960182
0.17280549 0.72827601 0.14620258
0.14638281 0.66379964 0.11628889
0.12042833 0.59170026 0.08991463
0.31233716 0.77473140 0.40749279
0.25734061 0.84337389 0.27682137
0.22542338 0.82600433 0.21785247
0.20001462 0.78450185 0.18089633
0.17377825 0.73047155 0.14736988
0.14735048 0.66632152 0.11732700
0.12136751 0.59445983 0.09082159
0.09646554 0.51729470 0.06790752
0.07328079 0.43723407 0.04863867
0.22633414 0.82726109 0.21927677
0.20096795 0.78626537 0.18219548
0.17475076 0.73265332 0.14854190
0.14831875 0.66883290 0.11836991
0.12230814 0.59721231 0.09173340
0.09735513 0.52019960 0.06868625
0.07409593 0.44020283 0.04928235
0.05316674 0.35963014 0.03357557
0.03520376 0.28088960 0.02161980
0.17572297 0.73482126 0.14971864
0.14928760 0.67133379 0.11941761
0.12325022 0.59995747 0.09265008
0.09824703 0.52310044 0.06946992
0.07491424 0.44317082 0.04993103
0.05388805 0.36257663 0.03408728
0.03580468 0.28372604 0.02199256
0.02130031 0.20902708 0.01370075
0.01101116 0.14088789 0.00926574
0.12419368 0.60269523 0.09357160
0.09914117 0.52599716 0.07025852
0.07573567 0.44613788 0.05058471
0.05461335 0.36552548 0.03460407
0.03641043 0.28656808 0.02237047
0.02176313 0.21167372 0.01393780
0.01130763 0.14325054 0.00935994
0.00568014 0.08370660 0.00869078
0.00551688 0.03545001 0.01198421
0.07656018 0.44910392 0.05124339
0.05534259 0.36847660 0.03512592
0.03702100 0.28941563 0.02275352
0.02223162 0.21432912 0.01418006
0.01161063 0.14562520 0.00945943
0.00579425 0.08571193 0.00864552
0.00541869 0.03699742 0.01179221
0.01112014 0.00188976 0.01895338
0.09659614 0.04843908 0.10389327
0.03763635 0.29226854 0.02314171
0.02270575 0.21699317 0.01442754
0.01192014 0.14801176 0.00956421
0.00591573 0.08773243 0.00860562
0.00532873 0.03856326 0.01160565
0.01079534 0.00291234 0.01861817
0.09207698 0.04489576 0.09940647
0.24092136 0.17860807 0.24712706
0.42635319 0.36780381 0.43108192
0.01223612 0.15041010 0.00967428
0.00604454 0.08976796 0.00857108
0.00524696 0.04014739 0.01142452
0.01047959 0.00395647 0.01828847
0.08764335 0.04147338 0.09500439
0.23463432 0.17249840 0.24088906
0.41919151 0.36025319 0.42397809
0.61471087 0.57085937 0.61790228
0.79458839 0.77043873 0.79629248
0.00517336 0.04174969 0.01124881
0.01017287 0.00502204 0.01796427
0.08329656 0.03817364 0.09068837
0.22839814 0.16646551 0.23470141
0.41204464 0.35273349 0.41688892
0.60763210 0.56309927 0.61088175
0.78855646 0.76368451 0.79031062
0.92821378 0.92061085 0.92880642
1.00000000 1.00000000 1.00000000
