Green Black Purple Solarize/Green Black Purple Solarize.cube
# VEGAS Pro LUT
TITLE "Green Black Purple Solarize"
LUT_3D_SIZE 5
0.51372552 0.12156863 1.00000000
0.46364367 0.31668893 0.84337795
0.36823484 0.64132798 0.55836165
0.25805849 0.84300745 0.27837676
0.20036142 0.78514510 0.18136822
0.37219363 0.63001734 0.56957507
0.26201913 0.84069383 0.28704104
0.20226608 0.78864270 0.18397453
0.14964004 0.67224056 0.11979978
0.09857191 0.52415431 0.06975611
0.20416597 0.79207134 0.18659939
0.15157968 0.67720222 0.12191299
0.10036406 0.52994025 0.07134181
0.05560875 0.36955026 0.03531694
0.02240338 0.21529688 0.01426945
0.10216495 0.53570849 0.07294720
0.05708179 0.37546012 0.03637955
0.02336133 0.22063965 0.01477340
0.00609319 0.09051186 0.00855985
0.01036702 0.00434148 0.01816994
0.02434154 0.22601585 0.01529819
0.00637796 0.09463830 0.00851072
0.00976909 0.00650943 0.01753103
0.21997857 0.15836561 0.22634724
0.59794748 0.55249625 0.60127670
0.50192207 0.16461664 0.96392065
0.43095383 0.43889892 0.74260783
0.32631004 0.74643731 0.44377205
0.23159210 0.83416587 0.22765410
0.18040219 0.74506944 0.15545432
0.33040214 0.73746139 0.45459253
0.23338267 0.83637619 0.23056942
0.18234147 0.74922520 0.15786721
0.12970908 0.61847055 0.09902938
0.08057515 0.46337682 0.05448701
0.18427859 0.75332195 0.16029887
0.13161457 0.62383008 0.10094334
0.08226175 0.46929047 0.05586741
0.04130976 0.30896786 0.02550213
0.01384825 0.16212700 0.01027858
0.08395972 0.47519630 0.05726771
0.04260850 0.31474513 0.02635361
0.01456050 0.16706695 0.01056536
0.00490536 0.05142652 0.01033406
0.05979732 0.02149474 0.06735148
0.01529765 0.17205024 0.01087321
0.00487567 0.05488984 0.01006193
0.05245591 0.01679327 0.06005906
0.35683009 0.29519960 0.36211824
0.73957592 0.70897418 0.74173635
0.48078096 0.24920116 0.89717621
0.39336866 0.56594330 0.63056833
0.28393227 0.81967890 0.33730888
0.21256441 0.80648160 0.19851667
0.16023888 0.69875824 0.13155816
0.28799424 0.81438786 0.34702289
0.21443376 0.80951726 0.20124228
0.16218555 0.70346916 0.13377532
0.11028668 0.56116241 0.08033709
0.06382680 0.40186173 0.04135866
0.16413270 0.70813102 0.13601147
0.11213081 0.56681681 0.08204949
0.06538065 0.40780002 0.04253145
0.02897186 0.25034529 0.01788843
0.00799406 0.11371741 0.00855149
0.06694849 0.41374043 0.04372438
0.03006907 0.25588691 0.01852648
0.00843340 0.11815149 0.00861880
0.00713112 0.01979890 0.01443241
0.15651740 0.09933257 0.16337210
0.00890026 0.12263885 0.00870738
0.00675975 0.02249608 0.01393498
0.14571539 0.08972538 0.15265131
0.50507426 0.45171174 0.50916380
0.86165822 0.84573179 0.86280477
0.45199591 0.36132872 0.80716175
0.35258192 0.68382853 0.51465458
0.24298359 0.84690934 0.24679062
0.19287483 0.77082908 0.17135820
0.14015356 0.64727926 0.10970365
0.24666367 0.84680337 0.25426117
0.19479576 0.77458709 0.17389183
0.14208041 0.65244228 0.11172276
0.09165494 0.50138396 0.06374678
0.04860898 0.34067675 0.03039496
0.14401037 0.65756613 0.11376108
0.09341048 0.50723016 0.06525531
0.05000285 0.34653664 0.03135784
0.01887711 0.19475028 0.01249974
0.00512291 0.07113583 0.00911207
0.05141334 0.35240859 0.03234108
0.01974558 0.19995321 0.01292205
0.00526211 0.07496101 0.00895759
0.01962684 0.00118411 0.02743062
0.28263471 0.21977609 0.28851289
0.00543147 0.07884943 0.00882462
0.01501591 0.00027044 0.02284352
0.26951033 0.20671262 0.27549192
0.65291512 0.61288053 0.65579188
0.95239830 0.94774753 0.95278996
0.41726065 0.48700589 0.70127225
0.31028733 0.77856123 0.40226161
0.22451065 0.82472736 0.21643274
0.17280549 0.72827601 0.14620258
0.12042833 0.59170026 0.08991463
0.22633414 0.82726109 0.21927677
0.17475076 0.73265332 0.14854190
0.12230814 0.59721231 0.09173340
0.07409593 0.44020283 0.04928235
0.03520376 0.28088960 0.02161980
0.12419368 0.60269523 0.09357160
0.07573567 0.44613788 0.05058471
0.03641043 0.28656808 0.02237047
0.01130763 0.14325054 0.00935994
0.00551688 0.03545001 0.01198421
0.03763635 0.29226854 0.02314171
0.01192014 0.14801176 0.00956421
0.00532873 0.03856326 0.01160565
0.09207698 0.04489576 0.09940647
0.42635319 0.36780381 0.43108192
0.00517336 0.04174969 0.01124881
0.08329656 0.03817364 0.09068837
0.41204464 0.35273349 0.41688892
0.78855646 0.76368451 0.79031062
1.00000000 1.00000000 1.00000000
