Green Black Purple Solarize/Green Black Purple Solarize.cube
# VEGAS Pro LUT
TITLE "Green Black Purple Solarize"
LUT_3D_SIZE 33
0.51372552 0.12156863 1.00000000
0.51098859 0.13024598 0.99200428
0.50712568 0.14439891 0.98017818
0.50219637 0.16353430 0.96478236
0.49626043 0.18715903 0.94607741
0.48937750 0.21477999 0.92432386
0.48160726 0.24590404 0.89978236
0.47300941 0.28003806 0.87271357
0.46364367 0.31668893 0.84337795
0.45356968 0.35536355 0.81203622
0.44284713 0.39556876 0.77894890
0.43153572 0.43681145 0.74437666
0.41969517 0.47859851 0.70857996
0.40738508 0.52043682 0.67181957
0.39466524 0.56183326 0.63435596
0.38159525 0.60229468 0.59644979
0.36823484 0.64132798 0.55836165
0.35464367 0.67844003 0.52035213
0.34088147 0.71313775 0.48268178
0.32700789 0.74492794 0.44561127
0.31308264 0.77331758 0.40940118
0.29916537 0.79781348 0.37431207
0.28531581 0.81792247 0.34060457
0.27159360 0.83315152 0.30853927
0.25805849 0.84300745 0.27837676
0.24477009 0.84699720 0.25037766
0.23793913 0.84166044 0.23813972
0.23189795 0.83454859 0.22814974
0.22575480 0.82646364 0.21836987
0.21951963 0.81744319 0.20880094
0.21320239 0.80752486 0.19944379
0.20681301 0.79674631 0.19029926
0.20036142 0.78514510 0.18136822
0.50728703 0.14378694 0.98067808
0.50239593 0.16274777 0.96540898
0.49649596 0.18621607 0.94682115
0.48964679 0.21369874 0.92517513
0.48190814 0.24470265 0.90073162
0.47333971 0.27873468 0.87375116
0.46400112 0.31530169 0.84449434
0.45395213 0.35391060 0.81322181
0.44325241 0.39406821 0.78019410
0.43196160 0.43528149 0.74567181
0.42013943 0.47705728 0.70991558
0.40784559 0.51890242 0.67318600
0.39513975 0.56032383 0.63574368
0.38208160 0.60082841 0.59784919
0.36873081 0.63992298 0.55976307
0.35514709 0.67711449 0.52174604
0.34139013 0.71190977 0.48405862
0.32751957 0.74381566 0.44696143
0.31359518 0.77233911 0.41071504
0.29967654 0.79698700 0.37558010
0.28582343 0.81726611 0.34181714
0.27209550 0.83268344 0.30968681
0.25855243 0.84274578 0.27944970
0.24525391 0.84696007 0.25136638
0.23815931 0.84190303 0.23851125
0.23212206 0.83482772 0.22851355
0.22598249 0.82677794 0.21872593
0.21975054 0.81779122 0.20914923
0.21343613 0.80790526 0.19978426
0.20704922 0.79715765 0.19063191
0.20059976 0.78558600 0.18169299
0.19409765 0.77322805 0.17296834
0.18755288 0.76012129 0.16445883
0.49673018 0.18527855 0.94756073
0.48991489 0.21262227 0.92602265
0.48220792 0.24350537 0.90167743
0.47366893 0.27743474 0.87478566
0.46435764 0.31391722 0.84560800
0.45433372 0.35245973 0.81440496
0.44365689 0.39256912 0.78143722
0.43238676 0.43375230 0.74696535
0.42058310 0.47551611 0.71124989
0.40830556 0.51736748 0.67455149
0.39561379 0.55881321 0.63713074
0.38256755 0.59936023 0.59924829
0.36922649 0.63851541 0.56116462
0.35565028 0.67578566 0.52314043
0.34189862 0.71067780 0.48543626
0.32803118 0.74269879 0.44831273
0.31410769 0.77135539 0.41203043
0.30018783 0.79615456 0.37684998
0.28633124 0.81660318 0.34303194
0.27259764 0.83220810 0.31083691
0.25904670 0.84247619 0.28052554
0.24573812 0.84691435 0.25235835
0.23837933 0.84214425 0.23888305
0.23234604 0.83510554 0.22887765
0.22621006 0.82709086 0.21908228
0.21998133 0.81813800 0.20949779
0.21366978 0.80828446 0.20012504
0.20728536 0.79756784 0.19096485
0.20083801 0.78602588 0.18201806
0.19433768 0.77369618 0.17328551
0.18779430 0.76061630 0.16476807
0.18121782 0.74682391 0.15646654
0.17461815 0.73235661 0.14838180
0.48250654 0.24231221 0.90261978
0.47399712 0.27613825 0.87581712
0.46471319 0.31253552 0.84671891
0.45471445 0.35101101 0.81558579
0.44406053 0.39107150 0.78267831
0.43281120 0.43222389 0.74825716
0.42102611 0.47397509 0.71258283
0.40876493 0.51583195 0.67591602
0.39608738 0.55730134 0.63851720
0.38305309 0.59789020 0.60064709
0.36972180 0.63710535 0.56256622
0.35615319 0.67445362 0.52453524
0.34240693 0.70944202 0.48681468
0.32854271 0.74157733 0.44966516
0.31462023 0.77036649 0.41334730
0.30069914 0.79531628 0.37812167
0.28683919 0.81593370 0.34424892
0.27310002 0.83172554 0.31198958
0.25954130 0.84219873 0.28160426
0.24622275 0.84686011 0.25335360
0.23859921 0.84238410 0.23925513
0.23256989 0.83538198 0.22924203
0.22643751 0.82740259 0.21943891
0.22021200 0.81848353 0.20984666
0.21390332 0.80866247 0.20046610
0.20752142 0.79797697 0.19129807
0.20107621 0.78646469 0.18234341
0.19457765 0.77416331 0.17360297
0.18803568 0.76111037 0.16507760
0.18146023 0.74734348 0.15676811
0.17486125 0.73290038 0.14867538
0.16824868 0.71781856 0.14080024
0.16163245 0.70213580 0.13314351
0.46506777 0.31115666 0.84782708
0.45509425 0.34956440 0.81676418
0.44446340 0.38957533 0.78391737
0.43323493 0.43069631 0.74954730
0.42146847 0.47243419 0.71391445
0.40922377 0.51429594 0.67727953
0.39656046 0.55578834 0.63990301
0.38353825 0.59641826 0.60204566
0.37021682 0.63569272 0.56396788
0.35665590 0.67311841 0.52593046
0.34291512 0.70820236 0.48819387
0.32905418 0.74045140 0.45101872
0.31513277 0.76937234 0.41466567
0.30121058 0.79447216 0.37939525
0.28734732 0.81525767 0.34546807
0.27360263 0.83123577 0.31314477
0.26003623 0.84191334 0.28268591
0.24670778 0.84679729 0.25435206
0.23881893 0.84262258 0.23962751
0.23279358 0.83565712 0.22960667
0.22666483 0.82771301 0.21979584
0.22044256 0.81882787 0.21019581
0.21413678 0.80903935 0.20080744
0.20775738 0.79838496 0.19163157
0.20131433 0.78690243 0.18266906
0.19481756 0.77462941 0.17392072
0.18827701 0.76160342 0.16538742
0.18170261 0.74786216 0.15706998
0.17510432 0.73344326 0.14896926
0.16849208 0.71838433 0.14108610
0.16187581 0.70272297 0.13342133
0.15526547 0.68649685 0.12597579
0.14867100 0.66974354 0.11875034
0.44486547 0.38808066 0.78515440
0.43365791 0.42916954 0.75083572
0.42191020 0.47089347 0.71524471
0.40968201 0.51275939 0.67864203
0.39703304 0.55427408 0.64128822
0.38402298 0.59494454 0.60344386
0.37071154 0.63427752 0.56536967
0.35715833 0.67178005 0.52732611
0.34342313 0.70695883 0.48957381
0.32956555 0.73932087 0.45237342
0.31564531 0.76837307 0.41598547
0.30172211 0.79362220 0.38067061
0.28785560 0.81457514 0.34668940
0.27410549 0.83073884 0.31430247
0.26053146 0.84162021 0.28377041
0.24719322 0.84672600 0.25535378
0.23903850 0.84285969 0.24000016
0.23301715 0.83593094 0.22997162
0.22689201 0.82802218 0.22015303
0.22067302 0.81917101 0.21054524
0.21437013 0.80941498 0.20114906
0.20799327 0.79879183 0.19196537
0.20155238 0.78733915 0.18299499
0.19505741 0.77509451 0.17423876
0.18851829 0.76209557 0.16569753
0.18194497 0.74837995 0.15737215
0.17534737 0.73398530 0.14926343
0.16873547 0.71894920 0.14137225
0.16211918 0.70330936 0.13369943
0.15550844 0.68710333 0.12624581
0.14891320 0.67036879 0.11901225
0.14234340 0.65314335 0.11199958
0.13580899 0.63546455 0.10520864
0.42235127 0.46935296 0.71657360
0.41013971 0.51122236 0.68000352
0.39750516 0.55275875 0.64267272
0.38450733 0.59346896 0.60484183
0.37120590 0.63285995 0.56677145
0.35766053 0.67043847 0.52872211
0.34393096 0.70571154 0.49095452
0.33007684 0.73818594 0.45372918
0.31615785 0.76736861 0.41730675
0.30223370 0.79276639 0.38194779
0.28836405 0.81388617 0.34791291
0.27460858 0.83023477 0.31546271
0.26102704 0.84131920 0.28485778
0.24767905 0.84664619 0.25635871
0.23925790 0.84309536 0.24037309
0.23324057 0.83620346 0.23033684
0.22711907 0.82833010 0.22051053
0.22090337 0.81951290 0.21089496
0.21460338 0.80978954 0.20149098
0.20822906 0.79919761 0.19229946
0.20179036 0.78777474 0.18332121
0.19529720 0.77555853 0.17455709
0.18875952 0.76258671 0.16600794
0.18218729 0.74889678 0.15767460
0.17559041 0.73452646 0.14955790
0.16897886 0.71951330 0.14165869
0.16236255 0.70389503 0.13397783
0.15575144 0.68770915 0.12651613
0.14915545 0.67099339 0.11927446
0.14258455 0.65378529 0.11225365
0.13604864 0.63612252 0.10545453
0.12955771 0.61804277 0.09887797
0.12312166 0.59958357 0.09252479
0.39797679 0.55124223 0.64405656
0.38499126 0.59199160 0.60623944
0.37169993 0.63143986 0.56817323
0.35816249 0.66909385 0.53011853
0.34443864 0.70446044 0.49233595
0.33058801 0.73704654 0.45508605
0.31667036 0.76635903 0.41862944
0.30274534 0.79190481 0.38322675
0.28887263 0.81319070 0.34913853
0.27511194 0.82972360 0.31662542
0.26152292 0.84101039 0.28594798
0.24816528 0.84655797 0.25736684
0.23947717 0.84332973 0.24074630
0.23346385 0.83647460 0.23070237
0.22734600 0.82863671 0.22086830
0.22113359 0.81985354 0.21124496
0.21483652 0.81016284 0.20183319
0.20846477 0.79960221 0.19263384
0.20202826 0.78820926 0.18364772
0.19553693 0.77602160 0.17487571
0.18900071 0.76307690 0.16631864
0.18242957 0.74941272 0.15797734
0.17583343 0.73506677 0.14985265
0.16922224 0.72007662 0.14194544
0.16260593 0.70447987 0.13425653
0.15599445 0.68831426 0.12678675
0.14939773 0.67161727 0.11953697
0.14282572 0.65442663 0.11250801
0.13628836 0.63677996 0.10570073
0.12979560 0.61871487 0.09911597
0.12335736 0.60026896 0.09275455
0.11698359 0.58147985 0.08661734
0.11068423 0.56238520 0.08070516
0.37219363 0.63001734 0.56957507
0.35866418 0.66774607 0.53151530
0.34494615 0.70320559 0.49371809
0.33109912 0.73590273 0.45644400
0.31718290 0.76534438 0.41995358
0.30325708 0.79103744 0.38450751
0.28938138 0.81248879 0.35036632
0.27561551 0.82920527 0.31779063
0.26201913 0.84069383 0.28704104
0.24865191 0.84646130 0.25837815
0.23969626 0.84356272 0.24111982
0.23368698 0.83674449 0.23106816
0.22757281 0.82894200 0.22122636
0.22136369 0.82019299 0.21159525
0.21506958 0.81053501 0.20217569
0.20870039 0.80000573 0.19296850
0.20226608 0.78864270 0.18397453
0.19577660 0.77648360 0.17519462
0.18924186 0.76356608 0.16662963
0.18267182 0.74992770 0.15828037
0.17607643 0.73560619 0.15014771
0.16946560 0.72063905 0.14223248
0.16284931 0.70506400 0.13453551
0.15623747 0.68891859 0.12705767
0.14964004 0.67224056 0.11979978
0.14306694 0.65506738 0.11276268
0.13652813 0.63743681 0.10594723
0.13003355 0.61938643 0.09935426
0.12359314 0.60095388 0.09298462
0.11721682 0.58217674 0.08683914
0.11091455 0.56309271 0.08091866
0.10469627 0.54373932 0.07522404
0.09857191 0.52415431 0.06975611
0.34545347 0.70194697 0.49510095
0.33161014 0.73475444 0.45780298
0.31769538 0.76432461 0.42127913
0.30376887 0.79016435 0.38579002
0.28989029 0.81178045 0.35159621
0.27611929 0.82867992 0.31895831
0.26251563 0.84036952 0.28813693
0.24913892 0.84635615 0.25939265
0.23991522 0.84379429 0.24149360
0.23390998 0.83701295 0.23143424
0.22779949 0.82924604 0.22158471
0.22159369 0.82053119 0.21194583
0.21530253 0.81090599 0.20251846
0.20893593 0.80040807 0.19330345
0.20250383 0.78907508 0.18430163
0.19601619 0.77694458 0.17551383
0.18948296 0.76405430 0.16694091
0.18291403 0.75044179 0.15858370
0.17631939 0.73614472 0.15044306
0.16970897 0.72120070 0.14251980
0.16309270 0.70564729 0.13481480
0.15648052 0.68952227 0.12732887
0.14988238 0.67286313 0.12006288
0.14330822 0.65570754 0.11301765
0.13676797 0.63809311 0.10619403
0.13027158 0.62005752 0.09959286
0.12382900 0.60163832 0.09321498
0.11745015 0.58287323 0.08706124
0.11114497 0.56379980 0.08113248
0.10492343 0.54445565 0.07542954
0.09879544 0.52487844 0.06995325
0.09277096 0.50510585 0.06470446
0.08685992 0.48517540 0.05968403
0.31820789 0.76329982 0.42260608
0.30428073 0.78928554 0.38707426
0.29039931 0.81106579 0.35282820
0.27662334 0.82814747 0.32012844
0.26301244 0.84003747 0.28923562
0.24962634 0.84624267 0.26041031
0.24013402 0.84402448 0.24186766
0.23413284 0.83728015 0.23180060
0.22802605 0.82954884 0.22194333
0.22182357 0.82086819 0.21229669
0.21553537 0.81127578 0.20286153
0.20917137 0.80080932 0.19363870
0.20274152 0.78950638 0.18462901
0.19625574 0.77740455 0.17583333
0.18972400 0.76454157 0.16725248
0.18315622 0.75095499 0.15888733
0.17656235 0.73668242 0.15073870
0.16995233 0.72176147 0.14280744
0.16333610 0.70622987 0.13509439
0.15672359 0.69012517 0.12760039
0.15012476 0.67348504 0.12032629
0.14354953 0.65634704 0.11327292
0.13700786 0.63874882 0.10644113
0.13050969 0.62072808 0.09983176
0.12406494 0.60232234 0.09344566
0.11768357 0.58356923 0.08728366
0.11137552 0.56450647 0.08134660
0.10515072 0.54517168 0.07563533
0.09901912 0.52560240 0.07015069
0.09299064 0.50583631 0.06489352
0.08707526 0.48591101 0.05986467
0.08128288 0.46586415 0.05506498
0.07562347 0.44573334 0.05049528
0.29090852 0.81034470 0.35406229
0.27712756 0.82760799 0.32130101
0.26350954 0.83969778 0.29033712
0.25011411 0.84612083 0.26143113
0.24035265 0.84425330 0.24224201
0.23435555 0.83754599 0.23216726
0.22825247 0.82985032 0.22230224
0.22205333 0.82120389 0.21264786
0.21576811 0.81164438 0.20320490
0.20940672 0.80120939 0.19397423
0.20297912 0.78993660 0.18495668
0.19649522 0.77786350 0.17615311
0.18996499 0.76502782 0.16756435
0.18339837 0.75146717 0.15919125
0.17680529 0.73721921 0.15103464
0.17019568 0.72232145 0.14309536
0.16357949 0.70681167 0.13537426
0.15696669 0.69072735 0.12787220
0.15036717 0.67410624 0.12058999
0.14379090 0.65698588 0.11352849
0.13724782 0.63940394 0.10668853
0.13074787 0.62139809 0.10007097
0.12430098 0.60300583 0.09367663
0.11791711 0.58426487 0.08750637
0.11160617 0.56521285 0.08156102
0.10537814 0.54588735 0.07584143
0.09924293 0.52632606 0.07034844
0.09321049 0.50656652 0.06508289
0.08729076 0.48664641 0.06004563
0.08149368 0.46660337 0.05523748
0.07582920 0.44647500 0.05065931
0.07030725 0.42629892 0.04631194
0.06493778 0.40611276 0.04219623
0.26400697 0.83935034 0.29144138
0.25060230 0.84599066 0.26245508
0.24057113 0.84448069 0.24261665
0.23457812 0.83781046 0.23253419
0.22847876 0.83015049 0.22266145
0.22228299 0.82153839 0.21299928
0.21600075 0.81201184 0.20354854
0.20964199 0.80160838 0.19431004
0.20321664 0.79036570 0.18528464
0.19673464 0.77832139 0.17647319
0.19020595 0.76551312 0.16787651
0.18364048 0.75197846 0.15949546
0.17704819 0.73775512 0.15133086
0.17043902 0.72288060 0.14338358
0.16382290 0.70739263 0.13565445
0.15720978 0.69132882 0.12814431
0.15060961 0.67472678 0.12085399
0.14403231 0.65762413 0.11378436
0.13748783 0.64005852 0.10693623
0.13098612 0.62206757 0.10031047
0.12453710 0.60368890 0.09390791
0.11815073 0.58496010 0.08772939
0.11183694 0.56591886 0.08177575
0.10560568 0.54660273 0.07604785
0.09946688 0.52704942 0.07054650
0.09343048 0.50729656 0.06527257
0.08750643 0.48738167 0.06022689
0.08170467 0.46734247 0.05541030
0.07603513 0.44721657 0.05082365
0.07050776 0.42704159 0.04646778
0.06513251 0.40685514 0.04234352
0.05991929 0.38669485 0.03845173
0.05487807 0.36659837 0.03479324
0.24078944 0.84470671 0.24299157
0.23480055 0.83807361 0.23290139
0.22870491 0.83044940 0.22302094
0.22251251 0.82187170 0.21335101
0.21623328 0.81237805 0.20389247
0.20987716 0.80200624 0.19464615
0.20345409 0.79079378 0.18561290
0.19697399 0.77877825 0.17679356
0.19044684 0.76599741 0.16818896
0.18388255 0.75248885 0.15979996
0.17729108 0.73829013 0.15162739
0.17068234 0.72343892 0.14367209
0.16406631 0.70797288 0.13593492
0.15745291 0.69192958 0.12841670
0.15085208 0.67534667 0.12111829
0.14427376 0.65826178 0.11404052
0.13772790 0.64071250 0.10718424
0.13122444 0.62273657 0.10055028
0.12477331 0.60437143 0.09413949
0.11838446 0.58565485 0.08795271
0.11206782 0.56662446 0.08199079
0.10583334 0.54731780 0.07625456
0.09969097 0.52777255 0.07074486
0.09365062 0.50802636 0.06546255
0.08772226 0.48811677 0.06040846
0.08191583 0.46808147 0.05558343
0.07624125 0.44795808 0.05098831
0.07070848 0.42778423 0.04662393
0.06532744 0.40759754 0.04249114
0.06010810 0.38743564 0.03859078
0.05506037 0.36733612 0.03492369
0.05019422 0.34733668 0.03149072
0.04551956 0.32747489 0.02829270
0.22893095 0.83074701 0.22338070
0.22274193 0.82220370 0.21370302
0.21646573 0.81274313 0.20423669
0.21011224 0.80240291 0.19498254
0.20369145 0.79122072 0.18594144
0.19721329 0.77923411 0.17711422
0.19068769 0.76648074 0.16850170
0.18412459 0.75299829 0.16010475
0.17753394 0.73882431 0.15192421
0.17092566 0.72399646 0.14396091
0.16430973 0.70855230 0.13621569
0.15769605 0.69252962 0.12868941
0.15109459 0.67596591 0.12138289
0.14451526 0.65889877 0.11429699
0.13796803 0.64136595 0.10743254
0.13146283 0.62340498 0.10079039
0.12500960 0.60505354 0.09437138
0.11861828 0.58634925 0.08817634
0.11229881 0.56732970 0.08220613
0.10606113 0.54803252 0.07646158
0.09991519 0.52849543 0.07094354
0.09387092 0.50875592 0.06565285
0.08793826 0.48885167 0.06059035
0.08212717 0.46882033 0.05575687
0.07644756 0.44869953 0.05115328
0.07090940 0.42852688 0.04678039
0.06552260 0.40833998 0.04263907
0.06029713 0.38817650 0.03873014
0.05524292 0.36807403 0.03505446
0.05036990 0.34807023 0.03161286
0.04568803 0.32820269 0.02840618
0.04120724 0.30850908 0.02543528
0.03693746 0.28902701 0.02270098
0.21669805 0.81310701 0.20458119
0.21034725 0.80279851 0.19531924
0.20392875 0.79164660 0.18627027
0.19745252 0.77968889 0.17743516
0.19092849 0.76696306 0.16881473
0.18436660 0.75350678 0.16040984
0.17777677 0.73935753 0.15222132
0.17116898 0.72455311 0.14425001
0.16455314 0.70913100 0.13649675
0.15793921 0.69312888 0.12896240
0.15133712 0.67658436 0.12164779
0.14475681 0.65953517 0.11455376
0.13820821 0.64201880 0.10768115
0.13170129 0.62407291 0.10103080
0.12524597 0.60573518 0.09460356
0.11885220 0.58704317 0.08840027
0.11252991 0.56803459 0.08242178
0.10628905 0.54874694 0.07666891
0.10013956 0.52921796 0.07114252
0.09409137 0.50948524 0.06584345
0.08815444 0.48958641 0.06077254
0.08233868 0.46955910 0.05593063
0.07665407 0.44944093 0.05131856
0.07111052 0.42926949 0.04693717
0.06571799 0.40908247 0.04278731
0.06048640 0.38891745 0.03886982
0.05542571 0.36881208 0.03518554
0.05054585 0.34880397 0.03173532
0.04585677 0.32893077 0.02851998
0.04136840 0.30923009 0.02554039
0.03709069 0.28973955 0.02279737
0.03303358 0.27049679 0.02029177
0.02920699 0.25153944 0.01802444
0.20416597 0.79207134 0.18659939
0.19769168 0.78014266 0.17775640
0.19116923 0.76744443 0.16912806
0.18460855 0.75401431 0.16071522
0.17801958 0.73988992 0.15251873
0.17141227 0.72510892 0.14453942
0.16479656 0.70970887 0.13677812
0.15818238 0.69372743 0.12923570
0.15157968 0.67720222 0.12191299
0.14499839 0.66017091 0.11481082
0.13844846 0.64267105 0.10793005
0.13193983 0.62474030 0.10127151
0.12548243 0.60641629 0.09483606
0.11908621 0.58773667 0.08862451
0.11276112 0.56873906 0.08263773
0.10651709 0.54946107 0.07687655
0.10036406 0.52994025 0.07134181
0.09431197 0.51021439 0.06603436
0.08837076 0.49032101 0.06095504
0.08255038 0.47029772 0.05610469
0.07686076 0.45018223 0.05148415
0.07131185 0.43001211 0.04709426
0.06591358 0.40982497 0.04293587
0.06067590 0.38965848 0.03900982
0.05560875 0.36955026 0.03531694
0.05072206 0.34953791 0.03185809
0.04602578 0.32965907 0.02863410
0.04152986 0.30995136 0.02564582
0.03724422 0.29045242 0.02289408
0.03317881 0.27119988 0.02037974
0.02934357 0.25223136 0.01810362
0.02574845 0.23358448 0.01606658
0.02240338 0.21529688 0.01426945
0.19140993 0.76792479 0.16944169
0.18485048 0.75452095 0.16102090
0.17826238 0.74042141 0.15281643
0.17165557 0.72566390 0.14482911
0.16503999 0.71028596 0.13705978
0.15842557 0.69432521 0.12950930
0.15182227 0.67781937 0.12217848
0.14524001 0.66080600 0.11506819
0.13868876 0.64332271 0.10817926
0.13217843 0.62540716 0.10151253
0.12571897 0.60709697 0.09506885
0.11932033 0.58842975 0.08884905
0.11299244 0.56944317 0.08285399
0.10674525 0.55017477 0.07708449
0.10058869 0.53066230 0.07154141
0.09453271 0.51094329 0.06622558
0.08858725 0.49105540 0.06113786
0.08276225 0.47103623 0.05627906
0.07706764 0.45092344 0.05165005
0.07151338 0.43075466 0.04725167
0.06610940 0.41056749 0.04308474
0.06086563 0.39039958 0.03915013
0.05579203 0.37028855 0.03544866
0.05089853 0.35027200 0.03198119
0.04619507 0.33038759 0.02874854
0.04169159 0.31067294 0.02575157
0.03739804 0.29116565 0.02299112
0.03332435 0.27190337 0.02046802
0.02948047 0.25292373 0.01818313
0.02587634 0.23426436 0.01613727
0.02252189 0.21596286 0.01433130
0.01942707 0.19805688 0.01276606
0.01660182 0.18058404 0.01144238
0.17850514 0.74095201 0.15311442
0.17189884 0.72621804 0.14511910
0.16528341 0.71086228 0.13734174
0.15866877 0.69492233 0.12978318
0.15206489 0.67843586 0.12244427
0.14548168 0.66144043 0.11532585
0.13892910 0.64397377 0.10842876
0.13241710 0.62607348 0.10175385
0.12595560 0.60777712 0.09530194
0.11955453 0.58912241 0.08907390
0.11322387 0.57014686 0.08307055
0.10697354 0.55088824 0.07729274
0.10081347 0.53138405 0.07174131
0.09475362 0.51167196 0.06641711
0.08880391 0.49178961 0.06132098
0.08297430 0.47177461 0.05645375
0.07727472 0.45166463 0.05181627
0.07171512 0.43149722 0.04740939
0.06630543 0.41131008 0.04323393
0.06105559 0.39114076 0.03929075
0.05597555 0.37102696 0.03558069
0.05107525 0.35100630 0.03210459
0.04636462 0.33111635 0.02886330
0.04185361 0.31139478 0.02585764
0.03755216 0.29187921 0.02308847
0.03347021 0.27260724 0.02055663
0.02961770 0.25361654 0.01826295
0.02600457 0.23494472 0.01620829
0.02264076 0.21662939 0.01439348
0.01953621 0.19870819 0.01281937
0.01670087 0.18121874 0.01148679
0.01414467 0.16419868 0.01039659
0.01187755 0.14768563 0.00954961
0.16552684 0.71143776 0.13762400
0.15891199 0.69551867 0.13005736
0.15230753 0.67905164 0.12271037
0.14572339 0.66207427 0.11558382
0.13916951 0.64462429 0.10867857
0.13265583 0.62673926 0.10199547
0.12619230 0.60845685 0.09553535
0.11978884 0.58981460 0.08929905
0.11345541 0.57085025 0.08328742
0.10720194 0.55160129 0.07750130
0.10103838 0.53210551 0.07194152
0.09497466 0.51240039 0.06660895
0.08902073 0.49252364 0.06150441
0.08318652 0.47251287 0.05662875
0.07748199 0.45240569 0.05198280
0.07191706 0.43223974 0.04756742
0.06650167 0.41205266 0.04338343
0.06124578 0.39188203 0.03943169
0.05615932 0.37176552 0.03571304
0.05125223 0.35174075 0.03222832
0.04653445 0.33184534 0.02897837
0.04201592 0.31211689 0.02596403
0.03770658 0.29259306 0.02318615
0.03361638 0.27331150 0.02064556
0.02975525 0.25430977 0.01834311
0.02613314 0.23562555 0.01627964
0.02275998 0.21729644 0.01445599
0.01964572 0.19936007 0.01287300
0.01680030 0.18185408 0.01153153
0.01423365 0.16481608 0.01043240
0.01195572 0.14828371 0.00957645
0.00997645 0.13229460 0.00896455
0.00830578 0.11688634 0.00859751
0.15255021 0.67966670 0.12297676
0.14596514 0.66270745 0.11584208
0.13940997 0.64527422 0.10892868
0.13289464 0.62740451 0.10223739
0.12642908 0.60913604 0.09576905
0.12002324 0.59050637 0.08952450
0.11368705 0.57155317 0.08350459
0.10743047 0.55231410 0.07771016
0.10126343 0.53282666 0.07214205
0.09519586 0.51312858 0.06680110
0.08923771 0.49325749 0.06168815
0.08339892 0.47325099 0.05680405
0.07768944 0.45314670 0.05214964
0.07211920 0.43298224 0.04772576
0.06669813 0.41279525 0.04353325
0.06143620 0.39262336 0.03957295
0.05634333 0.37250420 0.03584571
0.05142946 0.35247537 0.03235237
0.04670454 0.33257455 0.02909376
0.04217850 0.31283930 0.02607074
0.03786130 0.29330727 0.02328414
0.03376286 0.27401611 0.02073481
0.02989313 0.25500345 0.01842358
0.02626204 0.23630686 0.01635131
0.02287955 0.21796402 0.01451882
0.01975559 0.20001255 0.01292697
0.01690010 0.18249005 0.01157659
0.01432302 0.16543417 0.01046853
0.01203429 0.14888254 0.00960363
0.01004386 0.13287276 0.00898272
0.00836166 0.11744247 0.00860666
0.00699763 0.10262931 0.00847629
0.00596172 0.08847089 0.00859244
0.13965049 0.64592355 0.10917909
0.13313352 0.62806922 0.10247961
0.12666595 0.60981476 0.09600306
0.12025774 0.59119773 0.08975026
0.11391881 0.57225573 0.08372207
0.10765912 0.55302650 0.07791933
0.10148861 0.53354758 0.07234287
0.09541720 0.51385659 0.06699355
0.08945485 0.49399117 0.06187220
0.08361150 0.47398898 0.05697967
0.07789708 0.45388761 0.05231679
0.07232154 0.43372470 0.04788442
0.06689481 0.41353789 0.04368338
0.06162685 0.39336479 0.03971453
0.05652758 0.37324300 0.03597869
0.05160695 0.35321018 0.03247673
0.04687490 0.33330399 0.02920948
0.04234138 0.31356198 0.02617777
0.03801631 0.29402182 0.02338246
0.03390964 0.27472112 0.02082438
0.03003132 0.25569752 0.01850438
0.02639128 0.23698866 0.01642330
0.02299947 0.21863215 0.01458198
0.01986582 0.20066559 0.01298126
0.01700028 0.18312666 0.01162198
0.01441278 0.16605294 0.01050499
0.01211327 0.14948209 0.00963113
0.01011168 0.13345172 0.00900123
0.00841797 0.11799944 0.00861615
0.00704206 0.10316291 0.00847672
0.00599391 0.08897973 0.00858379
0.00528344 0.07548755 0.00893820
