G Major 198/G Major 198.cube
# VEGAS Pro LUT
TITLE "G Major 198"
LUT_3D_SIZE 9
1.00000000 1.00000000 1.00000000
0.87500000 1.00000000 1.00000000
0.75000000 1.00000000 1.00000000
0.62500000 1.00000000 1.00000000
0.50000000 1.00000000 1.00000000
0.37500000 1.00000000 1.00000000
0.25000000 1.00000000 1.00000000
0.12500000 1.00000000 1.00000000
0.00000000 1.00000000 1.00000000
1.00000000 0.87500000 1.00000000
0.87500000 0.87500000 1.00000000
0.75000000 0.87500000 1.00000000
0.62500000 0.87500000 1.00000000
0.50000000 0.87500000 1.00000000
0.37500000 0.87500000 1.00000000
0.25000000 0.87500000 1.00000000
0.12500000 0.87500000 1.00000000
0.00000000 0.87500000 1.00000000
1.00000000 0.75000000 1.00000000
0.87500000 0.75000000 1.00000000
0.75000000 0.75000000 1.00000000
0.62500000 0.75000000 1.00000000
0.50000000 0.75000000 1.00000000
0.37500000 0.75000000 1.00000000
0.25000000 0.75000000 1.00000000
0.12500000 0.75000000 1.00000000
0.00000000 0.75000000 1.00000000
1.00000000 0.62500000 1.00000000
0.87500000 0.62500000 1.00000000
0.75000000 0.62500000 1.00000000
0.62500000 0.62500000 1.00000000
0.50000000 0.62500000 1.00000000
0.37500000 0.62500000 1.00000000
0.25000000 0.62500000 1.00000000
0.12500000 0.62500000 1.00000000
0.01107180 0.62915194 1.00000000
1.00000000 0.50000000 1.00000000
0.87500000 0.50000000 1.00000000
0.75000000 0.50000000 1.00000000
0.62500000 0.50000000 1.00000000
0.50000000 0.50000000 1.00000000
0.37500000 0.50000000 1.00000000
0.25753975 0.50502652 1.00000000
0.16794324 0.52453899 1.00000000
0.10900939 0.55450469 1.00000000
1.00000000 0.37500000 1.00000000
0.87500000 0.37500000 1.00000000
0.75000000 0.37500000 1.00000000
0.62500000 0.37500000 1.00000000
0.50453401 0.38066745 1.00000000
0.40452957 0.40452957 1.00000000
0.32986051 0.44155043 1.00000000
0.28491348 0.48922390 1.00000000
0.27207053 0.54504406 1.00000000
1.00000000 0.25000000 1.00000000
0.87500000 0.25000000 1.00000000
0.75202918 0.25608760 1.00000000
0.64204192 0.28408384 1.00000000
0.55198747 0.32798123 1.00000000
0.48731035 0.38477242 1.00000000
0.45145023 0.45145023 1.00000000
0.44584209 0.52500749 1.00000000
0.46991587 0.60243690 1.00000000
1.00000000 0.13129979 1.00000000
0.88045895 0.16321272 1.00000000
0.77537310 0.21380597 1.00000000
0.69124472 0.27957106 1.00000000
0.63257128 0.35699975 1.00000000
0.60184526 0.44258344 1.00000000
0.59955460 0.53281367 1.00000000
0.62418222 0.62418222 1.00000000
0.67220622 0.71318042 1.00000000
1.00000000 0.09903359 1.00000000
0.89670336 0.17362690 1.00000000
0.81542432 0.26169741 1.00000000
0.75971329 0.35923547 1.00000000
0.73111576 0.46223152 1.00000000
0.72917235 0.56667578 1.00000000
0.75141907 0.66855878 1.00000000
0.79338694 0.76387078 1.00000000
0.84860218 0.84860218 1.00000000
1.00000000 1.00000000 0.87500000
0.87500000 1.00000000 0.87500000
0.75000000 1.00000000 0.87500000
0.62500000 1.00000000 0.87500000
0.50000000 1.00000000 0.87500000
0.37500000 1.00000000 0.87500000
0.25000000 1.00000000 0.87500000
0.12500000 1.00000000 0.87500000
0.00000000 1.00000000 0.87500000
1.00000000 0.87500000 0.87500000
0.87500000 0.87500000 0.87500000
0.75000000 0.87500000 0.87500000
0.62500000 0.87500000 0.87500000
0.50000000 0.87500000 0.87500000
0.37500000 0.87500000 0.87500000
0.25000000 0.87500000 0.87500000
0.12500000 0.87500000 0.87500000
0.00000000 0.87500000 0.87500000
1.00000000 0.75000000 0.87500000
0.87500000 0.75000000 0.87500000
0.75000000 0.75000000 0.87500000
0.62500000 0.75000000 0.87500000
0.50000000 0.75000000 0.87500000
0.37500000 0.75000000 0.87500000
0.25000000 0.75000000 0.87500000
0.12500000 0.75000000 0.87500000
0.00000000 0.75000000 0.87500000
1.00000000 0.62500000 0.87500000
0.87500000 0.62500000 0.87500000
0.75000000 0.62500000 0.87500000
0.62500000 0.62500000 0.87500000
0.50000000 0.62500000 0.87500000
0.37500000 0.62500000 0.87500000
0.25000000 0.62500000 0.87500000
0.12500000 0.62500000 0.87500000
0.02356750 0.63383782 0.87794596
1.00000000 0.50000000 0.87500000
0.87500000 0.50000000 0.87500000
0.75000000 0.50000000 0.87500000
0.62500000 0.50000000 0.87500000
0.50000000 0.50000000 0.87500000
0.37500000 0.50000000 0.87500000
0.26665819 0.51110548 0.87777638
0.18596995 0.53483999 0.88370997
0.13652653 0.56826329 0.89206582
1.00000000 0.37500000 0.87500000
0.87500000 0.37500000 0.87500000
0.75000000 0.37500000 0.87500000
0.62500000 0.37500000 0.87500000
0.51044309 0.38805383 0.87761074
0.41722858 0.41722858 0.88344574
0.35032779 0.45860648 0.89172131
0.31355435 0.50968170 0.90193635
0.30871689 0.56794804 0.91358960
1.00000000 0.25000000 0.87500000
0.87500000 0.25000000 0.87500000
0.75489825 0.26469481 0.87744915
0.64955419 0.29910839 0.88318473
0.56551766 0.34827650 0.89137942
0.50765991 0.40919185 0.90153199
0.47884738 0.47884738 0.91314125
0.47994161 0.55423570 0.92570597
0.50979948 0.63234961 0.93872494
1.00000000 0.14104062 0.87729150
0.88292706 0.18048960 0.88292706
0.78208035 0.23728126 0.89104021
0.70338881 0.30790722 0.90112960
0.65077651 0.38885891 0.91269416
0.62616289 0.47662807 0.92523259
0.62946236 0.56770611 0.93824375
0.65858471 0.65858471 0.95122641
0.70943481 0.74575543 0.96367937
1.00000000 0.12562895 0.89070362
0.90072918 0.20583367 0.90072918
0.82449675 0.29798687 0.91224837
0.77427953 0.39807880 0.92475986
0.75105000 0.50209999 0.93776250
0.75377542 0.60604066 0.95075506
0.77941847 0.70589125 0.96323639
0.82293689 0.79764217 0.97470528
0.87728363 0.87728363 0.98466045
1.00000000 1.00000000 0.75000000
0.87500000 1.00000000 0.75000000
0.75000000 1.00000000 0.75000000
0.62500000 1.00000000 0.75000000
0.50000000 1.00000000 0.75000000
0.37500000 1.00000000 0.75000000
0.25000000 1.00000000 0.75000000
0.12500000 1.00000000 0.75000000
0.00000000 1.00000000 0.75000000
1.00000000 0.87500000 0.75000000
0.87500000 0.87500000 0.75000000
0.75000000 0.87500000 0.75000000
0.62500000 0.87500000 0.75000000
0.50000000 0.87500000 0.75000000
0.37500000 0.87500000 0.75000000
0.25000000 0.87500000 0.75000000
0.12500000 0.87500000 0.75000000
0.00000000 0.87500000 0.75000000
1.00000000 0.75000000 0.75000000
0.87500000 0.75000000 0.75000000
0.75000000 0.75000000 0.75000000
0.62500000 0.75000000 0.75000000
0.50000000 0.75000000 0.75000000
0.37500000 0.75000000 0.75000000
0.25000000 0.75000000 0.75000000
0.12500000 0.75000000 0.75000000
0.00000000 0.75000000 0.75000000
1.00000000 0.62500000 0.75000000
0.87500000 0.62500000 0.75000000
0.75000000 0.62500000 0.75000000
0.62500000 0.62500000 0.75000000
0.50000000 0.62500000 0.75000000
0.37500000 0.62500000 0.75000000
0.25000000 0.62500000 0.75000000
0.12945795 0.62691057 0.75127369
0.03944147 0.63979053 0.75986040
1.00000000 0.50000000 0.75000000
0.87500000 0.50000000 0.75000000
0.75000000 0.50000000 0.75000000
0.62500000 0.50000000 0.75000000
0.50000000 0.50000000 0.75000000
0.37768573 0.50214863 0.75107431
0.27832651 0.51888430 0.75944215
0.20646137 0.54654932 0.77327466
0.16627765 0.58313882 0.79156941
1.00000000 0.37500000 0.75000000
0.87500000 0.37500000 0.75000000
0.75000000 0.37500000 0.75000000
0.62632549 0.37720913 0.75088364
0.51806271 0.39757836 0.75903136
0.43170142 0.43170142 0.77268058
0.37248671 0.47707230 0.79082894
0.34365880 0.53118485 0.81247395
0.34645307 0.59153318 0.83661330
1.00000000 0.25000000 0.75000000
0.87535089 0.25210541 0.75070179
0.75862801 0.27588397 0.75862801
0.65813887 0.31627774 0.77209258
0.58018631 0.37027943 0.79009318
0.52906823 0.43488193 0.81162727
0.50707781 0.50707781 0.83569264
0.51450336 0.58386004 0.86128670
0.54962844 0.66222131 0.88740712
1.00000000 0.15381247 0.75823212
0.88575536 0.20028752 0.77151072
0.78936219 0.26276767 0.78936219
0.71617615 0.33774436 0.81078410
0.66954809 0.42170918 0.83477402
0.65082407 0.51115370 0.86032963
0.65934533 0.60256958 0.88644844
0.69244826 0.69244826 0.91212809
0.74546450 0.77728140 0.93636614
1.00000000 0.15454417 0.78863603
0.90497220 0.23977745 0.80994439
0.83385760 0.33543038 0.83385760
0.78906000 0.43749338 0.85937333
0.77097839 0.54195678 0.88548923
0.77800685 0.64481097 0.91120273
0.80653477 0.74204636 0.93551159
0.85094655 0.82965320 0.95741332
0.90362191 0.90362191 0.97590548
1.00000000 1.00000000 0.62500000
0.87500000 1.00000000 0.62500000
0.75000000 1.00000000 0.62500000
0.62500000 1.00000000 0.62500000
0.50000000 1.00000000 0.62500000
0.37500000 1.00000000 0.62500000
0.25000000 1.00000000 0.62500000
0.12500000 1.00000000 0.62500000
0.00000000 1.00000000 0.62500000
1.00000000 0.87500000 0.62500000
0.87500000 0.87500000 0.62500000
0.75000000 0.87500000 0.62500000
0.62500000 0.87500000 0.62500000
0.50000000 0.87500000 0.62500000
0.37500000 0.87500000 0.62500000
0.25000000 0.87500000 0.62500000
0.12500000 0.87500000 0.62500000
0.00000000 0.87500000 0.62500000
1.00000000 0.75000000 0.62500000
0.87500000 0.75000000 0.62500000
0.75000000 0.75000000 0.62500000
0.62500000 0.75000000 0.62500000
0.50000000 0.75000000 0.62500000
0.37500000 0.75000000 0.62500000
0.25000000 0.75000000 0.62500000
0.12500000 0.75000000 0.62500000
0.00000000 0.75000000 0.62500000
1.00000000 0.62500000 0.62500000
0.87500000 0.62500000 0.62500000
0.75000000 0.62500000 0.62500000
0.62500000 0.62500000 0.62500000
0.50000000 0.62500000 0.62500000
0.37500000 0.62500000 0.62500000
0.25000000 0.62500000 0.62500000
0.13845241 0.63076532 0.63076532
0.05847156 0.64692682 0.64692682
1.00000000 0.50000000 0.62500000
0.87500000 0.50000000 0.62500000
0.75000000 0.50000000 0.62500000
0.62500000 0.50000000 0.62500000
0.50000000 0.50000000 0.62500000
0.38389093 0.50711274 0.63033456
0.29237795 0.52825195 0.64618897
0.22922313 0.55955607 0.66966707
0.19804049 0.59902024 0.69926518
1.00000000 0.37500000 0.62500000
0.87500000 0.37500000 0.62500000
0.75000000 0.37500000 0.62500000
0.62991613 0.38319355 0.62991613
0.52728188 0.40910232 0.64546144
0.44780946 0.44780946 0.66868567
0.39617062 0.49680883 0.69808531
0.37503225 0.55359447 0.73215669
0.38505661 0.61566037 0.76939625
1.00000000 0.25000000 0.62500000
0.87650341 0.25902033 0.62951016
0.76316285 0.28948849 0.64474428
0.66771263 0.33542526 0.66771263
0.59588230 0.39382344 0.69691169
0.55139649 0.46167576 0.73083788
0.53597504 0.53597504 0.76798749
0.54933298 0.61371398 0.80685699
0.58918059 0.69188547 0.84594274
1.00000000 0.16942096 0.64403754
0.88891602 0.22241211 0.66674805
0.79716301 0.29007065 0.69574457
0.72952342 0.36888802 0.72952342
0.68877482 0.45535594 0.76658112
0.67568994 0.54596591 0.80541396
0.68903673 0.63720953 0.84451836
0.72557837 0.72557837 0.88239074
0.78007305 0.80756390 0.91752738
1.00000000 0.18555695 0.69458389
0.90940452 0.27523589 0.72821343
0.84345144 0.37380570 0.76517713
0.80397135 0.47725689 0.80397135
0.79078984 0.58157969 0.84309238
0.80172783 0.68276453 0.88103670
0.83260131 0.77680176 0.91630065
0.87722152 0.85968173 0.94738066
0.92739481 0.92739481 0.97277308
1.00000000 1.00000000 0.50000000
0.87500000 1.00000000 0.50000000
0.75000000 1.00000000 0.50000000
0.62500000 1.00000000 0.50000000
0.50000000 1.00000000 0.50000000
0.37500000 1.00000000 0.50000000
0.25000000 1.00000000 0.50000000
0.12500000 1.00000000 0.50000000
0.00000000 1.00000000 0.50000000
1.00000000 0.87500000 0.50000000
0.87500000 0.87500000 0.50000000
0.75000000 0.87500000 0.50000000
0.62500000 0.87500000 0.50000000
0.50000000 0.87500000 0.50000000
0.37500000 0.87500000 0.50000000
0.25000000 0.87500000 0.50000000
0.12500000 0.87500000 0.50000000
0.00000000 0.87500000 0.50000000
1.00000000 0.75000000 0.50000000
0.87500000 0.75000000 0.50000000
0.75000000 0.75000000 0.50000000
0.62500000 0.75000000 0.50000000
0.50000000 0.75000000 0.50000000
0.37500000 0.75000000 0.50000000
0.25000000 0.75000000 0.50000000
0.12500000 0.75000000 0.50000000
0.00117230 0.75029308 0.50058615
1.00000000 0.62500000 0.50000000
0.87500000 0.62500000 0.50000000
0.75000000 0.62500000 0.50000000
0.62500000 0.62500000 0.50000000
0.50000000 0.62500000 0.50000000
0.37500000 0.62500000 0.50000000
0.25042605 0.62521303 0.50028408
0.15052396 0.63593882 0.51458514
0.08043551 0.65516329 0.54021776
1.00000000 0.50000000 0.50000000
0.87500000 0.50000000 0.50000000
0.75000000 0.50000000 0.50000000
0.62500000 0.50000000 0.50000000
0.50000000 0.50000000 0.50000000
0.39230746 0.51384592 0.51384592
0.30864584 0.53909719 0.53909719
0.25406075 0.57374901 0.57374901
0.23159295 0.61579645 0.61579645
1.00000000 0.37500000 0.50000000
0.87500000 0.37500000 0.50000000
0.75000000 0.37500000 0.50000000
0.63484168 0.39140272 0.51312220
0.53798938 0.42248678 0.53798938
0.46541357 0.46541357 0.57233083
0.42121267 0.51767725 0.61414182
0.40748036 0.57677174 0.66141737
0.42430544 0.64019090 0.71215272
1.00000000 0.25000000 0.50000000
0.87810349 0.26862103 0.51241398
0.76844722 0.30534160 0.53689444
0.67819214 0.35638428 0.57092285
0.61249447 0.41874176 0.61249447
0.57450569 0.48940682 0.65960455
0.56537223 0.56537223 0.71024817
0.58423591 0.64363080 0.76242054
0.62823367 0.72117525 0.81411684
1.00000000 0.18767160 0.53581238
0.89238125 0.24666882 0.56952500
0.80542731 0.31899571 0.61085469
0.74334741 0.40114391 0.65779650
0.70834565 0.48960489 0.70834565
0.70062160 0.58087027 0.76049733
0.71836996 0.67143166 0.81224668
0.75778055 0.75778055 0.86158884
0.81303829 0.83640850 0.90651917
1.00000000 0.21844500 0.60922253
0.91399837 0.31198668 0.65599334
0.85322267 0.41289061 0.70644534
0.81893015 0.51714706 0.75857353
0.81037319 0.62074637 0.81037319
0.82479936 0.71967900 0.85983950
0.85745144 0.80993521 0.90496761
0.90156728 0.88750547 0.94375277
0.94838005 0.94838005 0.97419000
1.00000000 1.00000000 0.37500000
0.87500000 1.00000000 0.37500000
0.75000000 1.00000000 0.37500000
0.62500000 1.00000000 0.37500000
0.50000000 1.00000000 0.37500000
0.37500000 1.00000000 0.37500000
0.25000000 1.00000000 0.37500000
0.12500000 1.00000000 0.37500000
0.00000000 1.00000000 0.37500000
1.00000000 0.87500000 0.37500000
0.87500000 0.87500000 0.37500000
0.75000000 0.87500000 0.37500000
0.62500000 0.87500000 0.37500000
0.50000000 0.87500000 0.37500000
0.37500000 0.87500000 0.37500000
0.25000000 0.87500000 0.37500000
0.12500000 0.87500000 0.37500000
0.00000000 0.87500000 0.37500000
1.00000000 0.75000000 0.37500000
0.87500000 0.75000000 0.37500000
0.75000000 0.75000000 0.37500000
0.62500000 0.75000000 0.37500000
0.50000000 0.75000000 0.37500000
0.37500000 0.75000000 0.37500000
0.25000000 0.75000000 0.37500000
0.12500000 0.75000000 0.37500000
0.00951153 0.75237787 0.38094473
1.00000000 0.62500000 0.37500000
0.87500000 0.62500000 0.37500000
0.75000000 0.62500000 0.37500000
0.62500000 0.62500000 0.37500000
0.50000000 0.62500000 0.37500000
0.37500000 0.62500000 0.37500000
0.25640869 0.62820435 0.38034058
0.16547817 0.64234781 0.40391296
0.10511100 0.66441661 0.44069439
1.00000000 0.50000000 0.37500000
0.87500000 0.50000000 0.37500000
0.75000000 0.50000000 0.37500000
0.62500000 0.50000000 0.37500000
0.50380617 0.50380617 0.37975770
0.40279639 0.52223712 0.40279639
0.32696348 0.55130899 0.43913627
0.28077984 0.58901703 0.48627126
0.26671273 0.63335633 0.54169548
1.00000000 0.37500000 0.37500000
0.87500000 0.37500000 0.37500000
0.75167853 0.37919629 0.37919629
0.64101869 0.40169781 0.40169781
0.55007416 0.43759269 0.43759269
0.48437500 0.48437500 0.48437500
0.44744635 0.53953862 0.53953862
0.44080859 0.60057759 0.60057759
0.46397734 0.66498584 0.66498584
1.00000000 0.25438762 0.37865633
0.88012350 0.28074080 0.40061736
0.77442557 0.32327670 0.43606389
0.68949401 0.37898803 0.48249006
0.62991178 0.44486767 0.53738976
0.59825695 0.51790833 0.59825695
0.59510279 0.59510279 0.66258562
0.61901772 0.67344379 0.72786981
0.66656548 0.74992412 0.79160345
1.00000000 0.20836997 0.43454999
0.89612329 0.27286327 0.48061657
0.81409955 0.34934855 0.53524894
0.75756460 0.43431741 0.59594101
0.72814941 0.52426147 0.66018677
0.72548020 0.61567223 0.72548020
0.74717832 0.70504135 0.78931522
0.78886032 0.78886032 0.84918594
0.84413797 0.86362076 0.90258622
1.00000000 0.25298619 0.53311634
0.91872597 0.34980786 0.59362990
0.86311573 0.45246291 0.65778935
0.83385313 0.55694175 0.72308862
0.82961738 0.65923470 0.78702170
0.84708261 0.75533223 0.84708261
0.88091844 0.84122461 0.90076536
0.92378944 0.91290224 0.94556391
0.96635544 0.96635544 0.97897214
1.00000000 1.00000000 0.25000000
0.87500000 1.00000000 0.25000000
0.75000000 1.00000000 0.25000000
0.62500000 1.00000000 0.25000000
0.50000000 1.00000000 0.25000000
0.37500000 1.00000000 0.25000000
0.25000000 1.00000000 0.25000000
0.12500000 1.00000000 0.25000000
0.00000000 1.00000000 0.25000000
1.00000000 0.87500000 0.25000000
0.87500000 0.87500000 0.25000000
0.75000000 0.87500000 0.25000000
0.62500000 0.87500000 0.25000000
0.50000000 0.87500000 0.25000000
0.37500000 0.87500000 0.25000000
0.25000000 0.87500000 0.25000000
0.12500000 0.87500000 0.25000000
0.00000000 0.87500000 0.25000000
1.00000000 0.75000000 0.25000000
0.87500000 0.75000000 0.25000000
0.75000000 0.75000000 0.25000000
0.62500000 0.75000000 0.25000000
0.50000000 0.75000000 0.25000000
0.37500000 0.75000000 0.25000000
0.25000000 0.75000000 0.25000000
0.12500000 0.75000000 0.25000000
0.02148438 0.75537109 0.26611328
1.00000000 0.62500000 0.25000000
0.87500000 0.62500000 0.25000000
0.75000000 0.62500000 0.25000000
0.62500000 0.62500000 0.25000000
0.50000000 0.62500000 0.25000000
0.37500000 0.62500000 0.25000000
0.26513261 0.63256633 0.26513261
0.18312067 0.64990884 0.29981768
0.13227594 0.67460346 0.34920692
1.00000000 0.50000000 0.25000000
0.87500000 0.50000000 0.25000000
0.75000000 0.50000000 0.25000000
0.62500000 0.50000000 0.25000000
0.50945067 0.50945067 0.26417595
0.41521889 0.53217512 0.29826272
0.34716427 0.56477618 0.34716427
0.30918580 0.60524905 0.40787351
0.30317760 0.65158880 0.47738320
1.00000000 0.37500000 0.25000000
0.87500000 0.37500000 0.25000000
0.75441444 0.38603616 0.26324344
0.64836389 0.41393983 0.29672778
0.56342506 0.45428139 0.34513766
0.50455481 0.50455481 0.40546572
0.47470492 0.56225407 0.47470492
0.47482252 0.62487328 0.54984790
0.50384998 0.68990624 0.62788749
1.00000000 0.26233512 0.26233512
0.88253552 0.29521304 0.29521304
0.78104234 0.34312713 0.34312713
0.70153499 0.40306997 0.40306997
0.64802307 0.47203457 0.47203457
0.62251139 0.54701370 0.54701370
0.62500000 0.62500000 0.62500000
0.65348399 0.70298630 0.70298630
0.70395380 0.77796537 0.77796537
1.00000000 0.23132157 0.34113276
0.90011442 0.30080092 0.40068650
0.82312417 0.38093460 0.46937251
0.77209181 0.46821421 0.54418361
0.74807501 0.55913126 0.62211251
0.75012672 0.65017748 0.70015210
0.77529508 0.73784423 0.77529508
0.81862330 0.81862330 0.84453428
0.87314981 0.88900608 0.90486234
1.00000000 0.28895819 0.46671867
0.92355961 0.38847691 0.54135770
0.87307507 0.49230027 0.61922520
0.84865701 0.59641868 0.69731402
0.84841120 0.69682240 0.77261680
0.86843872 0.78950197 0.84212649
0.90283567 0.87044758 0.90283567
0.94369352 0.93564975 0.95173728
0.98109871 0.98109871 0.98582405
1.00000000 1.00000000 0.12500000
0.87500000 1.00000000 0.12500000
0.75000000 1.00000000 0.12500000
0.62500000 1.00000000 0.12500000
0.50000000 1.00000000 0.12500000
0.37500000 1.00000000 0.12500000
0.25000000 1.00000000 0.12500000
0.12500000 1.00000000 0.12500000
0.00000000 1.00000000 0.12500000
1.00000000 0.87500000 0.12500000
0.87500000 0.87500000 0.12500000
0.75000000 0.87500000 0.12500000
0.62500000 0.87500000 0.12500000
0.50000000 0.87500000 0.12500000
0.37500000 0.87500000 0.12500000
0.25000000 0.87500000 0.12500000
0.12500000 0.87500000 0.12500000
0.00000000 0.87500000 0.12500000
1.00000000 0.75000000 0.12500000
0.87500000 0.75000000 0.12500000
0.75000000 0.75000000 0.12500000
0.62500000 0.75000000 0.12500000
0.50000000 0.75000000 0.12500000
0.37500000 0.75000000 0.12500000
0.25000000 0.75000000 0.12500000
0.12839228 0.75096923 0.12839228
0.03686869 0.75921714 0.15726012
1.00000000 0.62500000 0.12500000
0.87500000 0.62500000 0.12500000
0.75000000 0.62500000 0.12500000
0.62500000 0.62500000 0.12500000
0.50000000 0.62500000 0.12500000
0.37695843 0.62617505 0.12774181
0.27643126 0.63821566 0.15583646
0.20325685 0.65853864 0.20325685
0.16170800 0.68564051 0.26649451
1.00000000 0.50000000 0.12500000
0.87500000 0.50000000 0.12500000
0.75000000 0.50000000 0.12500000
0.62590951 0.50121272 0.12712222
0.51682228 0.51682228 0.15443897
0.42943609 0.54354888 0.20121056
0.36908156 0.57938766 0.26392847
0.33908427 0.62233388 0.33908427
0.34076524 0.67038262 0.42316961
1.00000000 0.37500000 0.12500000
0.87521911 0.37609547 0.12653369
0.75801939 0.39504850 0.15306783
0.65679395 0.42798984 0.19918585
0.57793105 0.47241378 0.26137930
0.52581406 0.52581406 0.33613968
0.50282168 0.58568478 0.41995865
0.50932777 0.64951980 0.50932777
0.54370117 0.71481323 0.60073853
1.00000000 0.27290559 0.15172321
0.88531184 0.31187105 0.19718289
0.78824198 0.36472607 0.25884706
0.71423173 0.42846340 0.33320731
0.66671723 0.50007582 0.41675514
0.64713019 0.57655621 0.50598228
0.65489721 0.65489721 0.59738010
0.68744028 0.73209167 0.68744028
0.74017638 0.80513227 0.77265429
1.00000000 0.25633204 0.25633204
0.90432680 0.33028734 0.33028734
0.83244556 0.41355944 0.41355944
0.78684556 0.50263971 0.50263971
0.76801133 0.59401983 0.59401983
0.77442241 0.68419141 0.68419141
0.80255365 0.76964593 0.76964593
0.84687495 0.84687495 0.84687495
0.89985168 0.91237020 0.91237020
1.00000000 0.32613885 0.41037148
0.92847145 0.42777175 0.49930030
0.88304514 0.53218055 0.59065795
0.86325836 0.63535559 0.68093616
0.86664367 0.73328727 0.76662636
0.88872874 0.82196593 0.84422016
0.92303652 0.89738202 0.91020930
0.96108502 0.95552576 0.96108502
0.99238765 0.99238765 0.99333918
1.00000000 1.00000000 0.00000000
0.87500000 1.00000000 0.00000000
0.75000000 1.00000000 0.00000000
0.62500000 1.00000000 0.00000000
0.50000000 1.00000000 0.00000000
0.37500000 1.00000000 0.00000000
0.25000000 1.00000000 0.00000000
0.12500000 1.00000000 0.00000000
0.00000000 1.00000000 0.00000000
1.00000000 0.87500000 0.00000000
0.87500000 0.87500000 0.00000000
0.75000000 0.87500000 0.00000000
0.62500000 0.87500000 0.00000000
0.50000000 0.87500000 0.00000000
0.37500000 0.87500000 0.00000000
0.25000000 0.87500000 0.00000000
0.12500000 0.87500000 0.00000000
0.00000000 0.87500000 0.00000000
1.00000000 0.75000000 0.00000000
0.87500000 0.75000000 0.00000000
0.75000000 0.75000000 0.00000000
0.62500000 0.75000000 0.00000000
0.50000000 0.75000000 0.00000000
0.37500000 0.75000000 0.00000000
0.25000000 0.75000000 0.00000000
0.13691115 0.75340319 0.01361275
0.05544221 0.76386058 0.05544221
1.00000000 0.62500000 0.00000000
0.87500000 0.62500000 0.00000000
0.75000000 0.62500000 0.00000000
0.62500000 0.62500000 0.00000000
0.50000000 0.62500000 0.00000000
0.38282192 0.62969315 0.01251507
0.29013789 0.64506894 0.05351716
0.22569239 0.66815388 0.11507702
0.19318503 0.69744438 0.19318503
1.00000000 0.50000000 0.00000000
0.87500000 0.50000000 0.00000000
0.75000000 0.50000000 0.00000000
0.62929398 0.50572526 0.01145059
0.52581000 0.52581000 0.05161995
0.44530910 0.55624723 0.11249453
0.39254856 0.59503239 0.19006479
0.37028086 0.64016050 0.28032100
0.37925363 0.68962681 0.37925363
1.00000000 0.37500000 0.00000000
0.87630248 0.38151228 0.01041961
0.76243770 0.40609419 0.04975075
0.66622549 0.44370914 0.10993463
0.59348083 0.49185103 0.18696165
0.54801393 0.54801393 0.27682227
0.53163004 0.60969168 0.37550670
0.54412973 0.67437840 0.47900540
0.58330870 0.73956794 0.58330870
1.00000000 0.28593230 0.04790974
0.88842469 0.33054817 0.10739756
0.79596901 0.38790697 0.18387598
0.72750080 0.45500159 0.27333546
0.68588316 0.52882475 0.37176633
0.67197430 0.60636920 0.47515893
0.68462777 0.68462777 0.57950372
0.72069204 0.76059318 0.68079090
0.77501100 0.83125824 0.77501100
1.00000000 0.28320682 0.18080783
0.90873259 0.36112821 0.26986080
0.84200817 0.44702864 0.36803269
0.80174267 0.53739953 0.47131377
0.78784728 0.62873274 0.57569456
0.79822826 0.71751964 0.67716527
0.82878733 0.80025184 0.77171642
0.87342095 0.87342095 0.85533828
0.92402118 0.93351853 0.92402118
1.00000000 0.36430591 0.36430591
0.93343377 0.46747011 0.46747011
0.89297038 0.57188147 0.57188147
0.87757385 0.67353028 0.67353028
0.88420355 0.76840705 0.76840705
0.90781373 0.85250199 0.85250199
0.94135416 0.92180556 0.92180556
0.97576958 0.97230810 0.97230810
1.00000000 1.00000000 1.00000000
