G Major 198/G Major 198.cube
# VEGAS Pro LUT
TITLE "G Major 198"
LUT_3D_SIZE 33
1.00000000 1.00000000 1.00000000
0.96875000 1.00000000 1.00000000
0.93750000 1.00000000 1.00000000
0.90625000 1.00000000 1.00000000
0.87500000 1.00000000 1.00000000
0.84375000 1.00000000 1.00000000
0.81250000 1.00000000 1.00000000
0.78125000 1.00000000 1.00000000
0.75000000 1.00000000 1.00000000
0.71875000 1.00000000 1.00000000
0.68750000 1.00000000 1.00000000
0.65625000 1.00000000 1.00000000
0.62500000 1.00000000 1.00000000
0.59375000 1.00000000 1.00000000
0.56250000 1.00000000 1.00000000
0.53125000 1.00000000 1.00000000
0.50000000 1.00000000 1.00000000
0.46875000 1.00000000 1.00000000
0.43750000 1.00000000 1.00000000
0.40625000 1.00000000 1.00000000
0.37500000 1.00000000 1.00000000
0.34375000 1.00000000 1.00000000
0.31250000 1.00000000 1.00000000
0.28125000 1.00000000 1.00000000
0.25000000 1.00000000 1.00000000
0.21875000 1.00000000 1.00000000
0.18750000 1.00000000 1.00000000
0.15625000 1.00000000 1.00000000
0.12500000 1.00000000 1.00000000
0.09375000 1.00000000 1.00000000
0.06250000 1.00000000 1.00000000
0.03125000 1.00000000 1.00000000
0.00000000 1.00000000 1.00000000
1.00000000 0.96875000 1.00000000
0.96875000 0.96875000 1.00000000
0.93750000 0.96875000 1.00000000
0.90625000 0.96875000 1.00000000
0.87500000 0.96875000 1.00000000
0.84375000 0.96875000 1.00000000
0.81250000 0.96875000 1.00000000
0.78125000 0.96875000 1.00000000
0.75000000 0.96875000 1.00000000
0.71875000 0.96875000 1.00000000
0.68750000 0.96875000 1.00000000
0.65625000 0.96875000 1.00000000
0.62500000 0.96875000 1.00000000
0.59375000 0.96875000 1.00000000
0.56250000 0.96875000 1.00000000
0.53125000 0.96875000 1.00000000
0.50000000 0.96875000 1.00000000
0.46875000 0.96875000 1.00000000
0.43750000 0.96875000 1.00000000
0.40625000 0.96875000 1.00000000
0.37500000 0.96875000 1.00000000
0.34375000 0.96875000 1.00000000
0.31250000 0.96875000 1.00000000
0.28125000 0.96875000 1.00000000
0.25000000 0.96875000 1.00000000
0.21875000 0.96875000 1.00000000
0.18750000 0.96875000 1.00000000
0.15625000 0.96875000 1.00000000
0.12500000 0.96875000 1.00000000
0.09375000 0.96875000 1.00000000
0.06250000 0.96875000 1.00000000
0.03125000 0.96875000 1.00000000
0.00000000 0.96875000 1.00000000
1.00000000 0.93750000 1.00000000
0.96875000 0.93750000 1.00000000
0.93750000 0.93750000 1.00000000
0.90625000 0.93750000 1.00000000
0.87500000 0.93750000 1.00000000
0.84375000 0.93750000 1.00000000
0.81250000 0.93750000 1.00000000
0.78125000 0.93750000 1.00000000
0.75000000 0.93750000 1.00000000
0.71875000 0.93750000 1.00000000
0.68750000 0.93750000 1.00000000
0.65625000 0.93750000 1.00000000
0.62500000 0.93750000 1.00000000
0.59375000 0.93750000 1.00000000
0.56250000 0.93750000 1.00000000
0.53125000 0.93750000 1.00000000
0.50000000 0.93750000 1.00000000
0.46875000 0.93750000 1.00000000
0.43750000 0.93750000 1.00000000
0.40625000 0.93750000 1.00000000
0.37500000 0.93750000 1.00000000
0.34375000 0.93750000 1.00000000
0.31250000 0.93750000 1.00000000
0.28125000 0.93750000 1.00000000
0.25000000 0.93750000 1.00000000
0.21875000 0.93750000 1.00000000
0.18750000 0.93750000 1.00000000
0.15625000 0.93750000 1.00000000
0.12500000 0.93750000 1.00000000
0.09375000 0.93750000 1.00000000
0.06250000 0.93750000 1.00000000
0.03125000 0.93750000 1.00000000
0.00000000 0.93750000 1.00000000
1.00000000 0.90625000 1.00000000
0.96875000 0.90625000 1.00000000
0.93750000 0.90625000 1.00000000
0.90625000 0.90625000 1.00000000
0.87500000 0.90625000 1.00000000
0.84375000 0.90625000 1.00000000
0.81250000 0.90625000 1.00000000
0.78125000 0.90625000 1.00000000
0.75000000 0.90625000 1.00000000
0.71875000 0.90625000 1.00000000
0.68750000 0.90625000 1.00000000
0.65625000 0.90625000 1.00000000
0.62500000 0.90625000 1.00000000
0.59375000 0.90625000 1.00000000
0.56250000 0.90625000 1.00000000
0.53125000 0.90625000 1.00000000
0.50000000 0.90625000 1.00000000
0.46875000 0.90625000 1.00000000
0.43750000 0.90625000 1.00000000
0.40625000 0.90625000 1.00000000
0.37500000 0.90625000 1.00000000
0.34375000 0.90625000 1.00000000
0.31250000 0.90625000 1.00000000
0.28125000 0.90625000 1.00000000
0.25000000 0.90625000 1.00000000
0.21875000 0.90625000 1.00000000
0.18750000 0.90625000 1.00000000
0.15625000 0.90625000 1.00000000
0.12500000 0.90625000 1.00000000
0.09375000 0.90625000 1.00000000
0.06250000 0.90625000 1.00000000
0.03125000 0.90625000 1.00000000
0.00000000 0.90625000 1.00000000
1.00000000 0.87500000 1.00000000
0.96875000 0.87500000 1.00000000
0.93750000 0.87500000 1.00000000
0.90625000 0.87500000 1.00000000
0.87500000 0.87500000 1.00000000
0.84375000 0.87500000 1.00000000
0.81250000 0.87500000 1.00000000
0.78125000 0.87500000 1.00000000
0.75000000 0.87500000 1.00000000
0.71875000 0.87500000 1.00000000
0.68750000 0.87500000 1.00000000
0.65625000 0.87500000 1.00000000
0.62500000 0.87500000 1.00000000
0.59375000 0.87500000 1.00000000
0.56250000 0.87500000 1.00000000
0.53125000 0.87500000 1.00000000
0.50000000 0.87500000 1.00000000
0.46875000 0.87500000 1.00000000
0.43750000 0.87500000 1.00000000
0.40625000 0.87500000 1.00000000
0.37500000 0.87500000 1.00000000
0.34375000 0.87500000 1.00000000
0.31250000 0.87500000 1.00000000
0.28125000 0.87500000 1.00000000
0.25000000 0.87500000 1.00000000
0.21875000 0.87500000 1.00000000
0.18750000 0.87500000 1.00000000
0.15625000 0.87500000 1.00000000
0.12500000 0.87500000 1.00000000
0.09375000 0.87500000 1.00000000
0.06250000 0.87500000 1.00000000
0.03125000 0.87500000 1.00000000
0.00000000 0.87500000 1.00000000
1.00000000 0.84375000 1.00000000
0.96875000 0.84375000 1.00000000
0.93750000 0.84375000 1.00000000
0.90625000 0.84375000 1.00000000
0.87500000 0.84375000 1.00000000
0.84375000 0.84375000 1.00000000
0.81250000 0.84375000 1.00000000
0.78125000 0.84375000 1.00000000
0.75000000 0.84375000 1.00000000
0.71875000 0.84375000 1.00000000
0.68750000 0.84375000 1.00000000
0.65625000 0.84375000 1.00000000
0.62500000 0.84375000 1.00000000
0.59375000 0.84375000 1.00000000
0.56250000 0.84375000 1.00000000
0.53125000 0.84375000 1.00000000
0.50000000 0.84375000 1.00000000
0.46875000 0.84375000 1.00000000
0.43750000 0.84375000 1.00000000
0.40625000 0.84375000 1.00000000
0.37500000 0.84375000 1.00000000
0.34375000 0.84375000 1.00000000
0.31250000 0.84375000 1.00000000
0.28125000 0.84375000 1.00000000
0.25000000 0.84375000 1.00000000
0.21875000 0.84375000 1.00000000
0.18750000 0.84375000 1.00000000
0.15625000 0.84375000 1.00000000
0.12500000 0.84375000 1.00000000
0.09375000 0.84375000 1.00000000
0.06250000 0.84375000 1.00000000
0.03125000 0.84375000 1.00000000
0.00000000 0.84375000 1.00000000
1.00000000 0.81250000 1.00000000
0.96875000 0.81250000 1.00000000
0.93750000 0.81250000 1.00000000
0.90625000 0.81250000 1.00000000
0.87500000 0.81250000 1.00000000
0.84375000 0.81250000 1.00000000
0.81250000 0.81250000 1.00000000
0.78125000 0.81250000 1.00000000
0.75000000 0.81250000 1.00000000
0.71875000 0.81250000 1.00000000
0.68750000 0.81250000 1.00000000
0.65625000 0.81250000 1.00000000
0.62500000 0.81250000 1.00000000
0.59375000 0.81250000 1.00000000
0.56250000 0.81250000 1.00000000
0.53125000 0.81250000 1.00000000
0.50000000 0.81250000 1.00000000
0.46875000 0.81250000 1.00000000
0.43750000 0.81250000 1.00000000
0.40625000 0.81250000 1.00000000
0.37500000 0.81250000 1.00000000
0.34375000 0.81250000 1.00000000
0.31250000 0.81250000 1.00000000
0.28125000 0.81250000 1.00000000
0.25000000 0.81250000 1.00000000
0.21875000 0.81250000 1.00000000
0.18750000 0.81250000 1.00000000
0.15625000 0.81250000 1.00000000
0.12500000 0.81250000 1.00000000
0.09375000 0.81250000 1.00000000
0.06250000 0.81250000 1.00000000
0.03125000 0.81250000 1.00000000
0.00000000 0.81250000 1.00000000
1.00000000 0.78125000 1.00000000
0.96875000 0.78125000 1.00000000
0.93750000 0.78125000 1.00000000
0.90625000 0.78125000 1.00000000
0.87500000 0.78125000 1.00000000
0.84375000 0.78125000 1.00000000
0.81250000 0.78125000 1.00000000
0.78125000 0.78125000 1.00000000
0.75000000 0.78125000 1.00000000
0.71875000 0.78125000 1.00000000
0.68750000 0.78125000 1.00000000
0.65625000 0.78125000 1.00000000
0.62500000 0.78125000 1.00000000
0.59375000 0.78125000 1.00000000
0.56250000 0.78125000 1.00000000
0.53125000 0.78125000 1.00000000
0.50000000 0.78125000 1.00000000
0.46875000 0.78125000 1.00000000
0.43750000 0.78125000 1.00000000
0.40625000 0.78125000 1.00000000
0.37500000 0.78125000 1.00000000
0.34375000 0.78125000 1.00000000
0.31250000 0.78125000 1.00000000
0.28125000 0.78125000 1.00000000
0.25000000 0.78125000 1.00000000
0.21875000 0.78125000 1.00000000
0.18750000 0.78125000 1.00000000
0.15625000 0.78125000 1.00000000
0.12500000 0.78125000 1.00000000
0.09375000 0.78125000 1.00000000
0.06250000 0.78125000 1.00000000
0.03125000 0.78125000 1.00000000
0.00000000 0.78125000 1.00000000
1.00000000 0.75000000 1.00000000
0.96875000 0.75000000 1.00000000
0.93750000 0.75000000 1.00000000
0.90625000 0.75000000 1.00000000
0.87500000 0.75000000 1.00000000
0.84375000 0.75000000 1.00000000
0.81250000 0.75000000 1.00000000
0.78125000 0.75000000 1.00000000
0.75000000 0.75000000 1.00000000
0.71875000 0.75000000 1.00000000
0.68750000 0.75000000 1.00000000
0.65625000 0.75000000 1.00000000
0.62500000 0.75000000 1.00000000
0.59375000 0.75000000 1.00000000
0.56250000 0.75000000 1.00000000
0.53125000 0.75000000 1.00000000
0.50000000 0.75000000 1.00000000
0.46875000 0.75000000 1.00000000
0.43750000 0.75000000 1.00000000
0.40625000 0.75000000 1.00000000
0.37500000 0.75000000 1.00000000
0.34375000 0.75000000 1.00000000
0.31250000 0.75000000 1.00000000
0.28125000 0.75000000 1.00000000
0.25000000 0.75000000 1.00000000
0.21875000 0.75000000 1.00000000
0.18750000 0.75000000 1.00000000
0.15625000 0.75000000 1.00000000
0.12500000 0.75000000 1.00000000
0.09375000 0.75000000 1.00000000
0.06250000 0.75000000 1.00000000
0.03125000 0.75000000 1.00000000
0.00000000 0.75000000 1.00000000
1.00000000 0.71875000 1.00000000
0.96875000 0.71875000 1.00000000
0.93750000 0.71875000 1.00000000
0.90625000 0.71875000 1.00000000
0.87500000 0.71875000 1.00000000
0.84375000 0.71875000 1.00000000
0.81250000 0.71875000 1.00000000
0.78125000 0.71875000 1.00000000
0.75000000 0.71875000 1.00000000
0.71875000 0.71875000 1.00000000
0.68750000 0.71875000 1.00000000
0.65625000 0.71875000 1.00000000
0.62500000 0.71875000 1.00000000
0.59375000 0.71875000 1.00000000
0.56250000 0.71875000 1.00000000
0.53125000 0.71875000 1.00000000
0.50000000 0.71875000 1.00000000
0.46875000 0.71875000 1.00000000
0.43750000 0.71875000 1.00000000
0.40625000 0.71875000 1.00000000
0.37500000 0.71875000 1.00000000
0.34375000 0.71875000 1.00000000
0.31250000 0.71875000 1.00000000
0.28125000 0.71875000 1.00000000
0.25000000 0.71875000 1.00000000
0.21875000 0.71875000 1.00000000
0.18750000 0.71875000 1.00000000
0.15625000 0.71875000 1.00000000
0.12500000 0.71875000 1.00000000
0.09375000 0.71875000 1.00000000
0.06250000 0.71875000 1.00000000
0.03125000 0.71875000 1.00000000
0.00000000 0.71875000 1.00000000
1.00000000 0.68750000 1.00000000
0.96875000 0.68750000 1.00000000
0.93750000 0.68750000 1.00000000
0.90625000 0.68750000 1.00000000
0.87500000 0.68750000 1.00000000
0.84375000 0.68750000 1.00000000
0.81250000 0.68750000 1.00000000
0.78125000 0.68750000 1.00000000
0.75000000 0.68750000 1.00000000
0.71875000 0.68750000 1.00000000
0.68750000 0.68750000 1.00000000
0.65625000 0.68750000 1.00000000
0.62500000 0.68750000 1.00000000
0.59375000 0.68750000 1.00000000
0.56250000 0.68750000 1.00000000
0.53125000 0.68750000 1.00000000
0.50000000 0.68750000 1.00000000
0.46875000 0.68750000 1.00000000
0.43750000 0.68750000 1.00000000
0.40625000 0.68750000 1.00000000
0.37500000 0.68750000 1.00000000
0.34375000 0.68750000 1.00000000
0.31250000 0.68750000 1.00000000
0.28125000 0.68750000 1.00000000
0.25000000 0.68750000 1.00000000
0.21875000 0.68750000 1.00000000
0.18750000 0.68750000 1.00000000
0.15625000 0.68750000 1.00000000
0.12500000 0.68750000 1.00000000
0.09375000 0.68750000 1.00000000
0.06250000 0.68750000 1.00000000
0.03125000 0.68750000 1.00000000
0.00000000 0.68750000 1.00000000
1.00000000 0.65625000 1.00000000
0.96875000 0.65625000 1.00000000
0.93750000 0.65625000 1.00000000
0.90625000 0.65625000 1.00000000
0.87500000 0.65625000 1.00000000
0.84375000 0.65625000 1.00000000
0.81250000 0.65625000 1.00000000
0.78125000 0.65625000 1.00000000
0.75000000 0.65625000 1.00000000
0.71875000 0.65625000 1.00000000
0.68750000 0.65625000 1.00000000
0.65625000 0.65625000 1.00000000
0.62500000 0.65625000 1.00000000
0.59375000 0.65625000 1.00000000
0.56250000 0.65625000 1.00000000
0.53125000 0.65625000 1.00000000
0.50000000 0.65625000 1.00000000
0.46875000 0.65625000 1.00000000
0.43750000 0.65625000 1.00000000
0.40625000 0.65625000 1.00000000
0.37500000 0.65625000 1.00000000
0.34375000 0.65625000 1.00000000
0.31250000 0.65625000 1.00000000
0.28125000 0.65625000 1.00000000
0.25000000 0.65625000 1.00000000
0.21875000 0.65625000 1.00000000
0.18750000 0.65625000 1.00000000
0.15625000 0.65625000 1.00000000
0.12500000 0.65625000 1.00000000
0.09375000 0.65625000 1.00000000
0.06250000 0.65625000 1.00000000
0.03125000 0.65625000 1.00000000
0.00031835 0.65635943 1.00000000
1.00000000 0.62500000 1.00000000
0.96875000 0.62500000 1.00000000
0.93750000 0.62500000 1.00000000
0.90625000 0.62500000 1.00000000
0.87500000 0.62500000 1.00000000
0.84375000 0.62500000 1.00000000
0.81250000 0.62500000 1.00000000
0.78125000 0.62500000 1.00000000
0.75000000 0.62500000 1.00000000
0.71875000 0.62500000 1.00000000
0.68750000 0.62500000 1.00000000
0.65625000 0.62500000 1.00000000
0.62500000 0.62500000 1.00000000
0.59375000 0.62500000 1.00000000
0.56250000 0.62500000 1.00000000
0.53125000 0.62500000 1.00000000
0.50000000 0.62500000 1.00000000
0.46875000 0.62500000 1.00000000
0.43750000 0.62500000 1.00000000
0.40625000 0.62500000 1.00000000
0.37500000 0.62500000 1.00000000
0.34375000 0.62500000 1.00000000
0.31250000 0.62500000 1.00000000
0.28125000 0.62500000 1.00000000
0.25000000 0.62500000 1.00000000
0.21875000 0.62500000 1.00000000
0.18750000 0.62500000 1.00000000
0.15625000 0.62500000 1.00000000
0.12500000 0.62500000 1.00000000
0.09375000 0.62500000 1.00000000
0.06266582 0.62506628 1.00000000
0.03591835 0.62680709 1.00000000
0.01107180 0.62915194 1.00000000
1.00000000 0.59375000 1.00000000
0.96875000 0.59375000 1.00000000
0.93750000 0.59375000 1.00000000
0.90625000 0.59375000 1.00000000
0.87500000 0.59375000 1.00000000
0.84375000 0.59375000 1.00000000
0.81250000 0.59375000 1.00000000
0.78125000 0.59375000 1.00000000
0.75000000 0.59375000 1.00000000
0.71875000 0.59375000 1.00000000
0.68750000 0.59375000 1.00000000
0.65625000 0.59375000 1.00000000
0.62500000 0.59375000 1.00000000
0.59375000 0.59375000 1.00000000
0.56250000 0.59375000 1.00000000
0.53125000 0.59375000 1.00000000
0.50000000 0.59375000 1.00000000
0.46875000 0.59375000 1.00000000
0.43750000 0.59375000 1.00000000
0.40625000 0.59375000 1.00000000
0.37500000 0.59375000 1.00000000
0.34375000 0.59375000 1.00000000
0.31250000 0.59375000 1.00000000
0.28125000 0.59375000 1.00000000
0.25000000 0.59375000 1.00000000
0.21875000 0.59375000 1.00000000
0.18750000 0.59375000 1.00000000
0.15625000 0.59375000 1.00000000
0.12503290 0.59376526 1.00000000
0.09793621 0.59562659 1.00000000
0.07263809 0.59814316 1.00000000
0.04922903 0.60128957 1.00000000
0.02779168 0.60504037 1.00000000
1.00000000 0.56250000 1.00000000
0.96875000 0.56250000 1.00000000
0.93750000 0.56250000 1.00000000
0.90625000 0.56250000 1.00000000
0.87500000 0.56250000 1.00000000
0.84375000 0.56250000 1.00000000
0.81250000 0.56250000 1.00000000
0.78125000 0.56250000 1.00000000
0.75000000 0.56250000 1.00000000
0.71875000 0.56250000 1.00000000
0.68750000 0.56250000 1.00000000
0.65625000 0.56250000 1.00000000
0.62500000 0.56250000 1.00000000
0.59375000 0.56250000 1.00000000
0.56250000 0.56250000 1.00000000
0.53125000 0.56250000 1.00000000
0.50000000 0.56250000 1.00000000
0.46875000 0.56250000 1.00000000
0.43750000 0.56250000 1.00000000
0.40625000 0.56250000 1.00000000
0.37500000 0.56250000 1.00000000
0.34375000 0.56250000 1.00000000
0.31250000 0.56250000 1.00000000
0.28125000 0.56250000 1.00000000
0.25000000 0.56250000 1.00000000
0.21875000 0.56250000 1.00000000
0.18750000 0.56250000 1.00000000
0.15998089 0.56443453 1.00000000
0.13423842 0.56711924 1.00000000
0.11028659 0.57048321 1.00000000
0.08821225 0.57449907 1.00000000
0.06809431 0.57913935 1.00000000
0.05000395 0.58437669 1.00000000
1.00000000 0.53125000 1.00000000
0.96875000 0.53125000 1.00000000
0.93750000 0.53125000 1.00000000
0.90625000 0.53125000 1.00000000
0.87500000 0.53125000 1.00000000
0.84375000 0.53125000 1.00000000
0.81250000 0.53125000 1.00000000
0.78125000 0.53125000 1.00000000
0.75000000 0.53125000 1.00000000
0.71875000 0.53125000 1.00000000
0.68750000 0.53125000 1.00000000
0.65625000 0.53125000 1.00000000
0.62500000 0.53125000 1.00000000
0.59375000 0.53125000 1.00000000
0.56250000 0.53125000 1.00000000
0.53125000 0.53125000 1.00000000
0.50000000 0.53125000 1.00000000
0.46875000 0.53125000 1.00000000
0.43750000 0.53125000 1.00000000
0.40625000 0.53125000 1.00000000
0.37500000 0.53125000 1.00000000
0.34375000 0.53125000 1.00000000
0.31250000 0.53125000 1.00000000
0.28125000 0.53125000 1.00000000
0.25000000 0.53125000 1.00000000
0.22205192 0.53323114 1.00000000
0.19587249 0.53608024 1.00000000
0.17138493 0.53965831 1.00000000
0.14868015 0.54393578 1.00000000
0.12784135 0.54888344 1.00000000
0.10894382 0.55447191 1.00000000
0.09205502 0.56067181 1.00000000
0.07723457 0.56745374 1.00000000
1.00000000 0.50000000 1.00000000
0.96875000 0.50000000 1.00000000
0.93750000 0.50000000 1.00000000
0.90625000 0.50000000 1.00000000
0.87500000 0.50000000 1.00000000
0.84375000 0.50000000 1.00000000
0.81250000 0.50000000 1.00000000
0.78125000 0.50000000 1.00000000
0.75000000 0.50000000 1.00000000
0.71875000 0.50000000 1.00000000
0.68750000 0.50000000 1.00000000
0.65625000 0.50000000 1.00000000
0.62500000 0.50000000 1.00000000
0.59375000 0.50000000 1.00000000
0.56250000 0.50000000 1.00000000
0.53125000 0.50000000 1.00000000
0.50000000 0.50000000 1.00000000
0.46875000 0.50000000 1.00000000
0.43750000 0.50000000 1.00000000
0.40625000 0.50000000 1.00000000
0.37500000 0.50000000 1.00000000
0.34375000 0.50000000 1.00000000
0.31250000 0.50000000 1.00000000
0.28414893 0.50201666 1.00000000
0.25753975 0.50502652 1.00000000
0.23252344 0.50881499 1.00000000
0.20919508 0.51335084 1.00000000
0.18764186 0.51860261 1.00000000
0.16794324 0.52453899 1.00000000
0.15017086 0.53112876 1.00000000
0.13438845 0.53834051 1.00000000
0.12065196 0.54614294 1.00000000
0.10900939 0.55450469 1.00000000
1.00000000 0.46875000 1.00000000
0.96875000 0.46875000 1.00000000
0.93750000 0.46875000 1.00000000
0.90625000 0.46875000 1.00000000
0.87500000 0.46875000 1.00000000
0.84375000 0.46875000 1.00000000
0.81250000 0.46875000 1.00000000
0.78125000 0.46875000 1.00000000
0.75000000 0.46875000 1.00000000
0.71875000 0.46875000 1.00000000
0.68750000 0.46875000 1.00000000
0.65625000 0.46875000 1.00000000
0.62500000 0.46875000 1.00000000
0.59375000 0.46875000 1.00000000
0.56250000 0.46875000 1.00000000
0.53125000 0.46875000 1.00000000
0.50000000 0.46875000 1.00000000
0.46875000 0.46875000 1.00000000
0.43750000 0.46875000 1.00000000
0.40625000 0.46875000 1.00000000
0.37500000 0.46875000 1.00000000
0.34627151 0.47079122 1.00000000
0.31923997 0.47395813 1.00000000
0.29370189 0.47795355 1.00000000
0.26975656 0.48274422 1.00000000
0.24749535 0.48829687 1.00000000
0.22700185 0.49457812 1.00000000
0.20835173 0.50155485 1.00000000
0.19161296 0.50919354 1.00000000
0.17684549 0.51746118 1.00000000
0.16410160 0.52632427 1.00000000
0.15342575 0.53574961 1.00000000
0.14485449 0.54570395 1.00000000
1.00000000 0.43750000 1.00000000
0.96875000 0.43750000 1.00000000
0.93750000 0.43750000 1.00000000
0.90625000 0.43750000 1.00000000
0.87500000 0.43750000 1.00000000
0.84375000 0.43750000 1.00000000
0.81250000 0.43750000 1.00000000
0.78125000 0.43750000 1.00000000
0.75000000 0.43750000 1.00000000
0.71875000 0.43750000 1.00000000
0.68750000 0.43750000 1.00000000
0.65625000 0.43750000 1.00000000
0.62500000 0.43750000 1.00000000
0.59375000 0.43750000 1.00000000
0.56250000 0.43750000 1.00000000
0.53125000 0.43750000 1.00000000
0.50000000 0.43750000 1.00000000
0.46875000 0.43750000 1.00000000
0.43750000 0.43750000 1.00000000
0.40841931 0.43955517 1.00000000
0.38097262 0.44287539 1.00000000
0.35491991 0.44707423 1.00000000
0.33036441 0.45211631 1.00000000
0.30740166 0.45796651 1.00000000
0.28611934 0.46458948 1.00000000
0.26659733 0.47195011 1.00000000
0.24890769 0.48001301 1.00000000
0.23311460 0.48874307 1.00000000
0.21927434 0.49810493 1.00000000
0.20743561 0.50806350 1.00000000
0.19763899 0.51858342 1.00000000
0.18991733 0.52962941 1.00000000
0.18429571 0.54116631 1.00000000
1.00000000 0.40625000 1.00000000
0.96875000 0.40625000 1.00000000
0.93750000 0.40625000 1.00000000
0.90625000 0.40625000 1.00000000
0.87500000 0.40625000 1.00000000
0.84375000 0.40625000 1.00000000
0.81250000 0.40625000 1.00000000
0.78125000 0.40625000 1.00000000
0.75000000 0.40625000 1.00000000
0.71875000 0.40625000 1.00000000
0.68750000 0.40625000 1.00000000
0.65625000 0.40625000 1.00000000
0.62500000 0.40625000 1.00000000
0.59375000 0.40625000 1.00000000
0.56250000 0.40625000 1.00000000
0.53125000 0.40625000 1.00000000
0.50000000 0.40625000 1.00000000
0.47059184 0.40830857 1.00000000
0.44273746 0.41177839 1.00000000
0.41617703 0.41617703 1.00000000
0.39101809 0.42146719 1.00000000
0.36736023 0.42761165 1.00000000
0.34529531 0.43457323 1.00000000
0.32490736 0.44231480 1.00000000
0.30627251 0.45079905 1.00000000
0.28945899 0.45998883 1.00000000
0.27452743 0.46984696 1.00000000
0.26153040 0.48033619 1.00000000
0.25051284 0.49141943 1.00000000
0.24151164 0.50305933 1.00000000
0.23455608 0.51521885 1.00000000
0.22966731 0.52786064 1.00000000
0.22685909 0.54094756 1.00000000
1.00000000 0.37500000 1.00000000
0.96875000 0.37500000 1.00000000
0.93750000 0.37500000 1.00000000
0.90625000 0.37500000 1.00000000
0.87500000 0.37500000 1.00000000
0.84375000 0.37500000 1.00000000
0.81250000 0.37500000 1.00000000
0.78125000 0.37500000 1.00000000
0.75000000 0.37500000 1.00000000
0.71875000 0.37500000 1.00000000
0.68750000 0.37500000 1.00000000
0.65625000 0.37500000 1.00000000
0.62500000 0.37500000 1.00000000
0.59375000 0.37500000 1.00000000
0.56250000 0.37500000 1.00000000
0.53278875 0.37705165 1.00000000
0.50453401 0.38066745 1.00000000
0.47747296 0.38526231 1.00000000
0.45171738 0.39079708 1.00000000
0.42737091 0.39723253 1.00000000
0.40452957 0.40452957 1.00000000
0.38328153 0.41264904 1.00000000
0.36370695 0.42155176 1.00000000
0.34587842 0.43119860 1.00000000
0.32986051 0.44155043 1.00000000
0.31571001 0.45256799 1.00000000
0.30347586 0.46421218 1.00000000
0.29319924 0.47644389 1.00000000
0.28491348 0.48922390 1.00000000
0.27864403 0.50251311 1.00000000
0.27440840 0.51627231 1.00000000
0.27221662 0.53046232 1.00000000
0.27207053 0.54504406 1.00000000
1.00000000 0.34375000 1.00000000
0.96875000 0.34375000 1.00000000
0.93750000 0.34375000 1.00000000
0.90625000 0.34375000 1.00000000
0.87500000 0.34375000 1.00000000
0.84375000 0.34375000 1.00000000
0.81250000 0.34375000 1.00000000
0.78125000 0.34375000 1.00000000
0.75000000 0.34375000 1.00000000
0.71875000 0.34375000 1.00000000
0.68750000 0.34375000 1.00000000
0.65625000 0.34375000 1.00000000
0.62500000 0.34375000 1.00000000
0.59500957 0.34578472 1.00000000
0.56636178 0.34954268 1.00000000
0.53880727 0.35433018 1.00000000
0.51246178 0.36010611 1.00000000
0.48743320 0.36682928 1.00000000
0.46382171 0.37445861 1.00000000
0.44171941 0.38295299 1.00000000
0.42121083 0.39227134 1.00000000
0.40237254 0.40237254 1.00000000
0.38527328 0.41321540 1.00000000
0.36997402 0.42475891 1.00000000
0.35652781 0.43696183 1.00000000
0.34497994 0.44978315 1.00000000
0.33536780 0.46318167 1.00000000
0.32772112 0.47711641 1.00000000
0.32206154 0.49154615 1.00000000
0.31840301 0.50642979 1.00000000
0.31675172 0.52172625 1.00000000
0.31710595 0.53739434 1.00000000
