G Major 198/G Major 198.cube
# VEGAS Pro LUT
TITLE "G Major 198"
LUT_3D_SIZE 5
1.00000000 1.00000000 1.00000000
0.75000000 1.00000000 1.00000000
0.50000000 1.00000000 1.00000000
0.25000000 1.00000000 1.00000000
0.00000000 1.00000000 1.00000000
1.00000000 0.75000000 1.00000000
0.75000000 0.75000000 1.00000000
0.50000000 0.75000000 1.00000000
0.25000000 0.75000000 1.00000000
0.00000000 0.75000000 1.00000000
1.00000000 0.50000000 1.00000000
0.75000000 0.50000000 1.00000000
0.50000000 0.50000000 1.00000000
0.25753975 0.50502652 1.00000000
0.10900939 0.55450469 1.00000000
1.00000000 0.25000000 1.00000000
0.75202918 0.25608760 1.00000000
0.55198747 0.32798123 1.00000000
0.45145023 0.45145023 1.00000000
0.46991587 0.60243690 1.00000000
1.00000000 0.09903359 1.00000000
0.81542432 0.26169741 1.00000000
0.73111576 0.46223152 1.00000000
0.75141907 0.66855878 1.00000000
0.84860218 0.84860218 1.00000000
1.00000000 1.00000000 0.75000000
0.75000000 1.00000000 0.75000000
0.50000000 1.00000000 0.75000000
0.25000000 1.00000000 0.75000000
0.00000000 1.00000000 0.75000000
1.00000000 0.75000000 0.75000000
0.75000000 0.75000000 0.75000000
0.50000000 0.75000000 0.75000000
0.25000000 0.75000000 0.75000000
0.00000000 0.75000000 0.75000000
1.00000000 0.50000000 0.75000000
0.75000000 0.50000000 0.75000000
0.50000000 0.50000000 0.75000000
0.27832651 0.51888430 0.75944215
0.16627765 0.58313882 0.79156941
1.00000000 0.25000000 0.75000000
0.75862801 0.27588397 0.75862801
0.58018631 0.37027943 0.79009318
0.50707781 0.50707781 0.83569264
0.54962844 0.66222131 0.88740712
1.00000000 0.15454417 0.78863603
0.83385760 0.33543038 0.83385760
0.77097839 0.54195678 0.88548923
0.80653477 0.74204636 0.93551159
0.90362191 0.90362191 0.97590548
1.00000000 1.00000000 0.50000000
0.75000000 1.00000000 0.50000000
0.50000000 1.00000000 0.50000000
0.25000000 1.00000000 0.50000000
0.00000000 1.00000000 0.50000000
1.00000000 0.75000000 0.50000000
0.75000000 0.75000000 0.50000000
0.50000000 0.75000000 0.50000000
0.25000000 0.75000000 0.50000000
0.00117230 0.75029308 0.50058615
1.00000000 0.50000000 0.50000000
0.75000000 0.50000000 0.50000000
0.50000000 0.50000000 0.50000000
0.30864584 0.53909719 0.53909719
0.23159295 0.61579645 0.61579645
1.00000000 0.25000000 0.50000000
0.76844722 0.30534160 0.53689444
0.61249447 0.41874176 0.61249447
0.56537223 0.56537223 0.71024817
0.62823367 0.72117525 0.81411684
1.00000000 0.21844500 0.60922253
0.85322267 0.41289061 0.70644534
0.81037319 0.62074637 0.81037319
0.85745144 0.80993521 0.90496761
0.94838005 0.94838005 0.97419000
1.00000000 1.00000000 0.25000000
0.75000000 1.00000000 0.25000000
0.50000000 1.00000000 0.25000000
0.25000000 1.00000000 0.25000000
0.00000000 1.00000000 0.25000000
1.00000000 0.75000000 0.25000000
0.75000000 0.75000000 0.25000000
0.50000000 0.75000000 0.25000000
0.25000000 0.75000000 0.25000000
0.02148438 0.75537109 0.26611328
1.00000000 0.50000000 0.25000000
0.75000000 0.50000000 0.25000000
0.50945067 0.50945067 0.26417595
0.34716427 0.56477618 0.34716427
0.30317760 0.65158880 0.47738320
1.00000000 0.26233512 0.26233512
0.78104234 0.34312713 0.34312713
0.64802307 0.47203457 0.47203457
0.62500000 0.62500000 0.62500000
0.70395380 0.77796537 0.77796537
1.00000000 0.28895819 0.46671867
0.87307507 0.49230027 0.61922520
0.84841120 0.69682240 0.77261680
0.90283567 0.87044758 0.90283567
0.98109871 0.98109871 0.98582405
1.00000000 1.00000000 0.00000000
0.75000000 1.00000000 0.00000000
0.50000000 1.00000000 0.00000000
0.25000000 1.00000000 0.00000000
0.00000000 1.00000000 0.00000000
1.00000000 0.75000000 0.00000000
0.75000000 0.75000000 0.00000000
0.50000000 0.75000000 0.00000000
0.25000000 0.75000000 0.00000000
0.05544221 0.76386058 0.05544221
1.00000000 0.50000000 0.00000000
0.75000000 0.50000000 0.00000000
0.52581000 0.52581000 0.05161995
0.39254856 0.59503239 0.19006479
0.37925363 0.68962681 0.37925363
1.00000000 0.28593230 0.04790974
0.79596901 0.38790697 0.18387598
0.68588316 0.52882475 0.37176633
0.68462777 0.68462777 0.57950372
0.77501100 0.83125824 0.77501100
1.00000000 0.36430591 0.36430591
0.89297038 0.57188147 0.57188147
0.88420355 0.76840705 0.76840705
0.94135416 0.92180556 0.92180556
1.00000000 1.00000000 1.00000000
