[X] Isn't Not Scary/[X] Isn't Not Scary.cube
# VEGAS Pro LUT
TITLE "[X] Isn't Not Scary"
LUT_3D_SIZE 33
0.00000000 0.00000000 0.00000000
0.00452962 0.00027937 0.00385550
0.01060442 0.00038491 0.00902621
0.01816581 0.00033024 0.01546228
0.02715521 0.00012898 0.02311384
0.03751404 0.00000000 0.03193101
0.04918370 0.00000000 0.04186393
0.06210561 0.00000000 0.05286274
0.07622119 0.00000000 0.06487757
0.09147185 0.00000000 0.07785854
0.10779900 0.00000000 0.09175581
0.12514405 0.00000000 0.10651948
0.14344844 0.00000000 0.12209971
0.16265355 0.00000000 0.13844663
0.18270081 0.00000000 0.15551037
0.20353165 0.00000000 0.17324103
0.22508745 0.00000000 0.19158880
0.24730965 0.00000000 0.21050379
0.27013966 0.00000000 0.22993611
0.29351890 0.00000000 0.24983592
0.31738874 0.00000000 0.27015334
0.34169066 0.00000000 0.29083854
0.36636603 0.00000000 0.31184158
0.39135629 0.00000000 0.33311266
0.41660282 0.00000000 0.35460189
0.44204706 0.00000000 0.37625939
0.46763045 0.00000000 0.39803532
0.49329433 0.00000000 0.41987979
0.51898021 0.00000000 0.44174293
0.54462940 0.00000000 0.46357489
0.57018340 0.00000000 0.48532581
0.59558356 0.00000000 0.50694579
0.62077135 0.00000000 0.52838498
0.01035423 0.00038395 0.00881326
0.01786197 0.00033493 0.01520366
0.02679988 0.00013882 0.02281138
0.03710936 0.00000000 0.03158656
0.04873184 0.00000000 0.04147932
0.06160872 0.00000000 0.05243980
0.07568142 0.00000000 0.06441813
0.09089135 0.00000000 0.07736444
0.10717994 0.00000000 0.09122888
0.12448858 0.00000000 0.10596157
0.14275871 0.00000000 0.12151264
0.16193172 0.00000000 0.13783222
0.18194905 0.00000000 0.15487048
0.20275208 0.00000000 0.17257750
0.22428226 0.00000000 0.19090344
0.24648099 0.00000000 0.20979844
0.26928967 0.00000000 0.22921263
0.29264972 0.00000000 0.24909613
0.31650257 0.00000000 0.26939908
0.34078965 0.00000000 0.29007161
0.36545229 0.00000000 0.31106386
0.39043200 0.00000000 0.33232594
0.41567016 0.00000000 0.35380802
0.44110817 0.00000000 0.37546024
0.46668744 0.00000000 0.39723268
0.49234942 0.00000000 0.41907549
0.51803553 0.00000000 0.44093886
0.54368711 0.00000000 0.46277285
0.56924564 0.00000000 0.48452762
0.59465247 0.00000000 0.50615329
0.61984915 0.00000000 0.52760005
0.64477694 0.00000000 0.54881799
0.66937733 0.00000000 0.56975722
0.02644640 0.00014849 0.02251051
0.03670646 0.00000000 0.03124362
0.04828167 0.00000000 0.04109615
0.06111344 0.00000000 0.05201823
0.07514319 0.00000000 0.06396000
0.09031232 0.00000000 0.07687159
0.10656226 0.00000000 0.09070313
0.12383442 0.00000000 0.10540476
0.14207022 0.00000000 0.12092660
0.16121104 0.00000000 0.13721880
0.18119834 0.00000000 0.15423149
0.20197351 0.00000000 0.17191480
0.22347797 0.00000000 0.19021887
0.24565315 0.00000000 0.20909381
0.26844043 0.00000000 0.22848977
0.29178125 0.00000000 0.24835688
0.31561700 0.00000000 0.26864529
0.33988911 0.00000000 0.28930509
0.36453900 0.00000000 0.31028646
0.38950810 0.00000000 0.33153951
0.41473776 0.00000000 0.35301441
0.44016945 0.00000000 0.37466121
0.46574458 0.00000000 0.39643013
0.49140456 0.00000000 0.41827124
0.51709080 0.00000000 0.44013473
0.54274470 0.00000000 0.46197069
0.56830770 0.00000000 0.48372927
0.59372115 0.00000000 0.50536060
0.61892658 0.00000000 0.52681482
0.64386529 0.00000000 0.54804200
0.66847879 0.00000000 0.56899238
0.69270843 0.00000000 0.58961606
0.71649563 0.00000000 0.60986310
0.04783320 0.00000000 0.04071442
0.06061978 0.00000000 0.05159804
0.07460649 0.00000000 0.06350318
0.08973476 0.00000000 0.07637997
0.10594597 0.00000000 0.09017856
0.12318156 0.00000000 0.10484906
0.14138293 0.00000000 0.12034161
0.16049151 0.00000000 0.13660635
0.18044871 0.00000000 0.15359342
0.20119594 0.00000000 0.17125294
0.22267461 0.00000000 0.18953505
0.24482614 0.00000000 0.20838988
0.26759192 0.00000000 0.22776756
0.29091343 0.00000000 0.24761821
0.31473202 0.00000000 0.26789200
0.33898911 0.00000000 0.28853905
0.36362615 0.00000000 0.30950946
0.38858452 0.00000000 0.33075342
0.41380563 0.00000000 0.35222101
0.43923095 0.00000000 0.37386239
0.46480185 0.00000000 0.39562768
0.49045971 0.00000000 0.41746703
0.51614600 0.00000000 0.43933058
0.54180217 0.00000000 0.46116841
0.56736952 0.00000000 0.48293072
0.59278953 0.00000000 0.50456762
0.61800367 0.00000000 0.52602923
0.64295322 0.00000000 0.54726571
0.66757971 0.00000000 0.56822711
0.69182450 0.00000000 0.58886367
0.71562904 0.00000000 0.60912549
0.73893470 0.00006607 0.62896270
0.76168287 0.00294687 0.64832538
0.07407135 0.00000000 0.06304768
0.08915865 0.00000000 0.07588961
0.10533106 0.00000000 0.08965516
0.12253001 0.00000000 0.10429447
0.14069688 0.00000000 0.11975767
0.15977313 0.00000000 0.13599488
0.17970014 0.00000000 0.15295626
0.20041934 0.00000000 0.17059192
0.22187214 0.00000000 0.18885201
0.24399996 0.00000000 0.20768665
0.26674420 0.00000000 0.22704597
0.29004627 0.00000000 0.24688011
0.31384760 0.00000000 0.26713923
0.33808962 0.00000000 0.28777340
0.36271369 0.00000000 0.30873281
0.38766131 0.00000000 0.32996759
0.41287380 0.00000000 0.35142782
0.43829262 0.00000000 0.37306371
0.46385920 0.00000000 0.39482534
0.48951492 0.00000000 0.41666284
0.51520121 0.00000000 0.43852636
0.54085952 0.00000000 0.46036604
0.56643116 0.00000000 0.48213202
0.59185767 0.00000000 0.50377440
0.61708039 0.00000000 0.52524334
0.64204073 0.00000000 0.54648900
0.66668010 0.00000000 0.56746143
0.69094002 0.00000000 0.58811080
0.71476173 0.00000000 0.60838729
0.73808682 0.00000000 0.62824100
0.76085657 0.00283515 0.64762205
0.78301245 0.00603212 0.66648060
0.80449587 0.00957068 0.68476671
0.10471755 0.00000000 0.08913295
0.12187976 0.00000000 0.10374100
0.14001207 0.00000000 0.11917476
0.15905589 0.00000000 0.13538440
0.17895265 0.00000000 0.15232001
0.19964375 0.00000000 0.16993175
0.22107059 0.00000000 0.18816975
0.24317460 0.00000000 0.20698413
0.26589721 0.00000000 0.22632504
0.28917980 0.00000000 0.24614260
0.31296381 0.00000000 0.26638696
0.33719063 0.00000000 0.28700823
0.36180171 0.00000000 0.30795655
0.38673845 0.00000000 0.32918206
0.41194224 0.00000000 0.35063490
0.43735451 0.00000000 0.37226522
0.46291667 0.00000000 0.39402309
0.48857015 0.00000000 0.41585869
0.51425636 0.00000000 0.43772215
0.53991669 0.00000000 0.45956358
0.56549263 0.00000000 0.48133317
0.59092546 0.00000000 0.50298095
0.61615676 0.00000000 0.52445716
0.64112777 0.00000000 0.54571187
0.66578001 0.00000000 0.56669527
0.69005489 0.00000000 0.58735746
0.71389383 0.00000000 0.60764855
0.73723817 0.00000000 0.62751865
0.76002938 0.00272388 0.64691800
0.78220892 0.00590853 0.66579664
0.80371809 0.00943429 0.68410474
0.82449841 0.01331475 0.70179242
0.84449124 0.01756355 0.71880978
0.13932848 0.00000000 0.11859292
0.15833981 0.00000000 0.13477488
0.17820622 0.00000000 0.15168467
0.19886914 0.00000000 0.16927242
0.22026995 0.00000000 0.18748827
0.24235009 0.00000000 0.20628233
0.26505098 0.00000000 0.22560474
0.28831401 0.00000000 0.24540566
0.31208059 0.00000000 0.26563519
0.33629218 0.00000000 0.28624350
0.36089015 0.00000000 0.30718067
0.38581595 0.00000000 0.32839686
0.41101095 0.00000000 0.34984222
0.43641660 0.00000000 0.37146688
0.46197429 0.00000000 0.39322096
0.48762545 0.00000000 0.41505456
0.51331151 0.00000000 0.43691790
0.53897381 0.00000000 0.45876104
0.56455386 0.00000000 0.48053411
0.58999306 0.00000000 0.50218731
0.61523277 0.00000000 0.52367067
0.64021438 0.00000000 0.54493445
0.66487938 0.00000000 0.56592870
0.68916923 0.00000000 0.58660358
0.71302521 0.00000000 0.60690916
0.73638880 0.00000000 0.62679571
0.75920141 0.00261305 0.64621323
0.78140444 0.00578541 0.66511190
0.80293936 0.00929837 0.68344188
0.82374752 0.01316555 0.70115328
0.84377038 0.01740056 0.71819621
0.86294931 0.02201701 0.73452079
0.88122571 0.02702853 0.75007725
0.17746088 0.00000000 0.15105025
0.19809553 0.00000000 0.16861396
0.21947023 0.00000000 0.18680757
0.24152642 0.00000000 0.20558125
0.26420552 0.00000000 0.22488511
0.28744888 0.00000000 0.24466930
0.31119800 0.00000000 0.26488394
0.33539426 0.00000000 0.28547919
0.35997906 0.00000000 0.30640516
0.38489380 0.00000000 0.32761198
0.41007996 0.00000000 0.34904978
0.43547890 0.00000000 0.37066871
0.46103203 0.00000000 0.39241892
0.48668078 0.00000000 0.41425049
0.51236659 0.00000000 0.43611360
0.53803080 0.00000000 0.45795837
0.56361496 0.00000000 0.47973493
0.58906031 0.00000000 0.50139338
0.61430842 0.00000000 0.52288395
0.63930058 0.00000000 0.54415667
0.66397828 0.00000000 0.56516171
0.68828291 0.00000000 0.58584917
0.71215594 0.00000000 0.60616928
0.73553866 0.00000000 0.62607211
0.75837260 0.00250266 0.64550775
0.78059912 0.00566275 0.66442639
0.80215961 0.00916294 0.68277818
0.82299554 0.01301685 0.70051318
0.84304833 0.01723808 0.71758163
0.86225933 0.02184026 0.73393357
0.88056999 0.02683700 0.74951917
0.89792180 0.03224192 0.76428854
0.91425604 0.03806863 0.77819180
0.21867144 0.00000000 0.18612765
0.24070360 0.00000000 0.20488088
0.26336080 0.00000000 0.22416611
0.28658447 0.00000000 0.24393351
0.31031603 0.00000000 0.26413321
0.33449686 0.00000000 0.28471532
0.35906839 0.00000000 0.30563003
0.38397205 0.00000000 0.32682738
0.40914926 0.00000000 0.34825760
0.43454137 0.00000000 0.36987075
0.46008989 0.00000000 0.39161700
0.48573616 0.00000000 0.41344646
0.51142162 0.00000000 0.43530929
0.53708774 0.00000000 0.45715562
0.56267583 0.00000000 0.47893557
0.58812737 0.00000000 0.50059927
0.61338371 0.00000000 0.52209687
0.63838637 0.00000000 0.54337847
0.66307664 0.00000000 0.56439424
0.68739605 0.00000000 0.58509433
0.71128595 0.00000000 0.60542881
0.73468781 0.00000000 0.62534785
0.75754297 0.00239271 0.64480156
0.77979285 0.00554055 0.66374016
0.80137891 0.00902799 0.68211365
0.82224256 0.01286864 0.69987226
0.84232515 0.01707612 0.71696609
0.86156815 0.02166404 0.73334527
0.87991303 0.02664602 0.74895990
0.89730108 0.03203568 0.76376021
0.91367382 0.03784664 0.77769625
0.92897254 0.04409251 0.79071820
0.94313884 0.05078690 0.80277616
0.26251686 0.00000000 0.22344778
0.28572074 0.00000000 0.24319832
0.30943462 0.00000000 0.26338300
0.33359998 0.00000000 0.28395194
0.35815817 0.00000000 0.30485526
0.38305065 0.00000000 0.32604313
0.40821883 0.00000000 0.34746563
0.43360409 0.00000000 0.36907294
0.45914790 0.00000000 0.39081520
0.48479161 0.00000000 0.41264248
0.51047671 0.00000000 0.43450496
0.53614450 0.00000000 0.45635277
0.56173652 0.00000000 0.47813603
0.58719409 0.00000000 0.49980491
0.61245871 0.00000000 0.52130949
0.63747168 0.00000000 0.54259992
0.66217452 0.00000000 0.56362641
0.68650860 0.00000000 0.58433896
0.71041536 0.00000000 0.60468775
0.73383617 0.00000000 0.62462300
0.75671250 0.00228320 0.64409471
0.77898568 0.00541881 0.66305310
0.80059719 0.00889351 0.68144828
0.82148844 0.01272093 0.69923037
0.84160084 0.01691467 0.71634954
0.86087579 0.02148835 0.73275590
0.87925470 0.02645560 0.74839962
0.89667904 0.03183002 0.76323074
0.91309011 0.03762523 0.77719945
0.92842942 0.04385486 0.79025590
0.94263840 0.05053251 0.80235016
0.95565838 0.05767181 0.81343246
0.96743083 0.06528637 0.82345289
0.30855384 0.00000000 0.26263332
0.33270362 0.00000000 0.28318900
0.35724843 0.00000000 0.30408090
0.38212964 0.00000000 0.32525918
0.40728870 0.00000000 0.34667394
0.43266702 0.00000000 0.36827534
0.45820603 0.00000000 0.39001349
0.48384711 0.00000000 0.41183853
0.50953168 0.00000000 0.43370062
0.53520119 0.00000000 0.45554984
0.56079704 0.00000000 0.47733638
0.58626062 0.00000000 0.49901032
0.61153334 0.00000000 0.52052182
0.63655663 0.00000000 0.54182106
0.66127193 0.00000000 0.56285810
0.68562061 0.00000000 0.58358306
0.70954412 0.00000000 0.60394615
0.73298383 0.00000000 0.62389749
0.75588119 0.00217413 0.64338714
0.77817762 0.00529753 0.66236532
0.79981452 0.00875952 0.68078208
0.82073331 0.01257371 0.69858766
0.84087539 0.01675374 0.71573210
0.86018223 0.02131320 0.73216552
0.87859511 0.02626573 0.74783814
0.89605558 0.03162493 0.76270008
0.91250503 0.03740442 0.77670139
0.92788482 0.04361782 0.78979230
0.94213635 0.05027875 0.80192286
0.95520115 0.05740082 0.81304330
0.96702051 0.06499765 0.82310367
0.97753590 0.07308286 0.83205408
0.98668879 0.08167005 0.83984476
0.35633910 0.00000000 0.30330694
0.38120899 0.00000000 0.32447556
0.40635887 0.00000000 0.34588251
0.43173018 0.00000000 0.36747789
0.45726430 0.00000000 0.38921192
0.48290268 0.00000000 0.41103464
0.50858670 0.00000000 0.43289626
0.53425777 0.00000000 0.45474684
0.55985737 0.00000000 0.47653654
0.58532685 0.00000000 0.49821553
0.61060762 0.00000000 0.51973391
0.63564116 0.00000000 0.54104179
0.66036880 0.00000000 0.56208938
0.68473202 0.00000000 0.58282673
0.70867217 0.00000000 0.60320401
0.73213077 0.00000000 0.62317133
0.75504911 0.00206551 0.64267892
0.77736866 0.00517671 0.66167676
0.79903090 0.00862599 0.68011510
0.81997710 0.01242699 0.69794399
0.84014881 0.01659331 0.71511364
0.85948741 0.02113858 0.73157412
0.87793422 0.02607640 0.74727565
0.89543080 0.03142040 0.76216823
0.91191846 0.03718419 0.77620214
0.92733860 0.04338139 0.78932738
0.94163275 0.05002561 0.80149418
0.95474219 0.05713048 0.81265265
0.96660846 0.06470960 0.82275289
0.97717285 0.07277660 0.83174503
0.98637688 0.08134509 0.83957928
0.99416190 0.09042868 0.84620571
0.99984336 0.10029240 0.85104162
0.40542933 0.00000000 0.34509131
0.43079352 0.00000000 0.36668065
0.45632270 0.00000000 0.38841045
0.48195827 0.00000000 0.41023082
0.50764167 0.00000000 0.43209186
0.53331429 0.00000000 0.45394373
0.55891752 0.00000000 0.47573659
0.58439279 0.00000000 0.49742052
0.60968161 0.00000000 0.51894569
0.63472521 0.00000000 0.54026222
0.65946519 0.00000000 0.56132025
0.68384284 0.00000000 0.58206987
0.70779961 0.00000000 0.60246128
0.73127693 0.00000000 0.62244463
0.75421619 0.00195732 0.64196998
0.77655888 0.00505634 0.66098744
0.79824626 0.00849295 0.67944723
0.81921989 0.01228077 0.69729948
0.83942115 0.01643341 0.71449423
0.85879135 0.02096449 0.73098171
0.87727207 0.02588763 0.74671203
0.89480460 0.03121645 0.76163524
0.91133040 0.03696455 0.77570164
0.92679089 0.04314556 0.78886122
0.94112748 0.04977310 0.80106413
0.95428157 0.05686077 0.81226057
0.96619457 0.06442221 0.82240063
0.97680795 0.07247102 0.83143443
0.98606306 0.08102082 0.83931214
0.99390131 0.09008522 0.84598392
0.99991381 0.09981841 0.85110164
0.99713302 0.11308198 0.84873468
0.99260080 0.12710968 0.84487695
0.45538127 0.00000000 0.38760912
0.48101395 0.00000000 0.40942702
0.50669664 0.00000000 0.43128747
0.53237063 0.00000000 0.45314056
0.55797750 0.00000000 0.47493646
0.58345854 0.00000000 0.49662530
0.60875523 0.00000000 0.51815718
0.63380891 0.00000000 0.53948230
0.65856105 0.00000000 0.56055069
0.68295312 0.00000000 0.58131260
0.70692641 0.00000000 0.60171807
0.73042238 0.00000000 0.62171727
0.75338250 0.00184957 0.64126033
0.77574813 0.00493643 0.66029739
0.79746073 0.00836038 0.67877859
0.81846160 0.01213504 0.69665402
0.83869231 0.01627401 0.71387386
0.85809416 0.02079093 0.73038828
0.87660861 0.02569941 0.74614727
0.89417708 0.03101306 0.76110113
0.91074097 0.03674550 0.77519989
0.92624170 0.04291034 0.78839374
0.94062066 0.04952121 0.80063272
0.95381927 0.05659172 0.81186706
0.96577901 0.06413548 0.82204688
0.97644120 0.07216612 0.83112228
0.98574728 0.08069724 0.83904338
0.99363875 0.08974247 0.84576041
0.99998188 0.09934550 0.85115951
0.99726677 0.11258025 0.84884852
0.99279779 0.12658049 0.84504461
0.98664165 0.14130959 0.83980465
0.97886503 0.15673095 0.83318543
0.50575155 0.00000000 0.43048307
0.53142697 0.00000000 0.45233732
0.55703729 0.00000000 0.47413620
0.58252400 0.00000000 0.49582985
0.60782850 0.00000000 0.51736838
0.63289219 0.00000000 0.53870195
0.65765649 0.00000000 0.55978072
0.68206280 0.00000000 0.58055478
0.70605254 0.00000000 0.60097426
0.72956711 0.00000000 0.62098926
0.75254798 0.00174226 0.64055002
0.77493656 0.00481698 0.65960658
0.79667419 0.00822828 0.67810911
0.81770229 0.01198980 0.69600773
0.83796233 0.01611513 0.71325254
0.85739577 0.02061790 0.72979379
0.87594390 0.02551173 0.74558151
0.89354819 0.03081024 0.76056582
0.91015005 0.03652703 0.77469695
0.92569095 0.04267572 0.78792495
0.94011223 0.04926994 0.80019999
0.95335531 0.05632329 0.81147218
0.96536165 0.06384940 0.82169163
0.97607261 0.07186189 0.83080852
0.98542964 0.08037436 0.83877301
0.99337417 0.08940043 0.84553522
0.99984753 0.09895373 0.85104519
0.99739814 0.11207958 0.84896034
0.99299252 0.12605229 0.84521037
0.98689729 0.14075522 0.84002221
0.97917908 0.15615177 0.83345270
0.96990472 0.17220533 0.82555860
0.95914084 0.18887928 0.81639665
0.55609697 0.00000000 0.47333580
0.58158922 0.00000000 0.49503419
0.60690147 0.00000000 0.51657933
0.63197505 0.00000000 0.53792137
0.65675139 0.00000000 0.55901033
0.68117195 0.00000000 0.57979649
0.70517802 0.00000000 0.60022986
0.72871113 0.00000000 0.62026066
0.75171268 0.00163539 0.63983899
0.77412403 0.00469798 0.65891498
0.79588670 0.00809666 0.67743880
0.81694192 0.01184505 0.69536054
0.83723128 0.01595676 0.71263033
0.85669613 0.02044540 0.72919828
0.87527788 0.02532461 0.74501461
0.89291793 0.03060798 0.76002938
0.90955776 0.03630914 0.77419275
0.92513865 0.04244170 0.78745484
0.93960220 0.04901929 0.79976583
0.95288968 0.05605551 0.81107581
0.96494251 0.06356399 0.82133490
0.97570217 0.07155834 0.83049327
0.98511004 0.08005217 0.83850104
0.99310756 0.08905911 0.84530830
0.99963611 0.09859277 0.85086524
0.99752712 0.11157992 0.84907013
0.99318492 0.12552509 0.84537417
0.98715067 0.14020181 0.84023792
0.97949100 0.15557347 0.83371824
0.97027272 0.17160352 0.82587183
0.95956248 0.18825530 0.81675553
0.94742703 0.20549224 0.80642611
0.93393302 0.22327773 0.79494041
0.60597414 0.00000000 0.51578999
0.63105750 0.00000000 0.53714037
0.65584582 0.00000000 0.55823958
0.68028051 0.00000000 0.57903773
0.70430291 0.00000000 0.59948498
0.72785443 0.00000000 0.61953145
0.75087655 0.00152895 0.63912731
0.77331066 0.00457944 0.65822268
0.79509819 0.00796552 0.67676771
0.81618053 0.01170080 0.69471246
0.83649909 0.01579890 0.71200711
0.85599530 0.02027343 0.72860175
0.87461060 0.02513803 0.74444664
0.89228636 0.03040629 0.75949180
0.90896398 0.03609184 0.77368736
0.92458493 0.04220829 0.78698349
0.93909055 0.04876926 0.79933035
0.95242232 0.05578837 0.81067801
0.96452165 0.06327923 0.82097667
0.97532994 0.07125547 0.83017641
0.98478860 0.07973068 0.83822739
0.99283904 0.08871850 0.84507972
0.99942267 0.09823254 0.85068351
0.99765378 0.11108132 0.84917790
0.99337506 0.12499887 0.84553599
0.98740184 0.13964932 0.84045172
0.97980082 0.15499607 0.83398193
0.97063869 0.17100254 0.82618332
0.95998216 0.18763210 0.81711274
0.94789797 0.20484816 0.80682701
0.93445277 0.22261411 0.79538280
0.91971338 0.24089336 0.78283697
0.90374643 0.25964931 0.76924628
0.65493983 0.00000000 0.55746835
0.67938852 0.00000000 0.57827848
0.70342708 0.00000000 0.59873950
0.72699702 0.00000000 0.61880165
0.75003964 0.00142295 0.63841498
0.77249646 0.00446135 0.65752965
0.79430878 0.00783484 0.67609572
0.81541812 0.01155703 0.69406348
0.83576584 0.01564154 0.71138293
0.85529333 0.02010199 0.72800428
0.87394202 0.02495199 0.74387759
0.89165336 0.03020516 0.75895303
0.90836877 0.03587512 0.77318072
0.92402965 0.04197548 0.78651088
0.93857735 0.04851985 0.79889351
0.95195335 0.05552187 0.81027883
0.96409905 0.06299514 0.82061696
0.97495586 0.07095326 0.82985801
0.98446518 0.07940989 0.83795214
0.99256849 0.08837861 0.84484941
0.99920714 0.09787305 0.85050011
0.99777800 0.11058375 0.84928364
0.99356294 0.12447364 0.84569585
0.98765087 0.13909778 0.84066367
0.98010856 0.15441957 0.83424383
0.97100264 0.17040241 0.82649314
0.96039993 0.18700969 0.81746835
0.94836706 0.20420483 0.80722624
0.93497074 0.22195120 0.79582369
0.92027777 0.24021222 0.78331739
0.90435481 0.25895128 0.76976413
0.88726854 0.27813178 0.75522077
0.86908573 0.29771709 0.73974401
0.70255071 0.00000000 0.59799355
0.72613889 0.00000000 0.61807120
0.74920195 0.00131738 0.63770193
0.77168137 0.00434372 0.65683585
0.79351842 0.00770464 0.67542303
0.81465465 0.01141376 0.69341362
0.83503139 0.01548470 0.71075785
0.85459012 0.01993108 0.72740573
0.87327224 0.02476650 0.74330741
0.89101911 0.03000460 0.75841314
0.90777218 0.03565898 0.77267289
0.92347282 0.04174327 0.78603697
0.93806255 0.04827107 0.79845536
0.95148271 0.05525600 0.80987823
0.96367466 0.06271169 0.82025576
0.97457999 0.07065175 0.82953805
0.98413992 0.07908978 0.83767521
0.99229598 0.08803943 0.84461749
0.99898952 0.09751429 0.85031486
0.99789983 0.11008723 0.84938735
0.99374849 0.12394941 0.84585381
0.98789763 0.13854718 0.84087372
0.98041415 0.15384395 0.83450395
0.97136456 0.16980311 0.82680118
0.96081573 0.18638808 0.81782228
0.94883430 0.20356223 0.80762398
0.93548697 0.22128898 0.79626310
0.92084050 0.23953171 0.78379637
0.90496159 0.25825384 0.77028066
0.88791698 0.27741873 0.75577271
0.86977333 0.29698983 0.74032927
0.85059738 0.31693050 0.72400719
0.83045590 0.33720413 0.70686328
0.74836349 0.00121225 0.63698822
0.77086538 0.00422654 0.65614128
0.79272711 0.00757491 0.67474949
0.81389016 0.01127098 0.69276291
0.83429593 0.01532836 0.71013176
0.85388577 0.01976069 0.72680616
0.87260115 0.02458156 0.74273622
0.89038342 0.02980460 0.75787210
0.90717411 0.03544343 0.77216387
0.92291456 0.04151165 0.78556174
0.93754613 0.04802290 0.79801583
0.95101035 0.05499078 0.80947620
0.96324861 0.06242890 0.81989306
0.97420222 0.07035089 0.82921654
0.98381275 0.07877038 0.83739674
0.99202144 0.08770096 0.84438384
0.99876988 0.09715625 0.85012788
0.99801928 0.10959175 0.84948903
0.99393171 0.12342617 0.84600979
0.98814225 0.13799752 0.84108192
0.98071760 0.15326923 0.83476228
0.97172445 0.16920468 0.82710755
0.96122962 0.18576726 0.81817454
0.94929969 0.20292039 0.80802011
0.93600142 0.22062746 0.79670095
0.92140156 0.23885186 0.78427392
0.90556681 0.25755700 0.77079582
0.88856393 0.27670625 0.75632334
0.87045956 0.29626304 0.74091333
0.85132039 0.31619075 0.72462261
0.83121324 0.33645281 0.70750785
0.81020474 0.35701257 0.68962598
0.78836167 0.37783346 0.67103368
0.79193485 0.00744564 0.67407513
0.81312466 0.01112868 0.69211131
0.83355927 0.01517254 0.70950478
0.85318017 0.01959082 0.72620559
0.87192875 0.02439716 0.74216396
0.88974643 0.02960517 0.75732988
0.90657467 0.03522845 0.77165365
0.92235476 0.04128064 0.78508526
0.93702817 0.04777535 0.79757494
0.95053637 0.05472618 0.80907279
0.96282077 0.06214677 0.81952894
0.97382271 0.07005072 0.82889348
0.98348361 0.07845166 0.83711666
0.99174500 0.08736319 0.84414852
0.99854815 0.09679894 0.84993917
0.99813634 0.10909732 0.84958863
0.99411267 0.12290393 0.84616381
0.98838460 0.13744883 0.84128821
0.98101896 0.15269542 0.83501875
0.97208232 0.16860709 0.82741213
0.96164155 0.18514726 0.81852520
0.94976324 0.20227930 0.80841464
0.93651414 0.21996664 0.79713738
0.92196101 0.23817265 0.78475010
0.90617049 0.25686076 0.77130961
0.88920939 0.27599433 0.75687271
0.87114429 0.29553676 0.74149621
0.85204208 0.31545147 0.72523689
0.83196932 0.33570188 0.70815146
0.81099284 0.35625133 0.69029677
0.78917927 0.37706327 0.67172962
0.76659536 0.39810106 0.65250677
0.74330783 0.41932812 0.63268501
0.83282155 0.01501722 0.70887685
0.85247344 0.01942149 0.72560406
0.87125516 0.02421331 0.74159056
0.88910812 0.02940629 0.75678658
0.90597373 0.03501406 0.77114218
0.92179346 0.04105023 0.78460753
0.93650866 0.04752841 0.79713273
0.95006078 0.05446223 0.80866790
0.96239120 0.06186529 0.81916326
0.97344136 0.06975122 0.82856888
0.98315269 0.07813363 0.83683491
0.99146652 0.08702613 0.84391147
0.99832439 0.09644236 0.84974873
0.99825102 0.10860395 0.84968626
0.99429131 0.12238269 0.84631586
0.98862475 0.13690107 0.84149265
0.98131818 0.15212250 0.83527344
0.97243816 0.16801035 0.82771504
0.96205151 0.18452804 0.81887418
0.95022494 0.20163897 0.80880767
0.93702507 0.21930651 0.79757226
0.92251873 0.23749410 0.78522485
0.90677255 0.25616512 0.77182209
0.88985330 0.27528295 0.75742084
0.87182772 0.29481098 0.74207789
0.85276246 0.31471267 0.72585005
0.83272421 0.33495137 0.70879400
0.81177980 0.35549048 0.69096661
0.78999585 0.37629339 0.67242467
0.76743907 0.39732352 0.65322489
0.74417627 0.41854426 0.63342416
0.72027403 0.43991902 0.61307925
