[X] Isn't Not Scary/[X] Isn't Not Scary.cube
# VEGAS Pro LUT
TITLE "[X] Isn't Not Scary"
LUT_3D_SIZE 9
0.00000000 0.00000000 0.00000000
0.02715521 0.00012898 0.02311384
0.07622119 0.00000000 0.06487757
0.14344844 0.00000000 0.12209971
0.22508745 0.00000000 0.19158880
0.31738874 0.00000000 0.27015334
0.41660282 0.00000000 0.35460189
0.51898021 0.00000000 0.44174293
0.62077135 0.00000000 0.52838498
0.07407135 0.00000000 0.06304768
0.14069688 0.00000000 0.11975767
0.22187214 0.00000000 0.18885201
0.31384760 0.00000000 0.26713923
0.41287380 0.00000000 0.35142782
0.51520121 0.00000000 0.43852636
0.61708039 0.00000000 0.52524334
0.71476173 0.00000000 0.60838729
0.80449587 0.00957068 0.68476671
0.21867144 0.00000000 0.18612765
0.31031603 0.00000000 0.26413321
0.40914926 0.00000000 0.34825760
0.51142162 0.00000000 0.43530929
0.61338371 0.00000000 0.52209687
0.71128595 0.00000000 0.60542881
0.80137891 0.00902799 0.68211365
0.87991303 0.02664602 0.74895990
0.94313884 0.05078690 0.80277616
0.40542933 0.00000000 0.34509131
0.50764167 0.00000000 0.43209186
0.60968161 0.00000000 0.51894569
0.70779961 0.00000000 0.60246128
0.79824626 0.00849295 0.67944723
0.87727207 0.02588763 0.74671203
0.94112748 0.04977310 0.80106413
0.98606306 0.08102082 0.83931214
0.99260080 0.12710968 0.84487695
0.60597414 0.00000000 0.51578999
0.70430291 0.00000000 0.59948498
0.79509819 0.00796552 0.67676771
0.87461060 0.02513803 0.74444664
0.93909055 0.04876926 0.79933035
0.98478860 0.07973068 0.83822739
0.99337506 0.12499887 0.84553599
0.95998216 0.18763210 0.81711274
0.90374643 0.25964931 0.76924628
0.79193485 0.00744564 0.67407513
0.87192875 0.02439716 0.74216396
0.93702817 0.04777535 0.79757494
0.98348361 0.07845166 0.83711666
0.99411267 0.12290393 0.84616381
0.96164155 0.18514726 0.81852520
0.90617049 0.25686076 0.77130961
0.83196932 0.33570188 0.70815146
0.74330783 0.41932812 0.63268501
0.93494064 0.04679131 0.79579800
0.98214841 0.07718369 0.83598012
0.99481332 0.12082498 0.84676015
0.96326977 0.18267523 0.81991112
0.90856922 0.25408182 0.77335137
0.83498150 0.33270225 0.71071535
0.74677634 0.41619393 0.63563728
0.64822346 0.50221443 0.55175155
0.54359275 0.58842111 0.46269253
0.99547684 0.11876214 0.84732497
0.96486670 0.18021615 0.82127035
0.91094244 0.25131267 0.77537137
0.83797389 0.32970920 0.71326238
0.75023079 0.41306320 0.63857764
0.65198296 0.49903214 0.55495161
0.54750019 0.58527350 0.46601847
0.44105223 0.66944474 0.37541261
0.33690882 0.74920332 0.28676835
0.91328984 0.24855340 0.77736944
0.84094626 0.32672286 0.71579236
0.75367105 0.40993598 0.64150596
0.65573406 0.49585024 0.55814439
0.55140501 0.58212304 0.46934214
0.44495368 0.66641194 0.37873343
0.34064984 0.74637443 0.28995261
0.24276327 0.81966788 0.20663400
0.15556373 0.88394976 0.13241194
0.00753045 0.00035560 0.00640973
0.04348186 0.00000000 0.03701067
0.09991446 0.00000000 0.08504468
0.17307875 0.00000000 0.14732030
0.25922525 0.00000000 0.22064604
0.35460445 0.00000000 0.30183041
0.45546684 0.00000000 0.38768196
0.55806297 0.00000000 0.47500920
0.65864331 0.00000000 0.56062067
0.09751894 0.00000000 0.08300567
0.17013411 0.00000000 0.14481390
0.25586942 0.00000000 0.21778965
0.35097539 0.00000000 0.29874146
0.45170251 0.00000000 0.38447785
0.55430126 0.00000000 0.47180736
0.65502220 0.00000000 0.55753851
0.75011575 0.00143257 0.63847977
0.83583254 0.01565583 0.71143973
0.25252631 0.00000000 0.21494406
0.34735397 0.00000000 0.29565898
0.44794071 0.00000000 0.38127592
0.55053705 0.00000000 0.46860334
0.65139347 0.00000000 0.55444980
0.74676055 0.00101275 0.63562387
0.83288866 0.01503131 0.70893401
0.90602845 0.03503353 0.77118874
0.96243030 0.06189085 0.81919658
0.44418162 0.00000000 0.37807629
0.54677045 0.00000000 0.46539733
0.64775735 0.00000000 0.55135483
0.74339277 0.00059985 0.63275731
0.82992727 0.01441490 0.70641327
0.90361130 0.03418154 0.76913130
0.96069539 0.06077123 0.81771982
0.99743003 0.09505542 0.84898746
0.98246735 0.14989157 0.83625162
0.64411396 0.00000000 0.54825366
0.74001271 0.00019382 0.62988031
0.82694846 0.01380654 0.70387781
0.90117168 0.03333879 0.76705474
0.95893288 0.05966202 0.81621963
0.99648261 0.09364770 0.84818101
0.98360944 0.14762315 0.83722371
0.94100356 0.21411052 0.80095863
0.87718284 0.28908876 0.74663603
0.82395244 0.01320619 0.70132768
0.89870977 0.03250522 0.76495922
0.95714301 0.05856318 0.81469619
0.99550277 0.09225152 0.84734702
0.98471701 0.14536940 0.83816642
0.94297302 0.21149972 0.80263501
0.87985712 0.28620708 0.74891233
0.79963905 0.36714894 0.68063271
0.70658851 0.45198277 0.60143042
0.95532602 0.05747467 0.81314957
0.99449062 0.09086685 0.84648556
0.98578984 0.14313041 0.83907962
0.94491357 0.20890053 0.80428678
0.88250828 0.28333384 0.75116891
0.80284369 0.36408785 0.68336046
0.71018964 0.44881999 0.60449564
0.60881585 0.53518778 0.51820880
0.50299209 0.62084866 0.42813426
0.98682779 0.14090632 0.83996308
0.94682497 0.20631304 0.80591369
0.88513607 0.28046915 0.75340563
0.80603081 0.36103213 0.68607324
0.71377891 0.44565943 0.60755074
0.61265028 0.53200853 0.52147257
0.50691462 0.61773694 0.43147302
0.40084165 0.70050204 0.34118637
0.29870123 0.77796143 0.25424701
0.88774025 0.27761313 0.75562227
0.80920011 0.35798192 0.68877083
0.71735626 0.44250122 0.61059564
0.61647850 0.52882844 0.52473104
0.51083666 0.61462122 0.43481138
0.40470049 0.69753683 0.34447092
0.30233973 0.77523291 0.25734401
0.20802417 0.84536684 0.17706497
0.12602362 0.90559608 0.10726815
0.01858325 0.00032353 0.01581760
0.06278580 0.00000000 0.05344170
0.12603997 0.00000000 0.10728206
0.20459625 0.00000000 0.17414720
0.29470518 0.00000000 0.25084567
0.39261723 0.00000000 0.33418593
0.49458289 0.00000000 0.42097658
0.59685272 0.00000000 0.50802606
0.69567716 0.00000000 0.59214294
0.12341882 0.00000000 0.10505100
0.20147859 0.00000000 0.17149352
0.29122892 0.00000000 0.24788676
0.38892031 0.00000000 0.33103922
0.49080330 0.00000000 0.41775948
0.59312832 0.00000000 0.50485599
0.69214600 0.00000000 0.58913732
0.78410673 0.00620138 0.66741198
0.86526102 0.02261547 0.73648852
0.28776342 0.00000000 0.24493700
0.38522908 0.00000000 0.32789734
0.48702431 0.00000000 0.41454288
0.58939952 0.00000000 0.50168210
0.68860525 0.00000000 0.58612359
0.78089207 0.00570730 0.66467577
0.86251038 0.02190447 0.73414725
0.92971075 0.04441755 0.79134649
0.97874361 0.07411800 0.83308202
0.48324609 0.00000000 0.41132697
0.58566642 0.00000000 0.49850458
0.68505520 0.00000000 0.58310181
0.77766293 0.00522059 0.66192722
0.85974020 0.02120202 0.73178929
0.92753738 0.04346730 0.78949660
0.97730511 0.07288789 0.83185762
0.99694687 0.11376781 0.84857619
0.96865213 0.17423576 0.82449245
0.68149596 0.00000000 0.58007228
0.77441961 0.00474120 0.65916657
0.85695070 0.02050807 0.72941494
0.92533970 0.04252673 0.78762597
0.97583711 0.07166864 0.83060807
0.99748051 0.11176150 0.84903044
0.97013915 0.17182225 0.82575810
0.91894102 0.24182326 0.78217959
0.84815598 0.31942195 0.72192913
0.85414201 0.01982259 0.72702432
0.92311776 0.04159581 0.78573471
0.97433978 0.07046022 0.82933366
0.99797612 0.10977181 0.84945226
0.97159386 0.16942219 0.82699633
0.92119777 0.23909901 0.78410047
0.85105765 0.31645972 0.72439897
0.76544327 0.39916176 0.65152615
0.66862446 0.48486266 0.56911641
0.97281343 0.06926257 0.82803440
0.99843347 0.10779886 0.84984154
0.97301602 0.16703571 0.82820690
0.92342776 0.23638515 0.78599858
0.85393834 0.31350467 0.72685093
0.76881766 0.39605173 0.65439832
0.67233539 0.48168382 0.57227504
0.56876129 0.56805837 0.48411539
0.46236524 0.65283287 0.39355370
0.97440553 0.16466291 0.82938957
0.92563081 0.23368183 0.78787374
0.85679793 0.31055698 0.72928494
0.77217662 0.39294589 0.65725738
0.67603666 0.47850597 0.57542551
0.57264787 0.56489474 0.48742351
0.46627998 0.64976960 0.39688584
0.36120275 0.73078811 0.30744675
0.26168600 0.80560768 0.22274056
0.85963613 0.30761677 0.73170072
0.77552003 0.38984433 0.66010320
0.67972821 0.47532925 0.57856762
0.57653040 0.56172901 0.49072823
0.47019646 0.64670110 0.40021944
0.36499611 0.72790295 0.31067553
0.26519912 0.80299211 0.22573085
0.17507529 0.86962599 0.14901970
0.09889439 0.92546207 0.08417643
0.03295060 0.00000000 0.02804672
0.08485923 0.00000000 0.07223005
0.15438992 0.00000000 0.13141282
0.23779313 0.00000000 0.20240356
0.33131942 0.00000000 0.28201079
0.43121925 0.00000000 0.36704302
0.53374314 0.00000000 0.45430881
0.63514161 0.00000000 0.54061663
0.73166513 0.00000000 0.62277502
0.15156317 0.00000000 0.12900677
0.23452248 0.00000000 0.19961965
0.32774276 0.00000000 0.27896643
0.42747456 0.00000000 0.36385563
0.52996832 0.00000000 0.45109579
0.63147461 0.00000000 0.53749537
0.72824395 0.00000000 0.61986297
0.81652677 0.01176631 0.69500715
0.89257360 0.03049790 0.75973630
0.32417494 0.00000000 0.27592957
0.42373359 0.00000000 0.36067143
0.52619219 0.00000000 0.44788164
0.62780124 0.00000000 0.53436869
0.72481126 0.00000000 0.61694121
0.81347275 0.01119330 0.69240761
0.89003617 0.02969575 0.75757647
0.95075202 0.05484637 0.80925632
0.99187088 0.08751663 0.84425569
0.52241492 0.00000000 0.44466650
0.62412167 0.00000000 0.53123671
0.72136730 0.00000000 0.61400980
0.81040233 0.01062811 0.68979418
0.88747728 0.02890260 0.75539845
0.94884259 0.05379320 0.80763108
0.99074888 0.08617138 0.84330064
0.98922604 0.13551109 0.84200442
0.95139176 0.20001242 0.80980080
0.71791220 0.00000000 0.61106890
0.80731577 0.01007070 0.68716693
0.88489711 0.02811841 0.75320226
0.94690686 0.05275017 0.80598336
0.98959541 0.08483744 0.84231883
0.99014175 0.13333936 0.84278381
0.95320082 0.19746634 0.81134069
0.89403117 0.27064043 0.76097697
0.81690252 0.35051909 0.69532698
0.88229591 0.02734313 0.75098819
0.94494492 0.05171722 0.80431342
0.98841071 0.08351477 0.84131044
0.99102151 0.13118304 0.84353268
0.95497984 0.19493252 0.81285495
0.89655232 0.26781526 0.76312286
0.82000870 0.34748879 0.69797087
0.72961879 0.43161052 0.62103325
0.62965232 0.51783794 0.53594428
0.98719501 0.08220333 0.84027565
0.99186528 0.12904227 0.84425086
0.95672858 0.19241105 0.81434339
0.89904898 0.26499930 0.76524794
0.82309616 0.34446448 0.70059884
0.73313999 0.42846408 0.62403041
0.63345021 0.51465553 0.53917694
0.52829659 0.60069638 0.44967279
0.42194885 0.68424398 0.35915229
0.95844680 0.18990207 0.81580591
0.90152085 0.26219264 0.76735198
0.82616466 0.34144634 0.70321065
0.73664802 0.42532063 0.62701637
0.63724065 0.51147294 0.54240328
0.53221238 0.59756082 0.45300585
0.42583296 0.68124169 0.36245835
0.32237217 0.76017302 0.27439511
0.22609976 0.83201230 0.19245045
0.82921404 0.33843446 0.70580620
0.74014264 0.42218024 0.62999088
0.64102352 0.50829029 0.54562318
0.53612638 0.59442198 0.45633736
0.42972103 0.67823291 0.36576778
0.32607719 0.75738049 0.27754873
0.22946468 0.82952219 0.19531459
0.14415327 0.89231551 0.12269964
0.07441270 0.94341785 0.06333823
0.05042467 0.00000000 0.04292021
0.10949434 0.00000000 0.09319884
0.18475647 0.00000000 0.15726008
0.27246159 0.00000000 0.23191248
0.36886019 0.00000000 0.31396455
0.47020274 0.00000000 0.40022480
0.57273978 0.00000000 0.48750177
0.67272186 0.00000000 0.57260400
0.76639938 0.00359531 0.65233994
0.18174420 0.00000000 0.15469612
0.26905799 0.00000000 0.22901541
0.36520317 0.00000000 0.31085181
0.46643031 0.00000000 0.39701378
0.56898987 0.00000000 0.48430991
0.66913235 0.00000000 0.56954867
0.76310825 0.00314089 0.64953864
0.84716809 0.01817563 0.72108823
0.91756237 0.03935141 0.78100610
0.36155307 0.00000000 0.30774492
0.46265966 0.00000000 0.39380431
0.56523663 0.00000000 0.48111525
0.66553444 0.00000000 0.56648624
0.75980365 0.00269361 0.64672583
0.84429473 0.01751905 0.71864253
0.91525823 0.03845346 0.77904487
0.96894461 0.06636831 0.82474136
0.99939233 0.10302788 0.85065770
0.56148028 0.00000000 0.47791797
0.66192842 0.00000000 0.56341690
0.75648588 0.00225341 0.64390182
0.84140313 0.01687073 0.71618128
0.91293067 0.03756496 0.77706373
0.96731913 0.06520756 0.82335782
0.99971581 0.10111366 0.85093302
0.97767609 0.15889752 0.83217335
0.93092281 0.22709170 0.79237819
0.75315499 0.00182026 0.64106667
0.83849335 0.01623063 0.71370453
0.91057998 0.03668585 0.77506286
0.96566534 0.06405739 0.82195014
1.00000000 0.09921671 0.85117495
0.97895092 0.15657291 0.83325851
0.93303120 0.22442560 0.79417276
0.86651069 0.30043224 0.73755217
0.78365910 0.38225034 0.66703099
0.90820622 0.03581611 0.77304238
0.96398348 0.06291777 0.82051861
0.99914801 0.09777513 0.85044974
0.98019207 0.15426250 0.83431494
0.93511170 0.22177052 0.79594368
0.86927342 0.29751870 0.73990375
0.78694695 0.37916449 0.66982955
0.69240218 0.46436536 0.58935541
0.58990878 0.55077881 0.50211555
0.99826300 0.09634524 0.84969646
0.98139942 0.15196639 0.83534259
0.93716413 0.21912661 0.79769063
0.87201387 0.29461315 0.74223632
0.79021835 0.37608346 0.67261404
0.69604737 0.46119505 0.59245813
0.59377074 0.54760540 0.50540280
0.48765823 0.63297194 0.41508248
0.38197958 0.71495217 0.32513145
0.93918824 0.21649396 0.79941350
0.87473172 0.29171568 0.74454975
0.79347295 0.37300739 0.67538428
0.69968164 0.45802653 0.59555149
0.59762758 0.54443055 0.50868559
0.49158052 0.62987703 0.41842100
0.38581023 0.71202332 0.32839200
0.28458652 0.78852695 0.24223293
0.19217917 0.85704541 0.16357809
0.79671061 0.36993632 0.67814010
0.70330471 0.45485985 0.59863532
0.60147893 0.54125446 0.51196384
0.49550313 0.62677765 0.42175987
0.38964704 0.70908684 0.33165780
0.28818041 0.78583962 0.24529195
0.19537306 0.85469335 0.16629665
0.11549472 0.91330552 0.09830622
0.05281520 0.95933366 0.04495497
0.07079765 0.00000000 0.06026119
0.13648330 0.00000000 0.11617116
0.21693183 0.00000000 0.18464695
0.30839378 0.00000000 0.26249707
0.40711963 0.00000000 0.34653002
0.50935990 0.00000000 0.43355435
0.61136502 0.00000000 0.52037859
0.70938563 0.00000000 0.60381126
0.79967213 0.00873520 0.68066090
0.21375410 0.00000000 0.18194214
0.30487728 0.00000000 0.25950393
0.40340233 0.00000000 0.34336597
0.50557971 0.00000000 0.43033680
0.60766000 0.00000000 0.51722497
0.70589358 0.00000000 0.60083896
0.79653108 0.00820432 0.67798728
0.87582290 0.02547767 0.74547851
0.94001961 0.04922432 0.80012113
0.39969000 0.00000000 0.34020612
0.50179946 0.00000000 0.42711914
0.60394973 0.00000000 0.51406687
0.70239127 0.00000000 0.59785783
0.79337466 0.00768101 0.67530060
0.87315029 0.02473284 0.74320364
0.93796879 0.04822590 0.79837555
0.98408055 0.07903166 0.83762473
0.99378198 0.12385420 0.84588230
0.60023445 0.00000000 0.51090449
0.69887888 0.00000000 0.59486818
0.79020303 0.00716525 0.67260104
0.87045747 0.02399672 0.74091160
0.93589264 0.04723738 0.79660839
0.98275906 0.07775867 0.83649987
0.99449944 0.12176797 0.84649301
0.96253353 0.18379728 0.81928444
0.90748209 0.25534377 0.77242601
0.78701645 0.00665698 0.66988868
0.86774457 0.02326928 0.73860246
0.93379134 0.04625871 0.79481983
0.98140734 0.07649671 0.83534938
0.99517989 0.11969779 0.84707218
0.96414471 0.18133231 0.82065582
0.90986687 0.25257015 0.77445590
0.83661616 0.33106884 0.71210670
0.74866235 0.41448584 0.63724262
0.93166512 0.04528985 0.79301006
0.98002565 0.07524574 0.83417326
0.99582309 0.11764378 0.84761965
0.96572441 0.17888032 0.82200044
0.91222602 0.24980637 0.77646393
0.83959764 0.32807946 0.71464449
0.75210911 0.41135699 0.64017642
0.65403008 0.49729651 0.55669403
0.54963046 0.58355540 0.46783167
0.99642885 0.11560605 0.84813523
0.96727246 0.17644145 0.82331812
0.91455930 0.24705255 0.77844995
0.84255904 0.32509682 0.71716517
0.75554150 0.40823177 0.64309800
0.65777647 0.49411485 0.55988288
0.55353373 0.58040351 0.47115403
0.44708300 0.66475528 0.38054582
0.34269407 0.74482757 0.29169261
0.91686642 0.24430877 0.78041375
0.84550011 0.32212108 0.71966851
0.75895941 0.40511027 0.64600724
0.66151410 0.49093375 0.56306422
0.55743402 0.57724899 0.47447386
0.45098886 0.66171348 0.38387042
0.34644842 0.74198472 0.29488823
0.24808250 0.81572014 0.21116161
0.16016087 0.88057727 0.13632493
0.76236254 0.40199259 0.64890391
0.66524273 0.48775330 0.56623799
0.56133109 0.57409197 0.47779095
0.45489728 0.65866607 0.38719717
0.35021114 0.73913306 0.29809093
0.25154242 0.81315047 0.21410660
0.16316089 0.87837565 0.13887846
0.08933634 0.93246621 0.07604085
0.03433852 0.97307956 0.02922809
0.09386173 0.00000000 0.07989275
0.16561830 0.00000000 0.14097016
0.25070819 0.00000000 0.21339653
0.34538192 0.00000000 0.29398042
0.44588995 0.00000000 0.37953037
0.54848284 0.00000000 0.46685484
0.64941102 0.00000000 0.55276245
0.74492514 0.00078667 0.63406157
0.83127552 0.01469409 0.70756090
0.24738503 0.00000000 0.21056794
0.34177259 0.00000000 0.29090828
0.44213244 0.00000000 0.37633204
0.54471505 0.00000000 0.46364781
0.64577097 0.00000000 0.54966402
0.74155062 0.00037753 0.63118929
0.82830459 0.01408207 0.70503211
0.90228337 0.03372071 0.76800096
0.95973742 0.06016491 0.81690443
0.43837792 0.00000000 0.37313631
0.54094517 0.00000000 0.46043900
0.64212370 0.00000000 0.54655957
0.73816389 0.00000000 0.62830663
0.82531637 0.01347809 0.70248860
0.89983153 0.03288298 0.76591408
0.95795995 0.05906137 0.81539154
0.99595213 0.09288472 0.84772950
0.98421782 0.14639200 0.83774155
0.63846946 0.00000000 0.54344922
0.73476517 0.00000000 0.62541372
0.82231104 0.01288209 0.69993055
0.89735758 0.03205441 0.76380831
0.95615530 0.05796817 0.81385541
0.99495471 0.09149482 0.84688050
0.98530650 0.14414629 0.83866823
0.94403511 0.21008053 0.80353904
0.88130611 0.28463879 0.75014567
0.81928879 0.01229404 0.69735807
0.89486158 0.03123496 0.76168376
0.95432353 0.05688527 0.81229627
0.99392509 0.09011641 0.84600413
0.98636031 0.14191541 0.83956522
0.94595981 0.20748770 0.80517727
0.88394451 0.28177023 0.75239146
0.80458432 0.36242041 0.68484199
0.71214890 0.44709578 0.60616332
0.95246488 0.05581263 0.81071424
0.99286354 0.08874944 0.84510058
0.98737913 0.13969950 0.84043241
0.94785523 0.20490669 0.80679059
0.88655949 0.27891025 0.75461721
0.80776173 0.35936770 0.68754655
0.71573168 0.44393647 0.60921288
0.61473918 0.53027403 0.52325058
0.50905401 0.61603791 0.43329400
0.98836267 0.13749866 0.84126955
0.94972116 0.20233756 0.80837888
0.88915074 0.27605903 0.75682282
0.81092125 0.35632053 0.69023585
0.71930236 0.44077957 0.61225218
0.61856395 0.52709359 0.52650613
0.51297569 0.61292005 0.43663207
0.40680745 0.69591647 0.34626430
0.30432895 0.77374029 0.25903720
0.89171815 0.27321663 0.75900811
0.81406260 0.35327905 0.69290972
0.72286069 0.43762517 0.61528093
0.62238210 0.52391243 0.52975607
0.51689667 0.60979837 0.43996948
0.41067407 0.69294041 0.34955549
0.30798417 0.77099603 0.26214844
0.21309674 0.84162271 0.18138261
0.13028152 0.90247792 0.11089236
0.72640646 0.43447340 0.61829895
0.62619346 0.52073073 0.53300023
0.52081656 0.60667294 0.44330603
0.41454548 0.68995744 0.35285074
0.31164998 0.76824170 0.26526865
0.21639983 0.83918321 0.18419412
0.13306484 0.90043938 0.11326145
0.06591474 0.94966781 0.05610497
0.01921933 0.98452586 0.01635901
0.11940911 0.00000000 0.10163803
0.19669154 0.00000000 0.16741891
0.28587773 0.00000000 0.24333195
0.38321817 0.00000000 0.32618570
0.48496336 0.00000000 0.41278866
0.58736378 0.00000000 0.49994937
0.68667001 0.00000000 0.58447629
0.77913249 0.00544091 0.66317809
0.86100179 0.02152026 0.73286313
0.28242919 0.00000000 0.24039665
0.37953606 0.00000000 0.32305160
0.48118564 0.00000000 0.40957317
0.58362842 0.00000000 0.49676991
0.68311489 0.00000000 0.58145028
0.77589560 0.00495820 0.66042292
0.85822099 0.02082245 0.73049623
0.92634165 0.04295306 0.78847879
0.97650802 0.07222150 0.83117914
0.47740901 0.00000000 0.40635860
0.57988906 0.00000000 0.49358702
0.67955071 0.00000000 0.57841659
0.77264458 0.00448279 0.65765572
0.85542107 0.02013312 0.72811300
0.92413068 0.04201776 0.78659689
0.97502398 0.07100816 0.82991600
0.99775559 0.11067414 0.84926456
0.97093660 0.17051145 0.82643694
0.67597765 0.00000000 0.57537526
0.76937956 0.00401464 0.65487659
0.85260201 0.01945224 0.72571349
0.92189562 0.04109208 0.78469449
0.97351080 0.06980562 0.82862800
0.99823034 0.10869357 0.84966868
0.97237360 0.16811879 0.82766008
0.92241746 0.23761743 0.78513861
0.85263157 0.31484696 0.72573864
0.84976417 0.01877974 0.72329795
0.91963661 0.04017597 0.78277165
0.97196865 0.06861383 0.82731533
0.99866670 0.10672981 0.85004008
0.97377801 0.16573974 0.82885545
0.92463279 0.23490930 0.78702426
0.85550076 0.31189594 0.72818083
0.77065176 0.39435712 0.65595943
0.67435545 0.47995031 0.57399446
0.97039765 0.06743276 0.82597816
0.99906445 0.10478296 0.85037863
0.97514957 0.16337447 0.83002287
0.92682105 0.23221175 0.78888690
0.85834873 0.30895230 0.73060489
0.77400225 0.39125359 0.65881133
0.67805147 0.47677305 0.57714039
0.57476610 0.56316823 0.48922652
0.46841604 0.64809650 0.39870399
0.97648811 0.16102305 0.83116221
0.92898208 0.22952491 0.79072630
0.86117518 0.30601621 0.73301071
0.77733701 0.38815442 0.66164982
0.68173754 0.47359699 0.58027792
0.57864636 0.56000143 0.49252930
0.47233337 0.64502519 0.40203834
0.36706829 0.72632575 0.31243932
0.26712090 0.80156058 0.22736663
0.86397988 0.30308774 0.73539805
0.78065592 0.38505971 0.66447479
0.68541342 0.47042224 0.58340675
0.58252227 0.55683279 0.49582836
0.47625214 0.64194888 0.40537387
0.37087286 0.72342789 0.31567767
0.27065417 0.79892743 0.23037405
0.17986588 0.86610484 0.15309733
0.10277776 0.92261761 0.08748186
0.68907899 0.46724889 0.58652681
0.58639354 0.55366242 0.49912351
0.48017210 0.63886762 0.40871045
0.37468439 0.72052193 0.31892195
0.27420020 0.79628295 0.23339234
0.18298933 0.86380804 0.15575594
0.10532153 0.92075467 0.08964705
0.04546659 0.96478039 0.03870003
0.00769427 0.99354261 0.00654917
0.14723195 0.00000000 0.12532015
0.22949520 0.00000000 0.19534056
0.32223260 0.00000000 0.27427632
0.42169473 0.00000000 0.35893598
0.52413201 0.00000000 0.44612804
0.62579495 0.00000000 0.53266102
0.72293413 0.00000000 0.61534345
0.81180000 0.01088405 0.69098383
0.88864303 0.02926201 0.75639069
0.31867877 0.00000000 0.27125138
0.41795990 0.00000000 0.35575700
0.52035415 0.00000000 0.44291243
0.62211204 0.00000000 0.52952617
0.71948409 0.00000000 0.61240685
0.80872077 0.01032311 0.68836284
0.88607252 0.02847375 0.75420272
0.94778997 0.05322302 0.80673510
0.99012357 0.08544237 0.84276837
0.51657546 0.00000000 0.43969610
0.61842322 0.00000000 0.52638632
0.71602303 0.00000000 0.60946083
0.80562538 0.00976992 0.68572813
0.88348085 0.02769443 0.75199682
0.94583994 0.05218549 0.80507523
0.98895305 0.08411459 0.84177208
0.99062610 0.13216127 0.84319609
0.95417494 0.19608274 0.81216985
0.71255112 0.00000000 0.60650569
0.80251414 0.00922444 0.68307996
0.88086826 0.02692399 0.74977297
0.94386381 0.05115803 0.80339324
0.98775142 0.08279805 0.84074926
0.99148625 0.13001341 0.84392828
0.95593750 0.19355564 0.81367004
0.89791715 0.26627815 0.76428461
0.82169509 0.34583843 0.69940633
0.87823480 0.02616239 0.74753147
0.94186187 0.05014060 0.80168921
0.98651886 0.08149271 0.83970016
0.99231023 0.12788115 0.84462959
0.95766962 0.19104096 0.81514436
0.90040034 0.26346725 0.76639825
0.82477224 0.34281746 0.70202547
0.73505509 0.42674908 0.62566048
0.63551867 0.51291960 0.54093754
0.98525554 0.08019853 0.83862484
0.99309778 0.12576459 0.84529996
0.95937109 0.18853883 0.81659263
0.90285867 0.26066571 0.76849067
0.82783031 0.33980271 0.70462847
0.73855585 0.42360729 0.62864023
0.63930500 0.50973696 0.54416043
0.53434753 0.59584916 0.45482326
0.42795324 0.67960131 0.36426309
0.96104169 0.18604936 0.81801462
0.90529191 0.25787365 0.77056181
0.83086914 0.33679426 0.70721501
0.74204314 0.42046866 0.63160849
0.64308363 0.50655425 0.54737669
0.53826046 0.59270859 0.45815381
0.43184337 0.67658913 0.36757427
0.32810214 0.75585330 0.27927232
0.23130655 0.82815862 0.19688235
0.83388847 0.33379227 0.70978492
0.74551666 0.41733325 0.63456511
0.64685434 0.50337166 0.55058616
0.54217124 0.58956498 0.46148255
0.43573710 0.67357069 0.37088853
0.33182180 0.75304615 0.28243840
0.23469503 0.82564902 0.19976653
0.14862660 0.88903666 0.12650724
0.07788625 0.94086647 0.06629483
0.65061688 0.50018930 0.55378878
0.54607958 0.58641839 0.46480927
0.43963426 0.67054605 0.37420568
0.33555064 0.75022978 0.28561229
0.23809847 0.82312691 0.20266345
0.15154755 0.88689506 0.12899348
0.08016765 0.93919164 0.06823669
0.02822854 0.97767413 0.02402743
0.00000000 1.00000000 0.00000000
