[X] Isn't Not Scary/[X] Isn't Not Scary.cube
# VEGAS Pro LUT
TITLE "[X] Isn't Not Scary"
LUT_3D_SIZE 5
0.00000000 0.00000000 0.00000000
0.07622119 0.00000000 0.06487757
0.22508745 0.00000000 0.19158880
0.41660282 0.00000000 0.35460189
0.62077135 0.00000000 0.52838498
0.21867144 0.00000000 0.18612765
0.40914926 0.00000000 0.34825760
0.61338371 0.00000000 0.52209687
0.80137891 0.00902799 0.68211365
0.94313884 0.05078690 0.80277616
0.60597414 0.00000000 0.51578999
0.79509819 0.00796552 0.67676771
0.93909055 0.04876926 0.79933035
0.99337506 0.12499887 0.84553599
0.90374643 0.25964931 0.76924628
0.93494064 0.04679131 0.79579800
0.99481332 0.12082498 0.84676015
0.90856922 0.25408182 0.77335137
0.74677634 0.41619393 0.63563728
0.54359275 0.58842111 0.46269253
0.91328984 0.24855340 0.77736944
0.75367105 0.40993598 0.64150596
0.55140501 0.58212304 0.46934214
0.34064984 0.74637443 0.28995261
0.15556373 0.88394976 0.13241194
0.01858325 0.00032353 0.01581760
0.12603997 0.00000000 0.10728206
0.29470518 0.00000000 0.25084567
0.49458289 0.00000000 0.42097658
0.69567716 0.00000000 0.59214294
0.28776342 0.00000000 0.24493700
0.48702431 0.00000000 0.41454288
0.68860525 0.00000000 0.58612359
0.86251038 0.02190447 0.73414725
0.97874361 0.07411800 0.83308202
0.68149596 0.00000000 0.58007228
0.85695070 0.02050807 0.72941494
0.97583711 0.07166864 0.83060807
0.97013915 0.17182225 0.82575810
0.84815598 0.31942195 0.72192913
0.97281343 0.06926257 0.82803440
0.97301602 0.16703571 0.82820690
0.85393834 0.31350467 0.72685093
0.67233539 0.48168382 0.57227504
0.46236524 0.65283287 0.39355370
0.85963613 0.30761677 0.73170072
0.67972821 0.47532925 0.57856762
0.47019646 0.64670110 0.40021944
0.26519912 0.80299211 0.22573085
0.09889439 0.92546207 0.08417643
0.05042467 0.00000000 0.04292021
0.18475647 0.00000000 0.15726008
0.36886019 0.00000000 0.31396455
0.57273978 0.00000000 0.48750177
0.76639938 0.00359531 0.65233994
0.36155307 0.00000000 0.30774492
0.56523663 0.00000000 0.48111525
0.75980365 0.00269361 0.64672583
0.91525823 0.03845346 0.77904487
0.99939233 0.10302788 0.85065770
0.75315499 0.00182026 0.64106667
0.91057998 0.03668585 0.77506286
1.00000000 0.09921671 0.85117495
0.93303120 0.22442560 0.79417276
0.78365910 0.38225034 0.66703099
0.99826300 0.09634524 0.84969646
0.93716413 0.21912661 0.79769063
0.79021835 0.37608346 0.67261404
0.59377074 0.54760540 0.50540280
0.38197958 0.71495217 0.32513145
0.79671061 0.36993632 0.67814010
0.60147893 0.54125446 0.51196384
0.38964704 0.70908684 0.33165780
0.19537306 0.85469335 0.16629665
0.05281520 0.95933366 0.04495497
0.09386173 0.00000000 0.07989275
0.25070819 0.00000000 0.21339653
0.44588995 0.00000000 0.37953037
0.64941102 0.00000000 0.55276245
0.83127552 0.01469409 0.70756090
0.43837792 0.00000000 0.37313631
0.64212370 0.00000000 0.54655957
0.82531637 0.01347809 0.70248860
0.95795995 0.05906137 0.81539154
0.98421782 0.14639200 0.83774155
0.81928879 0.01229404 0.69735807
0.95432353 0.05688527 0.81229627
0.98636031 0.14191541 0.83956522
0.88394451 0.28177023 0.75239146
0.71214890 0.44709578 0.60616332
0.98836267 0.13749866 0.84126955
0.88915074 0.27605903 0.75682282
0.71930236 0.44077957 0.61225218
0.51297569 0.61292005 0.43663207
0.30432895 0.77374029 0.25903720
0.72640646 0.43447340 0.61829895
0.52081656 0.60667294 0.44330603
0.31164998 0.76824170 0.26526865
0.13306484 0.90043938 0.11326145
0.01921933 0.98452586 0.01635901
0.14723195 0.00000000 0.12532015
0.32223260 0.00000000 0.27427632
0.52413201 0.00000000 0.44612804
0.72293413 0.00000000 0.61534345
0.88864303 0.02926201 0.75639069
0.51657546 0.00000000 0.43969610
0.71602303 0.00000000 0.60946083
0.88348085 0.02769443 0.75199682
0.98895305 0.08411459 0.84177208
0.95417494 0.19608274 0.81216985
0.87823480 0.02616239 0.74753147
0.98651886 0.08149271 0.83970016
0.95766962 0.19104096 0.81514436
0.82477224 0.34281746 0.70202547
0.63551867 0.51291960 0.54093754
0.96104169 0.18604936 0.81801462
0.83086914 0.33679426 0.70721501
0.64308363 0.50655425 0.54737669
0.43184337 0.67658913 0.36757427
0.23130655 0.82815862 0.19688235
0.65061688 0.50018930 0.55378878
0.43963426 0.67054605 0.37420568
0.23809847 0.82312691 0.20266345
0.08016765 0.93919164 0.06823669
0.00000000 1.00000000 0.00000000
