Oh Toodles Effect V3/Oh Toodles Effect V3.cube
# VEGAS Pro LUT
TITLE "Oh Toodles Effect V3"
LUT_3D_SIZE 33
1.00000000 1.00000000 0.50980395
0.99994737 0.99831659 0.50862682
0.99987793 0.99609357 0.50698435
0.99979222 0.99335051 0.50489587
0.99969083 0.99010688 0.50238073
0.99957442 0.98638231 0.49945816
0.99944365 0.98219627 0.49614748
0.99929899 0.97756845 0.49246806
0.99914122 0.97251832 0.48843914
0.99897081 0.96706545 0.48408005
0.99878842 0.96122938 0.47941011
0.99859470 0.95502973 0.47444862
0.99839020 0.94848597 0.46921486
0.99817556 0.94161773 0.46372819
0.99795139 0.93444455 0.45800787
0.99771833 0.92698592 0.45207322
0.99747694 0.91926152 0.44594356
0.99722785 0.91129076 0.43963820
0.99697167 0.90309328 0.43317643
0.99670905 0.89468867 0.42657757
0.99644053 0.88609642 0.41986093
0.99616677 0.87733614 0.41304579
0.99588835 0.86842734 0.40615150
0.99560595 0.85938954 0.39919734
0.99532008 0.85024244 0.39220262
0.99503142 0.84100544 0.38518664
0.99474055 0.83169818 0.37816873
0.99444813 0.82234019 0.37116820
0.99415469 0.81295109 0.36420432
0.99386096 0.80355030 0.35729641
0.99356741 0.79415751 0.35046381
0.99327475 0.78479224 0.34372580
0.99298358 0.77547401 0.33710167
0.99988079 0.99618471 0.50705278
0.99979562 0.99346036 0.50498039
0.99969482 0.99023485 0.50248057
0.99957901 0.98652762 0.49957266
0.99944872 0.98235822 0.49627593
0.99930459 0.97774631 0.49260974
0.99914724 0.97271138 0.48859334
0.99897730 0.96727294 0.48424605
0.99879533 0.96145070 0.47958720
0.99860197 0.95526403 0.47463608
0.99839789 0.94873261 0.46941200
0.99818361 0.94187593 0.46393427
0.99795979 0.93471360 0.45822224
0.99772704 0.92726517 0.45229512
0.99748594 0.91955012 0.44617230
0.99723715 0.91158813 0.43987307
0.99698120 0.90339869 0.43341672
0.99671876 0.89500129 0.42682254
0.99645048 0.88641560 0.42010990
0.99617690 0.87766117 0.41329804
0.99589866 0.86875749 0.40640631
0.99561638 0.85972410 0.39945403
0.99533063 0.85058063 0.39246044
0.99504209 0.84134662 0.38544491
0.99475127 0.83204162 0.37842673
0.99445891 0.82268512 0.37142521
0.99416554 0.81329679 0.36445963
0.99387175 0.80389613 0.35754934
0.99357820 0.79450268 0.35071361
0.99328548 0.78513604 0.34397179
0.99299425 0.77581573 0.33734313
0.99270505 0.76656133 0.33084697
0.99241853 0.75739235 0.32450265
0.99969882 0.99036217 0.50257993
0.99958348 0.98667228 0.49968666
0.99945372 0.98251957 0.49640390
0.99931014 0.97792357 0.49275094
0.99915326 0.97290385 0.48874706
0.99898374 0.96747994 0.48441163
0.99880224 0.96167147 0.47976390
0.99860930 0.95549786 0.47482318
0.99840558 0.94897878 0.46960881
0.99819165 0.94213372 0.46414009
0.99796820 0.93498230 0.45843631
0.99773574 0.92754400 0.45251676
0.99749494 0.91983849 0.44640079
0.99724638 0.91188520 0.44010770
0.99699074 0.90370375 0.43365678
0.99672854 0.89531368 0.42706737
0.99646044 0.88673460 0.42035872
0.99618709 0.87798601 0.41355020
0.99590898 0.86908746 0.40666106
0.99562681 0.86005849 0.39971066
0.99534118 0.85091877 0.39271826
0.99505275 0.84168768 0.38570318
0.99476200 0.83238494 0.37868476
0.99446970 0.82303005 0.37168226
0.99417633 0.81364256 0.36471504
0.99388254 0.80424196 0.35780236
0.99358898 0.79484791 0.35096356
0.99329627 0.78547996 0.34421793
0.99300492 0.77615756 0.33758476
0.99271566 0.76690042 0.33108339
0.99242902 0.75772798 0.32473314
0.99214560 0.74865979 0.31855327
0.99186611 0.73971552 0.31256309
0.99945879 0.98268032 0.49653134
0.99931562 0.97810030 0.49289164
0.99915922 0.97309583 0.48890036
0.99899018 0.96768641 0.48457676
0.99880910 0.96189171 0.47994018
0.99861658 0.95573121 0.47500992
0.99841326 0.94922447 0.46980527
0.99819970 0.94239110 0.46434554
0.99797660 0.93525058 0.45865008
0.99774444 0.92782253 0.45273814
0.99750394 0.92012644 0.44662908
0.99725568 0.91218197 0.44034216
0.99700028 0.90400857 0.43389669
0.99673831 0.89562583 0.42731202
0.99647039 0.88705331 0.42060742
0.99619722 0.87831062 0.41380221
0.99591929 0.86941725 0.40691569
0.99563730 0.86039275 0.39996719
0.99535179 0.85125673 0.39297602
0.99506342 0.84202868 0.38596144
0.99477273 0.83272827 0.37894279
0.99448049 0.82337493 0.37193939
0.99418712 0.81398827 0.36497051
0.99389338 0.80458784 0.35805547
0.99359977 0.79519320 0.35121360
0.99330699 0.78582388 0.34446421
0.99301559 0.77649951 0.33782658
0.99272627 0.76723957 0.33132002
0.99243951 0.75806367 0.32496384
0.99215597 0.74899131 0.31877738
0.99187630 0.74004215 0.31277990
0.99160111 0.73123562 0.30699071
0.99133098 0.72259134 0.30142915
0.99916524 0.97328722 0.48905319
0.99899662 0.96789241 0.48474148
0.99881601 0.96211153 0.48011607
0.99862391 0.95596409 0.47519627
0.99842095 0.94946980 0.47000137
0.99820775 0.94264805 0.46455070
0.99798495 0.93551850 0.45886356
0.99775314 0.92810065 0.45295924
0.99751294 0.92041409 0.44685709
0.99726492 0.91247839 0.44057637
0.99700975 0.90431309 0.43413639
0.99674803 0.89593774 0.42755651
0.99648035 0.88737184 0.42085597
0.99620736 0.87863505 0.41405413
0.99592960 0.86974686 0.40717027
0.99564773 0.86072683 0.40022370
0.99536234 0.85159457 0.39323375
0.99507403 0.84236962 0.38621968
0.99478346 0.83307147 0.37920085
0.99449122 0.82371974 0.37219653
0.99419796 0.81433392 0.36522606
0.99390417 0.80493367 0.35830870
0.99361056 0.79553849 0.35146379
0.99331772 0.78616792 0.34471065
0.99302632 0.77684152 0.33806857
0.99273682 0.76757890 0.33155686
0.99245000 0.75839955 0.32519481
0.99216634 0.74932301 0.31900173
0.99188656 0.74036896 0.31299695
0.99161112 0.73155683 0.30719978
0.99134082 0.72290623 0.30162951
0.99107617 0.71443671 0.29630545
0.99081773 0.70616782 0.29124692
0.99882281 0.96233082 0.48029158
0.99863112 0.95619655 0.47538227
0.99842858 0.94971460 0.47019714
0.99821579 0.94290459 0.46475554
0.99799329 0.93578601 0.45907676
0.99776185 0.92837846 0.45318010
0.99752194 0.92070144 0.44708484
0.99727422 0.91277456 0.44081035
0.99701929 0.90461731 0.43437591
0.99675781 0.89624935 0.42780083
0.99649030 0.88769013 0.42110440
0.99621749 0.87895930 0.41430596
0.99593991 0.87007630 0.40742475
0.99565816 0.86106080 0.40048015
0.99537289 0.85193229 0.39349145
0.99508470 0.84271038 0.38647795
0.99479419 0.83341461 0.37945893
0.99450201 0.82406449 0.37245375
0.99420875 0.81467962 0.36548167
0.99391496 0.80527955 0.35856202
0.99362135 0.79588377 0.35171410
0.99332851 0.78651196 0.34495723
0.99303699 0.77718365 0.33831072
0.99274743 0.76791829 0.33179387
0.99246049 0.75873554 0.32542598
0.99217671 0.74965489 0.31922635
0.99189675 0.74069595 0.31321430
0.99162120 0.73187828 0.30740917
0.99135065 0.72322142 0.30183020
0.99108577 0.71474487 0.29649672
0.99082714 0.70646828 0.29142809
0.99057537 0.69841111 0.28664353
0.99033105 0.69059300 0.28216243
0.99843621 0.94995904 0.47039255
0.99822378 0.94316071 0.46496007
0.99800164 0.93605316 0.45928964
0.99777049 0.92865586 0.45340067
0.99753088 0.92098844 0.44731238
0.99728346 0.91307038 0.44104415
0.99702877 0.90492129 0.43461525
0.99676752 0.89656067 0.42804500
0.99650025 0.88800818 0.42135268
0.99622762 0.87928331 0.41455764
0.99595016 0.87040555 0.40767914
0.99566859 0.86139458 0.40073654
0.99538344 0.85226995 0.39374912
0.99509537 0.84305108 0.38673618
0.99480492 0.83375764 0.37971702
0.99451280 0.82440919 0.37271097
0.99421954 0.81502527 0.36573735
0.99392581 0.80562538 0.35881543
0.99363214 0.79622918 0.35196453
0.99333924 0.78685611 0.34520400
0.99304765 0.77752584 0.33855307
0.99275804 0.76825780 0.33203110
0.99247098 0.75907165 0.32565740
0.99218708 0.74998695 0.31945124
0.99190700 0.74102318 0.31343195
0.99163127 0.73219997 0.30761883
0.99136055 0.72353679 0.30203122
0.99109542 0.71505332 0.29668838
0.99083656 0.70676899 0.29160964
0.99058449 0.69870341 0.28681430
0.99033988 0.69087619 0.28232169
0.99010336 0.68330681 0.27815109
0.98987544 0.67601484 0.27432182
0.99800998 0.93631989 0.45950225
0.99777913 0.92893291 0.45362097
0.99753982 0.92127508 0.44753969
0.99729270 0.91336590 0.44127771
0.99703830 0.90522492 0.43485439
0.99677724 0.89687181 0.42828900
0.99651021 0.88832599 0.42160082
0.99623770 0.87960708 0.41480923
0.99596047 0.87073463 0.40793347
0.99567902 0.86172825 0.40099287
0.99539399 0.85260743 0.39400676
0.99510598 0.84339172 0.38699439
0.99481565 0.83410066 0.37997514
0.99452358 0.82475388 0.37296829
0.99423033 0.81537092 0.36599311
0.99393660 0.80597126 0.35906896
0.99364293 0.79657453 0.35221511
0.99335003 0.78720033 0.34545088
0.99305838 0.77786809 0.33879560
0.99276865 0.76859742 0.33226854
0.99248147 0.75940794 0.32588902
0.99219745 0.75031912 0.31967637
0.99191719 0.74135059 0.31364986
0.99164128 0.73252183 0.30782881
0.99137038 0.72385246 0.30223256
0.99110508 0.71536201 0.29688036
0.99084592 0.70706999 0.29179159
0.99059361 0.69899607 0.28698549
0.99034876 0.69115973 0.28248137
0.99011189 0.68358046 0.27829859
0.98988366 0.67627800 0.27445644
0.98966473 0.66927171 0.27097419
0.98945564 0.66258126 0.26787117
0.99754882 0.92156136 0.44776672
0.99730194 0.91366106 0.44151106
0.99704778 0.90552831 0.43509334
0.99678695 0.89718264 0.42853281
0.99652010 0.88864356 0.42184883
0.99624783 0.87993068 0.41506070
0.99597073 0.87106359 0.40818769
0.99568945 0.86206174 0.40124914
0.99540454 0.85294473 0.39426434
0.99511665 0.84373218 0.38725263
0.99482638 0.83444357 0.38023329
0.99453431 0.82509851 0.37322560
0.99424112 0.81571651 0.36624894
0.99394739 0.80631715 0.35932255
0.99365377 0.79691994 0.35246578
0.99336076 0.78754455 0.34569791
0.99306905 0.77821046 0.33903828
0.99277931 0.76893717 0.33250615
0.99249202 0.75974435 0.32612088
0.99220788 0.75065148 0.31990173
0.99192744 0.74167818 0.31386805
0.99165136 0.73284394 0.30803910
0.99138027 0.72416836 0.30243424
0.99111474 0.71567094 0.29707274
0.99085534 0.70737129 0.29197389
0.99060279 0.69928902 0.28715706
0.99035764 0.69144356 0.28264150
0.99012047 0.68385452 0.27844656
0.98989195 0.67654151 0.27459154
0.98967260 0.66952401 0.27109569
0.98946315 0.66282159 0.26797840
0.98926419 0.65645385 0.26525894
0.98907626 0.65044034 0.26295659
0.99705726 0.90583140 0.43533209
0.99679667 0.89749318 0.42877647
0.99653006 0.88896090 0.42209670
0.99625796 0.88025409 0.41531205
0.99598104 0.87139231 0.40844181
0.99569982 0.86239505 0.40150532
0.99541503 0.85328197 0.39452189
0.99512726 0.84407258 0.38751084
0.99483711 0.83478642 0.38049144
0.99454510 0.82544309 0.37348297
0.99425197 0.81606209 0.36650482
0.99395823 0.80666304 0.35957626
0.99366456 0.79726541 0.35271659
0.99337155 0.78788882 0.34594512
0.99307978 0.77855289 0.33928114
0.99278992 0.76927704 0.33274400
0.99250251 0.76008087 0.32635295
0.99221826 0.75098401 0.32012737
0.99193770 0.74200594 0.31408650
0.99166143 0.73316628 0.30824968
0.99139017 0.72448450 0.30263624
0.99112439 0.71598017 0.29726544
0.99086475 0.70767295 0.29215661
0.99061197 0.69958228 0.28732905
0.99036652 0.69172776 0.28280208
0.99012905 0.68412894 0.27859500
0.98990017 0.67680544 0.27472711
0.98968053 0.66977668 0.27121773
0.98947072 0.66306239 0.26808617
0.98927128 0.65668195 0.26535171
0.98908299 0.65065503 0.26303369
0.98890626 0.64500117 0.26115137
0.98874187 0.63973993 0.25972414
0.99653995 0.88927805 0.42234442
0.99626803 0.88057727 0.41556329
0.99599129 0.87172085 0.40869585
0.99571025 0.86272824 0.40176147
0.99542558 0.85361904 0.39477941
0.99513793 0.84441286 0.38776904
0.99484777 0.83512920 0.38074958
0.99455589 0.82578760 0.37374040
0.99426275 0.81640762 0.36676079
0.99396902 0.80700892 0.35983005
0.99367535 0.79761088 0.35296750
0.99338228 0.78823322 0.34619245
0.99309051 0.77889538 0.33952418
0.99280053 0.76961702 0.33298200
0.99251306 0.76041758 0.32658526
0.99222863 0.75131673 0.32035324
0.99194795 0.74233389 0.31430525
0.99167150 0.73348880 0.30846059
0.99140000 0.72480083 0.30283856
0.99113405 0.71628970 0.29745850
0.99087423 0.70797485 0.29233968
0.99062115 0.69987583 0.28750145
0.99037540 0.69201231 0.28296307
0.99013764 0.68440378 0.27874386
0.98990846 0.67706972 0.27486315
0.98968846 0.67002982 0.27134025
0.98947823 0.66330361 0.26819444
0.98927844 0.65691054 0.26544502
0.98908967 0.65087026 0.26311135
0.98891258 0.64520234 0.26121268
0.98874772 0.63992625 0.25976837
0.98859566 0.63506168 0.25879768
0.98845714 0.63062805 0.25831991
0.99600154 0.87204915 0.40894982
0.99572068 0.86306125 0.40201753
0.99543613 0.85395604 0.39503691
0.99514854 0.84475303 0.38802722
0.99485850 0.83547187 0.38100776
0.99456662 0.82613206 0.37399787
0.99427354 0.81675321 0.36701682
0.99397981 0.80735475 0.36008394
0.99368614 0.79795641 0.35321853
0.99339306 0.78857762 0.34643993
0.99310118 0.77923799 0.33976737
0.99281114 0.76995707 0.33322024
0.99252355 0.76075441 0.32681781
0.99223906 0.75164956 0.32057938
0.99195820 0.74266207 0.31452426
0.99168164 0.73381150 0.30867177
0.99140990 0.72511744 0.30304122
0.99114370 0.71659946 0.29765192
0.99088365 0.70827705 0.29252315
0.99063033 0.70016974 0.28767425
0.99038428 0.69229722 0.28312451
0.99014622 0.68467891 0.27889320
0.98991668 0.67733449 0.27499971
0.98969638 0.67028338 0.27146330
0.98948580 0.66354525 0.26830328
0.98928559 0.65713960 0.26553893
0.98909646 0.65108603 0.26318961
0.98891890 0.64540404 0.26127461
0.98875356 0.64011323 0.25981322
0.98860103 0.63523310 0.25882477
0.98846197 0.63078326 0.25832853
0.98833698 0.62678331 0.25834385
0.98823404 0.62348896 0.25920203
0.99544662 0.85429287 0.39529437
0.99515915 0.84509313 0.38828540
0.99486923 0.83581448 0.38126594
0.99457741 0.82647645 0.37425536
0.99428433 0.81709868 0.36727291
0.99399066 0.80770063 0.36033791
0.99369693 0.79830194 0.35346970
0.99340379 0.78892207 0.34668753
0.99311191 0.77958065 0.34001076
0.99282181 0.77029723 0.33345866
0.99253410 0.76109135 0.32705057
0.99224943 0.75198257 0.32080576
0.99196845 0.74299043 0.31474355
0.99169171 0.73413450 0.30888328
0.99141985 0.72543430 0.30324423
0.99115342 0.71690947 0.29784569
0.99089313 0.70857948 0.29270700
0.99063951 0.70046401 0.28784746
0.99039322 0.69258243 0.28328636
0.99015480 0.68495446 0.27904302
0.98992497 0.67759961 0.27513674
0.98970431 0.67053735 0.27158684
0.98949337 0.66378736 0.26841262
0.98929280 0.65736914 0.26563340
0.98910320 0.65130228 0.26326847
0.98892522 0.64560628 0.26133713
0.98875940 0.64030069 0.25985873
0.98860639 0.63540512 0.25885251
0.98846686 0.63093913 0.25833786
0.98834133 0.62692225 0.25833401
0.98823458 0.62350613 0.25903454
0.98823154 0.62340844 0.26411611
0.98825175 0.62405670 0.27026740
0.99487990 0.83615702 0.38152415
0.99458814 0.82682085 0.37451288
0.99429512 0.81744415 0.36752906
0.99400145 0.80804652 0.36059198
0.99370772 0.79864752 0.35372096
0.99341458 0.78926659 0.34693530
0.99312258 0.77992344 0.34025431
0.99283242 0.77063751 0.33369726
0.99254465 0.76142842 0.32728353
0.99225986 0.75231570 0.32103238
0.99197870 0.74331892 0.31496313
0.99170178 0.73445761 0.30909508
0.99142975 0.72575140 0.30344754
0.99116313 0.71721977 0.29803982
0.99090254 0.70888227 0.29289123
0.99064869 0.70075852 0.28802106
0.99040210 0.69286805 0.28344864
0.99016345 0.68523037 0.27919328
0.98993331 0.67786509 0.27527425
0.98971224 0.67079175 0.27171090
0.98950094 0.66402996 0.26852253
0.98929995 0.65759915 0.26572841
0.98910999 0.65151900 0.26334792
0.98893154 0.64580899 0.26140028
0.98876530 0.64048874 0.25990486
0.98861182 0.63557774 0.25888094
0.98847175 0.63109559 0.25834784
0.98834568 0.62706184 0.25832486
0.98823512 0.62352431 0.25886855
0.98823118 0.62339866 0.26390994
0.98825061 0.62401992 0.27002263
0.98829252 0.62536055 0.27716377
0.98835605 0.62739283 0.28529051
0.99430591 0.81778961 0.36778527
0.99401224 0.80839241 0.36084613
0.99371850 0.79899305 0.35397235
0.99342537 0.78961116 0.34718320
0.99313331 0.78026628 0.34049800
0.99284303 0.77097791 0.33393607
0.99255520 0.76176560 0.32751673
0.99227029 0.75264901 0.32125926
0.99198902 0.74364763 0.31518295
0.99171191 0.73478103 0.30930716
0.99143964 0.72606874 0.30365118
0.99117285 0.71753031 0.29823428
0.99091202 0.70918536 0.29307583
0.99065793 0.70105338 0.28819507
0.99041104 0.69315398 0.28361136
0.99017209 0.68550664 0.27934399
0.98994160 0.67813098 0.27541226
0.98972023 0.67104661 0.27183548
0.98950851 0.66427296 0.26863295
0.98930717 0.65782964 0.26582402
0.98911673 0.65173626 0.26342794
0.98893785 0.64601231 0.26146403
0.98877114 0.64067733 0.25995165
0.98861724 0.63575095 0.25891003
0.98847663 0.63125271 0.25835854
0.98835009 0.62720209 0.25831646
0.98823810 0.62361872 0.25880307
0.98823094 0.62338990 0.26370522
0.98824948 0.62398416 0.26977926
0.98829061 0.62529880 0.27688333
0.98835331 0.62730610 0.28497458
0.98843682 0.62997854 0.29401010
0.98854029 0.63328850 0.30394712
0.99372935 0.79933870 0.35422385
0.99343610 0.78995579 0.34743124
0.99314404 0.78060919 0.34074187
0.99285370 0.77131838 0.33417508
0.99256569 0.76210296 0.32775015
0.99228072 0.75298250 0.32148635
0.99199927 0.74397653 0.31540307
0.99172205 0.73510462 0.30951956
0.99144959 0.72638625 0.30385512
0.99118251 0.71784115 0.29842910
0.99092150 0.70948869 0.29326078
0.99066716 0.70134854 0.28836948
0.99041998 0.69344020 0.28377450
0.99018073 0.68578333 0.27949515
0.98994994 0.67839730 0.27555072
0.98972821 0.67130184 0.27196056
0.98951614 0.66451645 0.26874393
0.98931438 0.65806061 0.26592016
0.98912358 0.65195400 0.26350856
0.98894423 0.64621609 0.26152840
0.98877710 0.64086652 0.25999907
0.98862267 0.63592470 0.25893980
0.98848158 0.63141036 0.25836992
0.98835444 0.62734294 0.25830874
0.98824191 0.62374204 0.25877559
0.98823071 0.62338209 0.26350197
0.98824841 0.62394935 0.26953730
0.98828870 0.62523800 0.27660424
0.98835063 0.62722033 0.28465989
0.98843342 0.62986881 0.29366148
0.98853612 0.63315576 0.30356607
0.98865795 0.63705355 0.31433088
0.98879796 0.64153469 0.32591301
0.99315476 0.78095216 0.34098592
0.99286437 0.77165896 0.33441427
0.99257624 0.76244044 0.32798377
0.99229115 0.75331610 0.32171372
0.99200952 0.74430561 0.31562343
0.99173212 0.73542839 0.30973223
0.99145949 0.72670406 0.30405942
0.99119228 0.71815223 0.29862428
0.99093103 0.70979232 0.29344615
0.99067640 0.70164400 0.28854430
0.99042898 0.69372684 0.28393808
0.99018937 0.68606031 0.27964675
0.98995823 0.67866403 0.27568969
0.98973620 0.67155749 0.27208614
0.98952377 0.66476035 0.26885542
0.98932165 0.65829206 0.26601684
0.98913038 0.65217227 0.26358974
0.98895061 0.64642042 0.26159340
0.98878300 0.64105618 0.26004711
0.98862809 0.63609910 0.25897020
0.98848653 0.63156861 0.25838199
0.98835891 0.62748444 0.25830176
0.98824579 0.62386602 0.25874883
0.98823047 0.62337536 0.26330018
0.98824733 0.62391555 0.26929674
0.98828679 0.62517810 0.27632645
0.98834801 0.62713546 0.28434652
0.98843002 0.62975985 0.29331404
0.98853201 0.63302380 0.30318618
0.98865312 0.63689965 0.31392011
0.98879248 0.64135981 0.32547292
0.98894924 0.64637661 0.33780181
0.98912257 0.65192246 0.35086393
0.99258679 0.76277804 0.32821763
0.99230158 0.75364989 0.32194132
0.99201983 0.74463481 0.31584409
0.99174225 0.73575240 0.30994523
0.99146944 0.72702211 0.30426401
0.99120200 0.71846354 0.29881981
0.99094051 0.71009624 0.29363185
0.99068564 0.70193982 0.28871951
0.99043792 0.69401377 0.28410208
0.99019808 0.68633771 0.27979884
0.98996657 0.67893112 0.27582911
0.98974419 0.67181361 0.27221221
0.98953140 0.66500467 0.26896745
0.98932886 0.65852398 0.26611412
0.98913723 0.65239102 0.26367152
0.98895705 0.64662528 0.26165897
0.98878896 0.64124644 0.26009580
0.98863357 0.63627398 0.25900128
0.98849148 0.63172752 0.25839475
0.98836333 0.62762654 0.25829548
0.98824972 0.62399065 0.25872281
0.98823029 0.62336963 0.26309982
0.98824632 0.62388271 0.26905754
0.98828495 0.62511921 0.27605003
0.98834538 0.62705141 0.28403440
0.98842663 0.62965184 0.29296786
0.98852789 0.63289273 0.30280748
0.98864836 0.63674653 0.31351045
0.98878706 0.64118570 0.32503390
0.98894322 0.64618248 0.33733499
0.98911589 0.65170938 0.35037088
0.98930430 0.65773869 0.36409870
0.98950762 0.66424286 0.37847561
0.99203014 0.74496424 0.31606501
0.99175239 0.73607659 0.31015849
0.99147940 0.72734034 0.30446896
0.99121171 0.71877515 0.29901567
0.99094999 0.71040046 0.29381797
0.99069488 0.70223594 0.28889513
0.99044693 0.69430107 0.28426650
0.99020672 0.68661541 0.27995136
0.98997498 0.67919856 0.27596903
0.98975217 0.67207009 0.27233881
0.98953903 0.66524947 0.26908001
0.98933613 0.65875638 0.26621193
0.98914409 0.65261024 0.26375389
0.98896348 0.64683068 0.26172519
0.98879492 0.64143723 0.26014513
0.98863906 0.63644952 0.25903302
0.98849648 0.63188702 0.25840819
0.98836780 0.62776929 0.25828993
0.98825365 0.62411594 0.25869754
0.98823017 0.62336487 0.26290092
0.98824537 0.62385082 0.26881978
0.98828316 0.62506121 0.27577496
0.98834276 0.62696832 0.28372359
0.98842329 0.62954462 0.29262286
0.98852384 0.63276249 0.30242991
0.98864359 0.63659424 0.31310189
0.98878163 0.64101231 0.32459593
0.98893714 0.64598912 0.33686918
0.98910928 0.65149695 0.34987879
0.98929715 0.65750825 0.36358190
0.98949987 0.66399544 0.37793571
0.98971659 0.67093086 0.39289731
0.98994648 0.67828691 0.40842384
0.99148935 0.72765887 0.30467421
0.99122149 0.71908700 0.29921189
0.99095953 0.71070498 0.29400444
0.99070412 0.70253235 0.28907114
0.99045593 0.69458866 0.28443134
0.99021542 0.68689352 0.28010434
0.98998332 0.67946649 0.27610940
0.98976022 0.67232698 0.27246588
0.98954672 0.66549474 0.26919308
0.98934340 0.65898919 0.26631027
0.98915094 0.65282995 0.26383683
0.98896992 0.64703655 0.26179197
0.98880088 0.64162862 0.26019508
0.98864454 0.63662559 0.25906542
0.98850149 0.63204712 0.25842232
0.98837227 0.62791270 0.25828508
0.98825759 0.62424189 0.25867301
0.98823005 0.62336117 0.26270351
0.98824435 0.62381995 0.26858339
0.98828137 0.62500417 0.27550122
0.98834020 0.62688613 0.28341407
0.98841995 0.62943834 0.29227912
0.98851979 0.63263303 0.30205354
0.98863882 0.63644272 0.31269443
0.98877627 0.64083970 0.32415900
0.98893112 0.64579642 0.33640432
0.98910266 0.65128523 0.34938762
0.98928994 0.65727854 0.36306599
0.98949212 0.66374868 0.37739661
0.98970836 0.67066813 0.39233661
0.98993778 0.67800915 0.40784311
0.99017948 0.68574423 0.42387334
0.99043268 0.69384569 0.44038439
0.99096906 0.71100974 0.29419127
0.99071342 0.70282906 0.28924754
0.99046487 0.69487667 0.28459662
0.99022412 0.68717200 0.28025776
0.98999172 0.67973471 0.27625027
0.98976827 0.67258435 0.27259350
0.98955441 0.66574043 0.26930669
0.98935068 0.65922254 0.26640922
0.98915780 0.65305018 0.26392034
0.98897636 0.64724302 0.26185939
0.98880690 0.64182049 0.26024568
0.98865008 0.63680226 0.25909847
0.98850650 0.63220781 0.25843713
0.98837680 0.62805670 0.25828093
0.98826152 0.62436849 0.25864920
0.98822993 0.62335849 0.26250753
0.98824346 0.62379009 0.26834843
0.98827964 0.62494808 0.27522883
0.98833764 0.62680489 0.28310582
0.98841667 0.62933284 0.29193661
0.98851573 0.63250446 0.30167833
0.98863411 0.63629198 0.31228811
0.98877084 0.64066786 0.32372311
0.98892516 0.64560449 0.33594051
0.98909605 0.65107417 0.34889740
0.98928279 0.65704942 0.36255094
0.98948443 0.66350251 0.37685832
0.98970020 0.67040592 0.39177665
0.98992914 0.67773193 0.40726310
0.99017042 0.68545300 0.42327482
0.99042314 0.69354147 0.43976894
0.99068654 0.70196974 0.45670259
0.99095970 0.71071023 0.47403297
0.99047393 0.69516492 0.28476232
0.99023283 0.68745083 0.28041163
0.99000013 0.68000335 0.27639163
0.98977631 0.67284209 0.27272159
0.98956209 0.66598654 0.26942083
0.98935801 0.65945631 0.26650870
0.98916471 0.65327090 0.26400444
0.98898280 0.64744997 0.26192740
0.98881292 0.64201295 0.26029688
0.98865563 0.63697946 0.25913221
0.98851156 0.63236910 0.25845262
0.98838127 0.62820131 0.25827751
0.98826551 0.62449574 0.25862613
0.98822993 0.62335682 0.26231301
0.98824251 0.62376118 0.26811486
0.98827791 0.62489289 0.27495778
0.98833513 0.62672448 0.28279889
0.98841339 0.62922829 0.29159534
0.98851180 0.63237667 0.30130428
0.98862946 0.63614208 0.31188291
0.98876554 0.64049679 0.32328832
0.98891914 0.64541322 0.33547765
0.98908949 0.65086383 0.34840810
0.98927563 0.65682095 0.36203679
0.98947680 0.66325700 0.37632087
0.98969203 0.67014426 0.39121750
0.98992050 0.67745525 0.40668380
0.99016130 0.68516225 0.42267695
0.99041367 0.69323772 0.43915406
0.99067670 0.70165396 0.45607233
0.99094951 0.71038347 0.47338885
0.99123120 0.71939850 0.49106082
