Oh Toodles Effect V3/Oh Toodles Effect V3.cube
# VEGAS Pro LUT
TITLE "Oh Toodles Effect V3"
LUT_3D_SIZE 9
1.00000000 1.00000000 0.50980395
0.99969083 0.99010688 0.50238073
0.99914122 0.97251832 0.48843914
0.99839020 0.94848597 0.46921486
0.99747694 0.91926152 0.44594356
0.99644053 0.88609642 0.41986093
0.99532008 0.85024244 0.39220262
0.99415469 0.81295109 0.36420432
0.99298358 0.77547401 0.33710167
0.99916524 0.97328722 0.48905319
0.99842095 0.94946980 0.47000137
0.99751294 0.92041409 0.44685709
0.99648035 0.88737184 0.42085597
0.99536234 0.85159457 0.39323375
0.99419796 0.81433392 0.36522606
0.99302632 0.77684152 0.33806857
0.99188656 0.74036896 0.31299695
0.99081773 0.70616782 0.29124692
0.99754882 0.92156136 0.44776672
0.99652010 0.88864356 0.42184883
0.99540454 0.85294473 0.39426434
0.99424112 0.81571651 0.36624894
0.99306905 0.77821046 0.33903828
0.99192744 0.74167818 0.31386805
0.99085534 0.70737129 0.29197389
0.98989195 0.67654151 0.27459154
0.98907626 0.65044034 0.26295659
0.99544662 0.85429287 0.39529437
0.99428433 0.81709868 0.36727291
0.99311191 0.77958065 0.34001076
0.99196845 0.74299043 0.31474355
0.99089313 0.70857948 0.29270700
0.98992497 0.67759961 0.27513674
0.98910320 0.65130228 0.26326847
0.98846686 0.63093913 0.25833786
0.98825175 0.62405670 0.27026740
0.99315476 0.78095216 0.34098592
0.99200952 0.74430561 0.31562343
0.99093103 0.70979232 0.29344615
0.98995823 0.67866403 0.27568969
0.98913038 0.65217227 0.26358974
0.98848653 0.63156861 0.25838199
0.98824733 0.62391555 0.26929674
0.98853201 0.63302380 0.30318618
0.98912257 0.65192246 0.35086393
0.99096906 0.71100974 0.29419127
0.98999172 0.67973471 0.27625027
0.98915780 0.65305018 0.26392034
0.98850650 0.63220781 0.25843713
0.98824346 0.62379009 0.26834843
0.98851573 0.63250446 0.30167833
0.98909605 0.65107417 0.34889740
0.98992914 0.67773193 0.40726310
0.99095970 0.71071023 0.47403297
0.98918551 0.65393603 0.26426020
0.98852676 0.63285655 0.25850323
0.98824000 0.62368029 0.26742265
0.98849994 0.63199842 0.30018926
0.98906988 0.65023690 0.34694594
0.98989463 0.67662841 0.40495017
0.99091893 0.70940548 0.47145945
0.99208754 0.74680072 0.54373121
0.99334520 0.78704679 0.61902303
0.98823708 0.62358636 0.26651949
0.98848456 0.63150579 0.29871914
0.98904407 0.64941067 0.34500971
0.98986042 0.67553353 0.40264875
0.99087834 0.70810699 0.46889371
0.99204260 0.74536365 0.54100209
0.99329799 0.78553611 0.61623138
0.99458927 0.82685697 0.69183904
0.99586123 0.86755884 0.76508254
0.98901862 0.64859551 0.34308887
0.98982650 0.67444736 0.40035897
0.99083799 0.70681483 0.46633592
0.99199784 0.74393052 0.53827721
0.99325085 0.78402704 0.61344022
0.99454176 0.82533699 0.68908256
0.99581540 0.86609292 0.76246166
0.99701649 0.90452749 0.83083498
0.99808979 0.93887317 0.89146000
0.99991298 0.99721539 0.50782120
0.99950755 0.98424059 0.49776694
0.99887651 0.96404755 0.48166546
0.99805897 0.93788797 0.46075243
0.99709415 0.90701342 0.43626350
0.99602109 0.87267554 0.40943438
0.99487895 0.83612585 0.38150069
0.99370676 0.79861605 0.35369810
0.99254370 0.76139778 0.32726234
0.99890327 0.96490383 0.48235065
0.99809194 0.93894160 0.46159273
0.99713182 0.90821832 0.43721348
0.99606204 0.87398565 0.41044852
0.99492174 0.83749521 0.38253358
0.99374998 0.79999852 0.35470429
0.99258584 0.76274735 0.32819635
0.99146855 0.72699314 0.30424541
0.99043709 0.69398767 0.28408715
0.99716932 0.90941846 0.43816021
0.99610287 0.87529272 0.41146114
0.99496448 0.83886313 0.38356662
0.99379319 0.80138135 0.35571226
0.99262810 0.76409894 0.32913381
0.99150836 0.72826749 0.30506691
0.99047309 0.69513869 0.28474724
0.98956138 0.66596413 0.26941043
0.98881239 0.64199543 0.26029220
0.99500716 0.84022963 0.38459969
0.99383640 0.80276442 0.35672197
0.99267042 0.76545244 0.33007470
0.99154830 0.72954547 0.30589348
0.99050921 0.69629508 0.28541407
0.98959225 0.66695291 0.26987204
0.98883659 0.64277047 0.26050314
0.98828125 0.62499946 0.25854301
0.98832560 0.62641907 0.28161141
0.99271274 0.76680791 0.33101889
0.99158835 0.73082709 0.30672508
0.99054551 0.69745678 0.28608757
0.98962337 0.66794860 0.27034202
0.98886108 0.64355421 0.26072413
0.98829764 0.62552512 0.25846955
0.98831630 0.62612098 0.28041691
0.98872405 0.63917053 0.31988692
0.98941678 0.66133654 0.37209955
0.99058199 0.69862366 0.28676769
0.98965472 0.66895127 0.27082029
0.98888582 0.64434654 0.26095507
0.98831439 0.62606114 0.25840768
0.98830742 0.62583768 0.27924335
0.98870367 0.63851810 0.31819227
0.98938686 0.66038001 0.36998472
0.99030173 0.68965608 0.43187818
0.99139309 0.72457880 0.50113010
0.98891085 0.64514744 0.26119590
0.98833150 0.62660736 0.25835744
0.98829901 0.62556916 0.27809089
0.98868370 0.63787806 0.31651503
0.98935729 0.65943354 0.36788353
0.99026465 0.68846816 0.42945397
0.99135047 0.72321445 0.49848381
0.99255955 0.76190513 0.57223052
0.99383664 0.80277270 0.64795160
0.98829108 0.62531555 0.27695969
0.98866409 0.63725060 0.31485528
0.98932803 0.65849721 0.36579618
0.99022776 0.68728793 0.42703989
0.99130797 0.72185546 0.49584389
0.99251354 0.76043230 0.56946564
0.99378908 0.80125111 0.64516264
0.99507952 0.84254444 0.72019243
0.99632955 0.88254488 0.79181242
0.98929912 0.65757108 0.36372277
0.99019110 0.68611556 0.42463604
0.99126565 0.72050190 0.49321046
0.99246758 0.75896257 0.56670362
0.99374157 0.79973018 0.64237285
0.99503243 0.84103733 0.71747577
0.99628490 0.88111669 0.78926975
0.99744380 0.91820073 0.85501242
0.99845380 0.95052218 0.91196114
0.99978751 0.99319953 0.50477970
0.99929142 0.97732502 0.49227411
0.99858469 0.95470947 0.47419238
0.99770641 0.92660457 0.45177022
0.99669570 0.89426190 0.42624328
0.99559164 0.85893309 0.39884725
0.99443340 0.82186973 0.37081781
0.99326009 0.78432345 0.34339061
0.99211079 0.74754590 0.31780133
0.99861395 0.95564640 0.47494206
0.99774128 0.92772132 0.45265767
0.99673474 0.89551234 0.42722306
0.99563348 0.86027122 0.39987391
0.99447656 0.82324952 0.37184587
0.99330306 0.78569883 0.34437463
0.99215221 0.74887073 0.31869584
0.99106306 0.71401697 0.29604518
0.99007463 0.68238902 0.27765834
0.99677372 0.89675868 0.42820027
0.99567521 0.86160696 0.40089968
0.99451965 0.82462853 0.37287471
0.99334610 0.78707516 0.34536108
0.99219370 0.75019830 0.31959447
0.99110156 0.71524972 0.29681051
0.99010879 0.68348092 0.27824491
0.98925447 0.65614355 0.26513332
0.98857778 0.63448924 0.25871143
0.99456269 0.82600683 0.37390423
0.99338913 0.78845239 0.34634990
0.99223524 0.75152850 0.32049713
0.99114019 0.71648675 0.29758155
0.99014306 0.68457884 0.27883887
0.98928303 0.65705627 0.26550472
0.98859906 0.63517070 0.25881484
0.98823196 0.62342340 0.26439959
0.98844856 0.63035417 0.29519176
0.99227691 0.75286120 0.32140374
0.99117899 0.71772808 0.29835823
0.99017757 0.68568265 0.27944013
0.98931175 0.65797657 0.26588511
0.98862070 0.63586146 0.25892889
0.98823076 0.62338483 0.26357573
0.98843467 0.62990862 0.29378811
0.98895758 0.64664245 0.33844000
0.98974437 0.67181891 0.39478889
0.99021226 0.68679237 0.28004864
0.98934078 0.65890449 0.26627445
0.98864257 0.63656151 0.25905356
0.98823005 0.62336242 0.26277512
0.98842114 0.62947685 0.29240400
0.98893332 0.64586639 0.33657324
0.98971134 0.67076361 0.39254040
0.99070001 0.70240104 0.45756292
0.99184412 0.73901129 0.52889830
0.98866469 0.63727075 0.25918877
0.98822987 0.62335628 0.26199791
0.98840809 0.62905908 0.29103953
0.98890942 0.64510190 0.33472246
0.98967868 0.66971737 0.39030418
0.99066055 0.70113820 0.45504215
0.99179989 0.73759681 0.52619386
0.99304146 0.77732593 0.60101682
0.99432993 0.81855810 0.67676848
0.98839545 0.62865525 0.28969491
0.98888588 0.64434898 0.33288780
0.98964626 0.66868043 0.38808033
0.99062133 0.69988215 0.45253006
0.99175584 0.73618674 0.52349442
0.99299461 0.77582687 0.59823090
0.99428236 0.81703508 0.67399698
0.99556386 0.85804391 0.74805015
0.99678391 0.89708602 0.81764793
0.98961413 0.66765273 0.38586903
0.99058229 0.69863302 0.45002675
0.99171191 0.73478121 0.52080005
0.99294782 0.77432996 0.59544635
0.99423474 0.81551176 0.67122316
0.99551749 0.85655928 0.74538797
0.99674076 0.89570504 0.81519824
0.99784940 0.93118173 0.87791151
0.99878818 0.96122187 0.93078518
0.99962568 0.98802179 0.50074804
0.99904466 0.96942949 0.48597068
0.99826795 0.94457340 0.46608829
0.99733454 0.91470516 0.44233662
0.99628365 0.88107634 0.41595131
0.99515432 0.84493858 0.38816804
0.99398571 0.80754346 0.36022246
0.99281698 0.77014261 0.33335027
0.99168712 0.73398763 0.30878711
0.99829954 0.94558430 0.46689588
0.99737120 0.91587830 0.44326466
0.99632394 0.88236564 0.41695434
0.99519682 0.84629798 0.38920060
0.99402899 0.80892694 0.36123911
0.99285948 0.77150416 0.33430552
0.99172753 0.73528117 0.30963552
0.99067217 0.70150965 0.28846478
0.98973256 0.67144126 0.27202898
0.99636412 0.88365144 0.41795543
0.99523926 0.84765565 0.39023289
0.99407220 0.81031036 0.36225715
0.99290210 0.77286732 0.33526385
0.99176806 0.73657805 0.31048870
0.99070919 0.70269418 0.28916731
0.98976463 0.67246729 0.27253541
0.98897344 0.64714909 0.26182866
0.98837471 0.62799114 0.25828275
0.99411541 0.81169367 0.36327651
0.99294478 0.77423203 0.33622518
0.99180871 0.73787814 0.31134653
0.99074638 0.70388359 0.28987619
0.98979688 0.67350006 0.27304989
0.98899937 0.64797908 0.26210326
0.98839289 0.62857229 0.25827199
0.98827362 0.62475681 0.27427393
0.98861760 0.63576400 0.31085652
0.99184942 0.73918140 0.31220898
0.99078369 0.70507789 0.29059136
0.98982936 0.67453933 0.27357230
0.98902553 0.64881730 0.26238748
0.98841137 0.62916344 0.25827253
0.98826736 0.62455535 0.27321711
0.98859936 0.63518041 0.30925834
0.98922944 0.65534163 0.35869345
0.99010223 0.68327165 0.41877988
0.98986202 0.67558515 0.27410263
0.98905200 0.64966375 0.26268125
0.98843014 0.62976444 0.25828433
0.98826152 0.62436920 0.27218214
0.98858154 0.63460976 0.30767831
0.98920161 0.65445149 0.35666925
0.99006647 0.68212700 0.41641244
0.99112087 0.71586889 0.48416534
0.99230969 0.75390977 0.55718547
0.98844922 0.63037533 0.25830731
0.98825622 0.62419850 0.27116913
0.98856413 0.63405210 0.30611655
0.98917413 0.65357190 0.35465962
0.99003094 0.68099052 0.41405582
0.99107939 0.71454054 0.48156264
0.99226421 0.75245458 0.55443758
0.99353015 0.79296523 0.62993813
0.99482203 0.83430511 0.70532173
0.98854709 0.63350749 0.30457318
0.98914695 0.65270299 0.35266465
0.98999572 0.67986232 0.41171017
0.99103808 0.71321815 0.47896722
0.99221885 0.75100297 0.55169326
0.99348277 0.79144937 0.62714577
0.99477470 0.83279002 0.70258230
0.99603927 0.87325752 0.77526027
0.99722141 0.91108435 0.84243715
0.98996073 0.67874259 0.40937564
0.99099696 0.71190172 0.47637919
0.99217361 0.74955487 0.54895264
0.99343544 0.78993469 0.62435341
0.99472731 0.83127379 0.69983912
0.99599391 0.87180471 0.77266717
0.99717999 0.90976000 0.84009504
0.99823040 0.94337237 0.89938021
0.99908984 0.97087437 0.94778019
0.99942976 0.98175156 0.49579465
0.99876946 0.96062344 0.47892514
0.99792838 0.93370873 0.45742178
0.99694562 0.90225905 0.43252021
0.99586016 0.86752599 0.40545616
0.99471128 0.83076119 0.37746525
0.99353802 0.79321629 0.34978315
0.99237949 0.75614285 0.32364559
0.99127477 0.72079247 0.30028817
0.99796212 0.93478692 0.45828062
0.99698383 0.90348190 0.43348220
0.99590147 0.86884749 0.40647581
0.99475425 0.83213526 0.37849709
0.99358118 0.79459685 0.35078177
0.99242139 0.75748390 0.32456547
0.99131399 0.72204798 0.30108389
0.99029815 0.68954068 0.28157270
0.98941290 0.66121370 0.26726755
0.99594271 0.87016612 0.40749416
0.99479711 0.83350819 0.37952933
0.99362433 0.79597801 0.35178241
0.99246335 0.75882721 0.32548907
0.99135333 0.72330737 0.30188498
0.99033344 0.69067019 0.28220582
0.98944271 0.66216725 0.26768726
0.98872030 0.63905013 0.25956497
0.98823160 0.62341100 0.26019025
0.99366748 0.79735965 0.35278499
0.99250537 0.76017272 0.32641628
0.99139285 0.72457075 0.30269140
0.99036890 0.69180530 0.28284594
0.98947275 0.66312814 0.26811564
0.98874348 0.63979065 0.25973612
0.98823321 0.62346184 0.25949490
0.98836637 0.62772387 0.28647932
0.98882973 0.64255065 0.32845363
0.99143243 0.72583789 0.30350304
0.99040455 0.69294596 0.28349298
0.98950303 0.66409618 0.26855260
0.98876691 0.64054012 0.25991756
0.98823529 0.62352943 0.25882354
0.98835528 0.62736911 0.28520420
0.98880744 0.64183849 0.32667562
0.98953658 0.66517019 0.38049525
0.99048740 0.69559681 0.44392058
0.98953348 0.66507143 0.26899809
0.98879057 0.64129841 0.26010919
0.98825079 0.62402475 0.25871587
0.98834467 0.62702870 0.28394952
0.98878556 0.64113832 0.32491434
0.98950547 0.66417533 0.37832829
0.99044913 0.69437224 0.44144884
0.99156129 0.72996169 0.51153344
0.99278677 0.76917624 0.58583963
0.98826659 0.62453055 0.25861999
0.98833448 0.62670273 0.28271538
0.98876405 0.64045024 0.32316992
0.98947471 0.66319013 0.37617445
0.99041110 0.69315493 0.43898648
0.99151802 0.72857732 0.50886351
0.99274033 0.76768982 0.58306301
0.99402267 0.80872512 0.65884244
0.99530989 0.84991574 0.73345929
0.98874295 0.63977432 0.32144246
0.98944420 0.66221470 0.37403390
0.99037325 0.69194502 0.43653369
0.99147493 0.72719795 0.50619942
0.99269396 0.76620603 0.58028847
0.99397504 0.80720186 0.65605837
0.99526304 0.84841806 0.73076659
0.99650270 0.88808721 0.80167061
0.99763882 0.92444193 0.86602801
0.99033570 0.69074261 0.43409061
0.99143201 0.72582364 0.50354129
0.99264765 0.76472491 0.57751620
0.99392748 0.80567896 0.65327287
0.99521619 0.84691834 0.72806871
0.99645859 0.88667572 0.79916131
0.99759948 0.92318368 0.86380810
0.99858361 0.95467478 0.91926658
0.99935567 0.97938168 0.96279424
0.99920183 0.97445822 0.48998800
0.99846798 0.95097619 0.47120598
0.99756825 0.92218482 0.44826126
0.99654174 0.88933563 0.42238945
0.99542749 0.85368031 0.39482623
0.99426472 0.81647044 0.36680734
0.99309242 0.77895766 0.33956838
0.99194980 0.74239355 0.31434506
0.99087596 0.70802975 0.29237303
0.99760383 0.92332357 0.44916481
0.99658132 0.89060152 0.42337877
0.99546963 0.85502726 0.39585590
0.99430788 0.81785244 0.36783189
0.99313527 0.78032863 0.34054235
0.99199086 0.74370742 0.31522295
0.99091375 0.70924050 0.29310942
0.98994309 0.67817938 0.27543738
0.98911798 0.65177578 0.26344255
0.99551165 0.85637206 0.39688492
0.99435109 0.81923389 0.36885741
0.99317813 0.78170073 0.34151897
0.99203199 0.74502420 0.31610522
0.99095172 0.71045583 0.29385182
0.98997647 0.67924726 0.27599451
0.98914534 0.65265012 0.26376891
0.98849738 0.63191605 0.25841072
0.98824519 0.62384516 0.26877668
0.99322104 0.78307408 0.34249818
0.99207324 0.74634379 0.31699175
0.99098986 0.71167570 0.29460019
0.99001002 0.68032134 0.27655926
0.98917288 0.65353245 0.26410457
0.98851752 0.63256049 0.25847185
0.98824149 0.62372822 0.26784065
0.98850709 0.63222677 0.30086377
0.98908174 0.65061611 0.34783110
0.99102813 0.71290004 0.29535446
0.99004382 0.68140161 0.27713156
0.98920071 0.65442258 0.26444948
0.98853797 0.63321441 0.25854385
0.98823833 0.62362713 0.26692721
0.98849148 0.63172805 0.29938501
0.98905575 0.64978486 0.34588793
0.98987591 0.67603010 0.40369344
0.99089676 0.70869642 0.47005898
0.98922879 0.65532053 0.26480353
0.98855871 0.63387793 0.25862673
0.98823571 0.62354183 0.26603648
0.98847634 0.63124281 0.29792526
0.98903012 0.64896464 0.34396008
0.98984188 0.67493999 0.40139833
0.99085629 0.70740139 0.46749756
0.99201816 0.74458146 0.53951526
0.99327230 0.78471279 0.61470884
0.98823351 0.62347251 0.26516861
0.98846161 0.63077110 0.29648468
0.98900485 0.64815563 0.34204763
0.98980808 0.67385864 0.39911497
0.99081600 0.70611274 0.46494418
0.99197346 0.74315053 0.53679270
0.99322516 0.78320462 0.61191803
0.99451584 0.82450753 0.68757772
0.99579036 0.86529201 0.76102918
0.98897994 0.64735782 0.34015077
0.98977458 0.67278612 0.39684346
0.99077594 0.70483053 0.46239892
0.99192888 0.74172366 0.53407460
0.99317807 0.78169811 0.60912800
0.99446833 0.82298642 0.68481660
0.99574441 0.86382121 0.75839788
0.99695110 0.90243512 0.82712936
0.99803317 0.93706077 0.88826847
0.99073607 0.70355493 0.45986193
0.99188441 0.74030095 0.53136104
0.99313104 0.78019333 0.60633880
0.99442077 0.82146466 0.68205261
0.99569833 0.86234748 0.75576001
0.99690861 0.90107441 0.82471848
0.99799621 0.93587804 0.88618553
0.99890596 0.96499097 0.93741864
0.99958271 0.98664582 0.97567523
0.99894410 0.96621114 0.48339662
0.99814242 0.94055718 0.46288171
0.99718970 0.91007102 0.43867522
0.99612516 0.87600434 0.41201279
0.99498779 0.83960867 0.38413009
0.99381673 0.80213571 0.35626280
0.99265116 0.76483697 0.32964662
0.99153012 0.72896415 0.30551714
0.99049276 0.69576883 0.28511012
0.99722701 0.91126370 0.43961686
0.99616581 0.87730658 0.41302288
0.99503046 0.84097439 0.38516319
0.99385995 0.80351889 0.35727343
0.99269348 0.76619154 0.33058929
0.99157012 0.73024410 0.30634648
0.99052900 0.69692808 0.28578061
0.98960924 0.66749513 0.27012736
0.98884988 0.64319688 0.26062244
0.99507308 0.84233862 0.38619623
0.99390322 0.80490226 0.35828567
0.99273586 0.76754802 0.33153531
0.99161023 0.73152763 0.30718076
0.99056542 0.69809264 0.28645772
0.98964047 0.66849464 0.27060187
0.98887455 0.64398533 0.26084885
0.98830676 0.62581623 0.25843436
0.98831141 0.62596464 0.27977419
0.99277830 0.76890630 0.33248454
0.99165046 0.73281467 0.30801997
0.99060196 0.69926238 0.28714144
0.98967189 0.66950107 0.27108464
0.98889947 0.64478230 0.26108521
0.98832369 0.62635779 0.25837883
0.98830277 0.62568933 0.27861214
0.98869276 0.63816744 0.31727526
0.98937070 0.65986252 0.36883691
0.99063867 0.70043725 0.28783169
0.98970360 0.67051429 0.27157560
0.98892462 0.64558786 0.26133144
0.98834091 0.62690961 0.25833488
0.98829466 0.62542897 0.27747124
0.98867297 0.63753426 0.31560752
0.98934132 0.65892154 0.36674327
0.99024451 0.68782341 0.42813593
0.99132729 0.72247255 0.49704304
0.98895007 0.64640182 0.26158747
0.98835850 0.62747157 0.25830236
0.98828697 0.62518352 0.27635166
0.98865354 0.63691360 0.31395739
0.98931223 0.65799075 0.36466348
0.99020773 0.68664747 0.42572743
0.99128491 0.72111648 0.49440667
0.99248844 0.75963026 0.56795871
0.99376315 0.80042142 0.64364105
0.98827976 0.62495315 0.27525353
0.98863453 0.63630563 0.31232500
0.98928344 0.65707022 0.36259773
0.99017125 0.68547946 0.42332920
0.99124271 0.71976590 0.49177688
0.99244255 0.75816220 0.56519824
0.99371564 0.79890090 0.64085078
0.99500668 0.84021461 0.71599203
0.99626052 0.88033599 0.78787941
0.98925501 0.65616006 0.36054614
0.99013495 0.68431932 0.42094141
0.99120063 0.71842086 0.48915380
0.99239677 0.75669730 0.56244081
0.99366814 0.79738110 0.63805985
0.99495953 0.83870500 0.71326852
0.99621570 0.87890154 0.78532416
0.99738133 0.91620332 0.85148442
0.99840134 0.94884288 0.90900666
0.99115878 0.71708149 0.48653764
0.99235111 0.75523561 0.55968654
0.99362069 0.79586226 0.63526839
0.99491233 0.83719391 0.71054071
0.99617070 0.87746322 0.78276098
0.99734074 0.91490275 0.84918666
0.99836701 0.94774520 0.90707529
0.99919444 0.97422302 0.95368427
0.99976778 0.99256891 0.98627120
0.99865872 0.95707965 0.47608897
0.99779487 0.92943567 0.45402083
0.99679488 0.89743674 0.42873219
0.99569798 0.86233449 0.40145877
0.99454314 0.82538044 0.37343618
0.99336958 0.78782624 0.34590015
0.99221635 0.75092357 0.32008633
0.99112260 0.71592396 0.29723036
0.99012744 0.68407905 0.27856797
0.99683362 0.89867663 0.42970526
0.99573958 0.86366636 0.40248296
0.99458617 0.82675827 0.37446606
0.99341261 0.78920394 0.34689024
0.99225795 0.75225514 0.32099116
0.99116135 0.71716332 0.29800448
0.99016190 0.68518019 0.27916592
0.98929864 0.65755731 0.26571110
0.98861080 0.63554633 0.25887573
0.99462920 0.82813519 0.37549654
0.99345571 0.79058248 0.34788260
0.99229968 0.75358921 0.32189992
0.99120021 0.71840692 0.29878423
0.99019647 0.68628722 0.27977115
0.98932755 0.65848178 0.26609638
0.98863256 0.63624215 0.25899559
0.98823035 0.62337059 0.26313615
0.98842722 0.62967139 0.29303071
0.99234146 0.75492573 0.32281259
0.99123919 0.71965462 0.29956952
0.99023128 0.68740010 0.28038362
0.98935670 0.65941375 0.26649055
0.98865461 0.63694721 0.25912601
0.98822993 0.62335706 0.26234826
0.98841399 0.62924725 0.29165730
0.98892027 0.64544797 0.33556175
0.98969352 0.67019182 0.39131910
0.99026620 0.68851876 0.28100324
0.98938602 0.66035324 0.26689357
0.98867691 0.63766140 0.25926694
0.98822999 0.62335986 0.26158389
0.98840117 0.62883705 0.29030365
0.98889655 0.64468974 0.33371973
0.98966098 0.66915059 0.38908961
0.99063915 0.70045221 0.45367083
0.99177587 0.73682714 0.52472079
0.98869950 0.63838476 0.25941834
0.98823059 0.62337911 0.26084310
0.98838878 0.62844092 0.28896987
0.98887324 0.64394319 0.33189389
0.98962873 0.66811872 0.38687262
0.99059999 0.69919991 0.45116353
0.99173188 0.73541957 0.52202410
0.99296904 0.77501011 0.59671187
0.99425638 0.81620419 0.67248428
0.98837686 0.62805885 0.28765616
0.98885024 0.64320838 0.33008435
0.98959672 0.66709614 0.38466820
0.99056107 0.69795460 0.44866511
0.99168801 0.73401648 0.51933259
0.99292231 0.77351433 0.59392816
0.99420875 0.81468076 0.66970921
0.99549216 0.85574836 0.74393332
0.99671715 0.89494967 0.81385797
0.98956507 0.66608298 0.38247651
0.99052238 0.69671637 0.44617572
0.99164432 0.73261809 0.51664639
0.99287564 0.77202088 0.59114599
0.99416119 0.81315720 0.66693211
0.99544561 0.85425973 0.74126208
0.99667376 0.89356107 0.81139350
0.99779046 0.92929369 0.87458378
0.99874032 0.95969033 0.92809045
0.99160075 0.73122448 0.51396567
0.99282902 0.77052975 0.58836567
0.99411356 0.81163359 0.66415298
0.99539900 0.85276872 0.73858511
0.99663025 0.89216757 0.80891955
0.99775195 0.92806286 0.87241381
0.99870896 0.95868713 0.92632532
0.99944603 0.98227292 0.96791160
0.99990791 0.99705297 0.99443012
0.99834794 0.94713312 0.46813351
0.99742752 0.91768116 0.44469175
0.99638599 0.88435137 0.41850063
0.99526238 0.84839541 0.39079583
0.99409580 0.81106490 0.36281300
0.99292535 0.77361149 0.33578783
0.99179024 0.73728675 0.31095603
0.99072945 0.70334232 0.28955320
0.98978215 0.67302978 0.27281505
0.99642599 0.88563174 0.41949856
0.99530470 0.84975022 0.39182755
0.99413902 0.81244814 0.36383307
0.99296802 0.77497709 0.33675078
0.99183089 0.73858863 0.31181636
0.99076670 0.70453441 0.29026550
0.98981458 0.67406613 0.27333385
0.98901361 0.64843524 0.26225710
0.98840290 0.62889349 0.25827089
0.99418223 0.81383109 0.36485437
0.99301076 0.77634406 0.33771664
0.99187165 0.73989362 0.31268132
0.99080414 0.70573139 0.29098406
0.98984718 0.67510897 0.27386060
0.98903996 0.64927799 0.26254654
0.98842156 0.62949002 0.25827760
0.98826414 0.62445194 0.27264985
0.98858958 0.63486755 0.30839425
0.99191254 0.74120176 0.31355077
0.99084169 0.70693314 0.29170883
0.98987997 0.67615831 0.27439520
0.98906654 0.65012890 0.26284552
0.98844051 0.63009644 0.25829548
0.98825854 0.62427419 0.27162686
0.98857200 0.63430393 0.30682418
0.98918658 0.65397036 0.35557127
0.99004704 0.68150604 0.41512567
0.98991293 0.67721409 0.27493760
0.98909336 0.65098786 0.26315397
0.98845977 0.63071263 0.25832453
0.98825347 0.62411189 0.27062589
0.98855478 0.63375342 0.30527240
0.98915929 0.65309662 0.35356963
0.99001169 0.68037409 0.41277501
0.99105680 0.71381849 0.48014605
0.99223948 0.75166237 0.55294025
0.98847932 0.63133860 0.25836465
0.98824888 0.62396508 0.26964712
0.98853803 0.63321596 0.30373913
0.98913229 0.65223360 0.35158274
0.98997658 0.67925048 0.41043541
0.99101561 0.71249932 0.47755462
0.99219412 0.75021267 0.55019790
0.99345696 0.79062307 0.62562269
0.99474883 0.83196312 0.70108646
0.98852164 0.63269174 0.30222449
0.98910564 0.65138137 0.34961075
0.98994172 0.67813534 0.40810701
0.99097455 0.71118623 0.47497070
0.99214894 0.74876660 0.54745930
0.99340963 0.78910911 0.62283039
0.99470145 0.83044630 0.69834131
0.99596912 0.87101078 0.77124965
0.99715734 0.90903515 0.83881283
0.98990715 0.67702866 0.40578991
0.99093372 0.70987922 0.47239438
0.99210387 0.74732429 0.54472464
0.99336237 0.78759646 0.62003827
0.99465400 0.82892841 0.69559264
0.99592352 0.86955261 0.76864529
0.99711567 0.90770179 0.83645374
0.99817526 0.94160843 0.89627546
0.99904704 0.96950519 0.94536787
0.99205893 0.74588579 0.54199404
0.99331516 0.78608531 0.61724645
0.99460655 0.82740951 0.69284058
0.99587786 0.86809111 0.76603389
0.99707383 0.90636265 0.83408386
0.99813926 0.94045669 0.89424795
0.99901891 0.96860588 0.94378370
0.99965757 0.98904276 0.97994852
1.00000000 1.00000000 1.00000000
