Oh Toodles Effect V3/Oh Toodles Effect V3.cube
# VEGAS Pro LUT
TITLE "Oh Toodles Effect V3"
LUT_3D_SIZE 5
1.00000000 1.00000000 0.50980395
0.99914122 0.97251832 0.48843914
0.99747694 0.91926152 0.44594356
0.99532008 0.85024244 0.39220262
0.99298358 0.77547401 0.33710167
0.99754882 0.92156136 0.44776672
0.99540454 0.85294473 0.39426434
0.99306905 0.77821046 0.33903828
0.99085534 0.70737129 0.29197389
0.98907626 0.65044034 0.26295659
0.99315476 0.78095216 0.34098592
0.99093103 0.70979232 0.29344615
0.98913038 0.65217227 0.26358974
0.98824733 0.62391555 0.26929674
0.98912257 0.65192246 0.35086393
0.98918551 0.65393603 0.26426020
0.98824000 0.62368029 0.26742265
0.98906988 0.65023690 0.34694594
0.99091893 0.70940548 0.47145945
0.99334520 0.78704679 0.61902303
0.98901862 0.64859551 0.34308887
0.99083799 0.70681483 0.46633592
0.99325085 0.78402704 0.61344022
0.99581540 0.86609292 0.76246166
0.99808979 0.93887317 0.89146000
0.99978751 0.99319953 0.50477970
0.99858469 0.95470947 0.47419238
0.99669570 0.89426190 0.42624328
0.99443340 0.82186973 0.37081781
0.99211079 0.74754590 0.31780133
0.99677372 0.89675868 0.42820027
0.99451965 0.82462853 0.37287471
0.99219370 0.75019830 0.31959447
0.99010879 0.68348092 0.27824491
0.98857778 0.63448924 0.25871143
0.99227691 0.75286120 0.32140374
0.99017757 0.68568265 0.27944013
0.98862070 0.63586146 0.25892889
0.98843467 0.62990862 0.29378811
0.98974437 0.67181891 0.39478889
0.98866469 0.63727075 0.25918877
0.98840809 0.62905908 0.29103953
0.98967868 0.66971737 0.39030418
0.99179989 0.73759681 0.52619386
0.99432993 0.81855810 0.67676848
0.98961413 0.66765273 0.38586903
0.99171191 0.73478121 0.52080005
0.99423474 0.81551176 0.67122316
0.99674076 0.89570504 0.81519824
0.99878818 0.96122187 0.93078518
0.99942976 0.98175156 0.49579465
0.99792838 0.93370873 0.45742178
0.99586016 0.86752599 0.40545616
0.99353802 0.79321629 0.34978315
0.99127477 0.72079247 0.30028817
0.99594271 0.87016612 0.40749416
0.99362433 0.79597801 0.35178241
0.99135333 0.72330737 0.30188498
0.98944271 0.66216725 0.26768726
0.98823160 0.62341100 0.26019025
0.99143243 0.72583789 0.30350304
0.98950303 0.66409618 0.26855260
0.98823529 0.62352943 0.25882354
0.98880744 0.64183849 0.32667562
0.99048740 0.69559681 0.44392058
0.98826659 0.62453055 0.25861999
0.98876405 0.64045024 0.32316992
0.99041110 0.69315493 0.43898648
0.99274033 0.76768982 0.58306301
0.99530989 0.84991574 0.73345929
0.99033570 0.69074261 0.43409061
0.99264765 0.76472491 0.57751620
0.99521619 0.84691834 0.72806871
0.99759948 0.92318368 0.86380810
0.99935567 0.97938168 0.96279424
0.99894410 0.96621114 0.48339662
0.99718970 0.91007102 0.43867522
0.99498779 0.83960867 0.38413009
0.99265116 0.76483697 0.32964662
0.99049276 0.69576883 0.28511012
0.99507308 0.84233862 0.38619623
0.99273586 0.76754802 0.33153531
0.99056542 0.69809264 0.28645772
0.98887455 0.64398533 0.26084885
0.98831141 0.62596464 0.27977419
0.99063867 0.70043725 0.28783169
0.98892462 0.64558786 0.26133144
0.98829466 0.62542897 0.27747124
0.98934132 0.65892154 0.36674327
0.99132729 0.72247255 0.49704304
0.98827976 0.62495315 0.27525353
0.98928344 0.65707022 0.36259773
0.99124271 0.71976590 0.49177688
0.99371564 0.79890090 0.64085078
0.99626052 0.88033599 0.78787941
0.99115878 0.71708149 0.48653764
0.99362069 0.79586226 0.63526839
0.99617070 0.87746322 0.78276098
0.99836701 0.94774520 0.90707529
0.99976778 0.99256891 0.98627120
0.99834794 0.94713312 0.46813351
0.99638599 0.88435137 0.41850063
0.99409580 0.81106490 0.36281300
0.99179024 0.73728675 0.31095603
0.98978215 0.67302978 0.27281505
0.99418223 0.81383109 0.36485437
0.99187165 0.73989362 0.31268132
0.98984718 0.67510897 0.27386060
0.98842156 0.62949002 0.25827760
0.98858958 0.63486755 0.30839425
0.98991293 0.67721409 0.27493760
0.98845977 0.63071263 0.25832453
0.98855478 0.63375342 0.30527240
0.99001169 0.68037409 0.41277501
0.99223948 0.75166237 0.55294025
0.98852164 0.63269174 0.30222449
0.98994172 0.67813534 0.40810701
0.99214894 0.74876660 0.54745930
0.99470145 0.83044630 0.69834131
0.99715734 0.90903515 0.83881283
0.99205893 0.74588579 0.54199404
0.99460655 0.82740951 0.69284058
0.99707383 0.90636265 0.83408386
0.99901891 0.96860588 0.94378370
1.00000000 1.00000000 1.00000000
