Full Chord/Full Chord.cube
# VEGAS Pro LUT
TITLE "Full Chord"
LUT_3D_SIZE 9
0.50588238 0.00000000 0.50980395
0.56123501 0.08916172 0.45765805
0.66372472 0.26488334 0.35817927
0.75431019 0.44595867 0.26330432
0.81069040 0.56654638 0.20336060
0.85899717 0.67435652 0.15122366
0.89077443 0.76254362 0.11151056
0.89756602 0.82426214 0.08883835
0.86575055 0.82459038 0.09843804
0.65962392 0.25742456 0.36227739
0.75219148 0.44136730 0.26559871
0.80870748 0.56229448 0.20545584
0.85746109 0.67069602 0.15294990
0.88999629 0.75972629 0.11269792
0.89785689 0.82253993 0.08931699
0.86752224 0.82553011 0.09761155
0.80807984 0.78686368 0.12723497
0.72985125 0.72582662 0.16928463
0.80671406 0.55802566 0.20756142
0.85590309 0.66700929 0.15469271
0.88918471 0.75687355 0.11390811
0.89810294 0.82077295 0.08982470
0.86925888 0.82642955 0.09680691
0.81064302 0.78872818 0.12590219
0.73297977 0.72838211 0.16756065
0.64336950 0.65284067 0.21805961
0.54891247 0.56955326 0.27367640
0.88834018 0.75398564 0.11514091
0.89830458 0.81896156 0.09036127
0.87096012 0.82728821 0.09602431
0.81318039 0.79056203 0.12458640
0.73609209 0.73091704 0.16584863
0.64679551 0.65580267 0.21608832
0.55239105 0.57266819 0.27158278
0.45997891 0.48896307 0.32860935
0.37665951 0.41213655 0.38344532
0.87262559 0.82810581 0.09526394
0.81569165 0.79236484 0.12328780
0.73918790 0.73343104 0.16414876
0.65021467 0.65875375 0.21412414
0.55587226 0.57578242 0.26949123
0.46326107 0.49196625 0.32652739
0.37948135 0.41475469 0.38150993
0.31163347 0.35159704 0.43071613
0.26681772 0.30994269 0.47042337
0.74226683 0.73592371 0.16246124
0.65362656 0.66169369 0.21216725
0.55935585 0.57889545 0.26740196
0.46655518 0.49497840 0.32444265
0.38232476 0.41739187 0.37956670
0.31376493 0.35358518 0.42905137
0.26797605 0.31100774 0.46917403
0.24286978 0.28380033 0.51582420
0.22404025 0.26026878 0.56139010
0.56284148 0.58200699 0.26531512
0.46986088 0.49799910 0.32235533
0.38518935 0.42004767 0.37761584
0.31592721 0.35560209 0.42737395
0.26917481 0.31211165 0.46790698
0.24368343 0.28474638 0.51411915
0.22461660 0.26104963 0.55973721
0.21232849 0.24267748 0.60420489
0.20750220 0.23136260 0.64807236
0.38807482 0.42272177 0.37565756
0.31811997 0.35764730 0.42568403
0.27041364 0.31325397 0.46662241
0.24450532 0.28569728 0.51241183
0.22520214 0.26183766 0.55808270
0.21265255 0.24323896 0.60258299
0.20753962 0.23163374 0.64646280
0.21054649 0.22875470 0.69027215
0.23835093 0.25267056 0.73477304
0.27169222 0.31443435 0.46532053
0.24533542 0.28665295 0.51070219
0.22579682 0.26263285 0.55642658
0.21298665 0.24380988 0.60096020
0.20758805 0.23191668 0.64485312
0.21028408 0.22868592 0.68865532
0.23606364 0.25047830 0.73305714
0.32273695 0.33522469 0.78214884
0.44249225 0.45415309 0.83251131
0.51865548 0.02082322 0.49770245
0.59711623 0.14847659 0.42343777
0.70611197 0.34494746 0.31500313
0.77622038 0.49300671 0.23982255
0.83051986 0.60953015 0.18231075
0.87352180 0.71066600 0.13436607
0.89677018 0.78956884 0.10060556
0.89065409 0.83478343 0.08756699
0.84541237 0.81256431 0.10824557
0.70206594 0.33703968 0.31919748
0.77411681 0.48851508 0.24206105
0.82867062 0.60547405 0.18428533
0.87223804 0.70729733 0.13590686
0.89636290 0.78713936 0.10154274
0.89178950 0.83499509 0.08713274
0.84752631 0.81390053 0.10720348
0.78008384 0.76582611 0.14200376
0.69656229 0.69822133 0.18781091
0.82680649 0.60139745 0.18627262
0.87092793 0.70389885 0.13746664
0.89591789 0.78467089 0.10250513
0.89288390 0.83516020 0.08672348
0.84960890 0.81520021 0.10618132
0.78289336 0.76798642 0.14050567
0.69983757 0.70096815 0.18597385
0.60754186 0.62159473 0.23886319
0.51310658 0.53731549 0.29545099
0.89543557 0.78216368 0.10349251
0.89393699 0.83527827 0.08633936
0.85165977 0.81646299 0.10517927
0.78568077 0.77011985 0.13902266
0.70310026 0.70369822 0.18414682
0.61101872 0.62464732 0.23682910
0.51653636 0.54041666 0.29334679
0.42675355 0.45845544 0.34997725
0.34877059 0.38621309 0.40299779
0.85367852 0.81768858 0.10419754
0.78844571 0.77222615 0.13755491
0.70635021 0.70641118 0.18233003
0.61449236 0.62769294 0.23480020
0.51997250 0.54352081 0.29124278
0.42989099 0.46134415 0.34793502
0.35134813 0.38861227 0.40115431
0.29144424 0.33277455 0.44717795
0.25668859 0.29928815 0.48856947
0.70958686 0.70910668 0.18052365
0.61796236 0.63073117 0.23277669
0.52341467 0.54662770 0.28913906
0.43304408 0.46424565 0.34588811
0.35395092 0.39103431 0.39930111
0.29323548 0.33444306 0.44565544
0.25762877 0.30030099 0.48682484
0.23493159 0.27430314 0.53336543
0.21861558 0.25262162 0.57843566
0.52686250 0.54973692 0.28703588
0.43621242 0.46715954 0.34383667
0.35657856 0.39347884 0.39743835
0.29506123 0.33614418 0.44411832
0.25857663 0.30131730 0.48507747
0.23565772 0.27519372 0.53168267
0.21909486 0.25332272 0.57679725
0.20957114 0.23743694 0.62097120
0.20776968 0.22926903 0.66475469
0.35923073 0.39594552 0.39556623
0.29692110 0.33787748 0.44256678
0.25953218 0.30233705 0.48332736
0.23639245 0.27609006 0.52999789
0.21958365 0.25403190 0.57515752
0.20978887 0.23789522 0.61935639
0.20769121 0.22941267 0.66314447
0.21397381 0.23031691 0.70707178
0.26653022 0.27997977 0.75305176
0.26049536 0.30336010 0.48157445
0.23713575 0.27699205 0.52831101
0.22008194 0.25474909 0.57351655
0.21001701 0.23836388 0.61774099
0.20762409 0.22956905 0.66153443
0.21358627 0.23009723 0.70544690
0.26347727 0.27700198 0.75125331
0.36597058 0.37803507 0.80151743
0.49118006 0.50273156 0.85082871
0.54219735 0.05841493 0.47561514
0.63743627 0.21779527 0.38425031
0.74066263 0.41619694 0.27817950
0.79771763 0.53881299 0.21706036
0.84870708 0.65027702 0.16265163
0.88517493 0.74374354 0.11957037
0.89866519 0.81236708 0.09243365
0.87655985 0.82993603 0.09349298
0.82174265 0.79665607 0.12017439
0.73855746 0.41156194 0.28049624
0.79567426 0.53445774 0.21921827
0.84703672 0.64645332 0.16448087
0.88418865 0.74070323 0.12090107
0.89867407 0.81036198 0.09309596
0.87809920 0.83060879 0.09281083
0.82416087 0.79834890 0.11893661
0.74975044 0.74194950 0.15837258
0.66196811 0.66885984 0.20739609
0.84534711 0.64260560 0.16632520
0.88317168 0.73762965 0.12225312
0.89864081 0.80831438 0.09378586
0.87960118 0.83123875 0.09215172
0.82655144 0.80000901 0.11771683
0.75276834 0.74436569 0.15672910
0.66535211 0.67175812 0.20546585
0.57140321 0.58963561 0.26020440
0.47802183 0.50544751 0.31722209
0.89856583 0.80622452 0.09450313
0.88106549 0.83182561 0.09151586
0.82891393 0.80163610 0.11651526
0.75576776 0.74675894 0.15509877
0.66872734 0.67464346 0.20354372
0.57489294 0.59273905 0.25812742
0.48136488 0.50849497 0.31512722
0.39524350 0.42936063 0.37082040
0.32362914 0.36278537 0.42148432
0.83124804 0.80322981 0.11533207
0.75874841 0.74912888 0.15348180
0.67209333 0.67751563 0.20162991
0.57838309 0.59583932 0.25605375
0.48471794 0.51154935 0.31303060
0.39819828 0.43209502 0.36883780
0.32592443 0.36492571 0.41975269
0.27499667 0.31749079 0.46205258
0.24740757 0.28901839 0.50649577
0.67544979 0.68037415 0.19972458
0.58187330 0.59893602 0.25398350
0.48808071 0.51461023 0.31093240
0.40117237 0.43484604 0.36684859
0.32824859 0.36709279 0.41800943
0.27640975 0.31879985 0.46069220
0.24826579 0.28998992 0.50477785
0.22792099 0.26543340 0.55069298
0.21421783 0.24585381 0.59534740
0.49145275 0.51767731 0.30883276
0.40416536 0.43761331 0.36485294
0.33060130 0.36928621 0.41625467
0.27786094 0.32014537 0.45931530
0.24913208 0.29096583 0.50305748
0.22855598 0.26625925 0.54902947
0.21459636 0.24646586 0.59372056
0.20793635 0.23331831 0.63768077
0.20925903 0.22854924 0.68146014
0.33298221 0.37150559 0.41448861
0.27934995 0.32152691 0.45792207
0.25000641 0.29194602 0.50133467
0.22919990 0.26709175 0.54736429
0.21498477 0.24708691 0.59209275
0.20804411 0.23366417 0.63607007
0.20906103 0.22855616 0.67984635
0.22505891 0.24002819 0.72387439
0.30181846 0.31459180 0.77200860
0.25088874 0.29293045 0.49960935
0.22985277 0.26793081 0.54569727
0.21538302 0.24771686 0.59046388
0.20816264 0.23402128 0.63445914
0.20887470 0.22857666 0.67823309
0.22332197 0.23839973 0.72222567
0.29814526 0.31097600 0.77015877
0.41250640 0.42428535 0.82074749
0.53921789 0.55073941 0.86815983
0.57409441 0.11019596 0.44545543
0.67978168 0.29453862 0.34200907
0.76259327 0.46382660 0.25437889
0.81833309 0.58299816 0.19527364
0.86478329 0.68840772 0.14463916
0.89348787 0.77320975 0.10709251
0.89599073 0.83055878 0.08725074
0.85849547 0.82053643 0.10187510
0.79513490 0.77727860 0.13401818
0.76047498 0.45926854 0.25665510
0.81639528 0.57881582 0.19732627
0.86333704 0.68485296 0.14629835
0.89284432 0.77053446 0.10818840
0.89646095 0.82901472 0.08761347
0.86040068 0.82163042 0.10096494
0.79781950 0.77928817 0.13260460
0.71747321 0.71564662 0.17613512
0.62646222 0.63815504 0.22783384
0.86186725 0.68127066 0.14797503
0.89216572 0.76782233 0.10930803
0.89688468 0.82742459 0.08800619
0.86227226 0.82268548 0.10007592
0.80048001 0.78126889 0.13120712
0.72066152 0.71827894 0.17436616
0.62991709 0.64116490 0.22583032
0.53534704 0.55737621 0.28187692
0.44405171 0.47436216 0.33878332
0.89726233 0.82578874 0.08842867
0.86410987 0.82370132 0.09920821
0.80311620 0.78322047 0.12982593
0.72383505 0.72089219 0.17260842
0.63336676 0.64416575 0.22383299
0.53881168 0.56049061 0.27977699
0.44727007 0.47731608 0.33671769
0.36584231 0.40209150 0.39093247
0.30162868 0.34226620 0.43869859
0.80572760 0.78514242 0.12846120
0.72699344 0.72348589 0.17086211
0.63681090 0.64715719 0.22184207
0.54228038 0.56360573 0.27767840
0.45050210 0.48028079 0.33464840
0.36857644 0.40463173 0.38902941
0.30360374 0.34410790 0.43709874
0.26289174 0.30588481 0.47725984
0.23899636 0.27922955 0.52416176
0.64024919 0.65013885 0.21985771
0.54575276 0.56672114 0.27558133
0.45374745 0.48325586 0.33257559
0.37133354 0.40719244 0.38711780
0.30561134 0.34598017 0.43548530
0.26388109 0.30691868 0.47549710
0.23976900 0.28015047 0.52246767
0.22187589 0.25728714 0.56783724
0.21088485 0.24006136 0.61215585
0.45700580 0.48624095 0.33049944
0.37411323 0.40977323 0.38519785
0.30765113 0.34788263 0.43385845
0.26487789 0.30795550 0.47373143
0.24055006 0.28107667 0.52077138
0.22241606 0.25803900 0.56619012
0.21115899 0.24057510 0.61053765
0.20746198 0.23041765 0.65436405
0.21200812 0.22929929 0.69821930
0.30972281 0.34981489 0.43221840
0.26588219 0.30899519 0.47196281
0.24133950 0.28200808 0.51907289
0.22296552 0.25879839 0.56454152
0.21144336 0.24109875 0.60891873
0.20745611 0.23064180 0.65275455
0.21168689 0.22916019 0.69659901
0.24804920 0.26201645 0.74156749
0.34270886 0.35497752 0.79132020
0.24213730 0.28294459 0.51737219
0.22352427 0.25956523 0.56289148
0.21173793 0.24163218 0.60729909
0.20746139 0.23087808 0.65114510
0.21137773 0.22903559 0.69497949
0.24545604 0.25951058 0.73981678
0.33856076 0.35087126 0.78945029
0.46083754 0.47244641 0.83951581
0.58509892 0.59664762 0.88418138
0.61193347 0.17358713 0.40913680
0.72173905 0.37612745 0.29862756
0.78440279 0.51045084 0.23113850
0.83759815 0.62518275 0.17471831
0.87827986 0.72354269 0.12852924
0.89799190 0.79868513 0.09718835
0.88582921 0.83351594 0.08950064
0.83685440 0.80699754 0.11250700
0.76598263 0.75484478 0.14957060
0.78231663 0.50600630 0.23334949
0.83581108 0.62121004 0.17664096
0.87710297 0.72029358 0.12999369
0.89773631 0.79641145 0.09802475
0.88712144 0.83390623 0.08897053
0.83908761 0.80847293 0.11138875
0.76889557 0.75713122 0.14800115
0.68364567 0.68733042 0.19508506
0.59043819 0.60651982 0.24891780
0.87589812 0.71701336 0.13147801
0.89744127 0.79409742 0.09888726
0.88837403 0.83425134 0.08846469
0.84129083 0.80991328 0.11028972
0.77178818 0.75939274 0.14644589
0.68696642 0.69013900 0.19321051
0.59392589 0.60960144 0.24686092
0.49976692 0.52522945 0.30367443
0.41158983 0.44447228 0.35992837
0.88958669 0.83455092 0.08798328
0.84346366 0.81131816 0.10921007
0.77466005 0.76162887 0.14490497
0.69027609 0.69293237 0.19134527
0.59741211 0.61267793 0.24480832
0.50316846 0.52831501 0.30157143
0.41464549 0.44729286 0.35791191
0.33894348 0.37706092 0.41010711
0.28316277 0.32506847 0.45443431
0.77751082 0.76383930 0.14337859
0.69357419 0.69571006 0.18948954
0.60089642 0.61574882 0.24276018
0.50657773 0.53140509 0.29946783
0.41771850 0.45012805 0.35588983
0.34141901 0.37936714 0.40830347
0.28477961 0.32657170 0.45298609
0.25308809 0.29536408 0.49536365
0.23149283 0.27001759 0.54159802
0.60437852 0.61881381 0.24071671
0.50999439 0.53449929 0.29736388
0.42080849 0.45297748 0.35386235
0.34392115 0.38169768 0.40648940
0.28643268 0.32810932 0.45152241
0.25399777 0.29636243 0.49362946
0.23217624 0.27087867 0.53992474
0.21683411 0.24996039 0.58482873
0.20865451 0.23534028 0.62889147
0.42391518 0.45584074 0.35182959
0.34644955 0.38405219 0.40466505
0.28812161 0.32968098 0.45004338
0.25491530 0.29736459 0.49189264
0.23286842 0.27174592 0.53824955
0.21727581 0.25062898 0.58319503
0.20882061 0.23574646 0.62727898
0.20818590 0.22883098 0.67105150
0.21670079 0.23228836 0.71502483
0.28984603 0.33128628 0.44854924
0.25584063 0.29837051 0.49015313
0.23356934 0.27261925 0.53657252
0.21772718 0.25130600 0.58156013
0.20899729 0.23616344 0.62566602
0.20806277 0.22892416 0.66944027
0.21560672 0.23132081 0.71343291
0.27908692 0.29225984 0.76013994
0.38769451 0.39960793 0.81066346
0.23427895 0.27349859 0.53489351
0.21818817 0.25199139 0.57992405
0.20918451 0.23659110 0.62405264
0.20795110 0.22903036 0.66782933
0.21517104 0.23104182 0.71180415
0.27578294 0.28902408 0.75831848
0.38321695 0.39515877 0.80880457
0.50945717 0.52098924 0.85749912
0.62731624 0.63892710 0.89857024
0.65330088 0.24600931 0.36857271
0.74891919 0.43425652 0.26915255
0.80562246 0.55569023 0.20871419
0.85504413 0.66498744 0.15565024
0.88872814 0.75530267 0.11457776
0.89821839 0.81979036 0.09011381
0.87019122 0.82690299 0.09637729
0.81203026 0.78973228 0.12518236
0.73467940 0.72976738 0.16662532
0.80361360 0.55139589 0.21083528
0.85345298 0.66126084 0.15741824
0.88786578 0.75239569 0.11582279
0.89839596 0.81795490 0.09066603
0.87187302 0.82773930 0.09560680
0.81455344 0.79154927 0.12387594
0.73778278 0.73229092 0.16491991
0.64866138 0.65741372 0.21501605
0.55428958 0.57436699 0.27044168
0.88697118 0.74945414 0.11709007
0.89852977 0.81607556 0.09124673
0.87351888 0.82853431 0.09485863
0.81705028 0.79333496 0.12258679
0.74086940 0.73479337 0.16322675
0.65207660 0.66035879 0.21305583
0.55777216 0.57748061 0.26835135
0.46505639 0.49360815 0.32539061
0.38102964 0.41619080 0.38045093
0.87512845 0.82928765 0.09413297
0.81952047 0.79508913 0.12131513
0.74393898 0.73727429 0.16154604
0.65548438 0.66329241 0.21110301
0.56125689 0.58059287 0.26626337
0.46835688 0.49662501 0.32330444
0.38388464 0.41883820 0.37850353
0.31494057 0.35468176 0.42813799
0.26862493 0.31160510 0.46848512
0.74699116 0.73973328 0.15987793
0.65888429 0.66621423 0.20915776
0.56474340 0.58370340 0.26417795
0.47166875 0.49965021 0.32121578
0.38676068 0.42150402 0.37654859
0.31711951 0.35671416 0.42645371
0.26984560 0.31272998 0.46720847
0.24413070 0.28526446 0.51318818
0.22493485 0.26147857 0.55883491
0.56823134 0.58681184 0.26209524
0.47499168 0.50268346 0.31912482
0.38965735 0.42418793 0.37458631
0.31932876 0.35877472 0.42475709
0.27110615 0.31389311 0.46591443
0.24495707 0.28621796 0.51147962
0.22552538 0.26227054 0.55717957
0.21283354 0.24354920 0.60169792
0.20756467 0.23178662 0.64558476
0.39257437 0.42688957 0.37261686
0.32156789 0.36086306 0.42304823
0.27240622 0.31509414 0.46460313
0.24579164 0.28717622 0.50976866
0.22612502 0.26306954 0.55552256
0.21317312 0.24412526 0.60007471
0.20761907 0.23207597 0.64397502
0.21014597 0.22865433 0.68777364
0.23485033 0.24931768 0.73212522
0.27374548 0.31633264 0.46327481
0.24663438 0.28813910 0.50805539
0.22673376 0.26387557 0.55386400
0.21352273 0.24471065 0.59845054
0.20768441 0.23237699 0.64236516
0.20990190 0.22860725 0.68615776
0.23268969 0.24725521 0.73042428
0.31666526 0.32922927 0.77926856
0.43526858 0.44695392 0.82971507
0.22735155 0.26468846 0.55220371
0.21388230 0.24530528 0.59682554
0.20776065 0.23268962 0.64075506
0.20966966 0.22857413 0.68454242
0.23061273 0.24527848 0.72873342
0.31279585 0.32541114 0.77740747
0.43060693 0.44230938 0.82789844
0.55685848 0.56838471 0.87437427
0.66436309 0.67604882 0.91100305
0.69578344 0.32488328 0.32567662
0.77085918 0.48155150 0.24553318
0.82578361 0.59916532 0.18736188
0.87020236 0.70203269 0.13832535
0.89565939 0.78330809 0.10304062
0.89346349 0.83523041 0.08651083
0.85073149 0.81589359 0.10563224
0.78441650 0.76915348 0.13969487
0.70161879 0.70245934 0.18497604
0.82389730 0.59505779 0.18936838
0.86885244 0.69858897 0.13991398
0.89515686 0.78077996 0.10404154
0.89435464 0.83478540 0.08636811
0.85276490 0.81713611 0.10464126
0.78719169 0.77127218 0.13822016
0.70487458 0.70518017 0.18315457
0.61291385 0.62630945 0.23572178
0.51840985 0.54210949 0.29219911
0.89461768 0.77821368 0.10506708
0.89496243 0.83337730 0.08664232
0.85476601 0.81834120 0.10367068
0.78994423 0.77336347 0.13676083
0.70811731 0.70788366 0.18134344
0.61638558 0.62935114 0.23369579
0.52184933 0.54521519 0.29009524
0.43160895 0.46292523 0.34681910
0.35276473 0.38993058 0.40014467
0.85673451 0.81950843 0.10272069
0.79267377 0.77542704 0.13531706
0.71134663 0.71056950 0.17954281
0.61985350 0.63238519 0.23167528
0.52529460 0.54832339 0.28799179
0.43477038 0.46583354 0.34476969
0.35538110 0.39236492 0.39828622
0.29422709 0.33536693 0.44481879
0.25814483 0.30085492 0.48587209
0.71456218 0.71323729 0.17775288
0.62331724 0.63541126 0.22966044
0.52874535 0.55143374 0.28588900
0.43794692 0.46875405 0.34271586
0.35802215 0.39482158 0.39641833
0.29607150 0.33708566 0.44327381
0.25909689 0.30187312 0.48412320
0.23605742 0.27568191 0.53076392
0.21936029 0.25370854 0.57590300
0.53220123 0.55454582 0.28378698
0.44113812 0.47168642 0.34065780
0.36068755 0.39730015 0.39454117
0.29794982 0.33883637 0.44171450
0.26005659 0.30289465 0.48237157
0.23679683 0.27658135 0.52907801
0.21985427 0.25442210 0.57426262
0.20991202 0.23814958 0.61847532
0.20765319 0.22949640 0.66226625
0.36337692 0.39980027 0.39265496
0.29986173 0.34061873 0.44014108
0.26102394 0.30391949 0.48061714
0.23754480 0.27748641 0.52739006
0.22035773 0.25514364 0.57262087
0.21014585 0.23862384 0.61685961
0.20759225 0.22965966 0.66065627
0.21338004 0.22998373 0.70456094
0.26184040 0.27540687 0.75027514
0.26199889 0.30494753 0.47885984
0.23830128 0.27839699 0.52570003
0.22087063 0.25587305 0.57097781
0.21039002 0.23910834 0.61524332
0.20754258 0.22983548 0.65904653
0.21301140 0.22978714 0.70293742
0.25889242 0.27253687 0.74848700
0.35927734 0.37139568 0.79863006
0.48392421 0.49548641 0.84815186
0.22139293 0.25661027 0.56933337
0.21064453 0.23960297 0.61362636
0.20750417 0.23002380 0.65743685
0.21265493 0.22960539 0.70131481
0.25601405 0.26973835 0.74670595
0.35498789 0.36714274 0.79676062
0.47922391 0.49079403 0.84640861
0.60153461 0.61310381 0.88981795
0.69473249 0.70648366 0.92115670
0.73531127 0.40438807 0.28408167
0.79250127 0.52769792 0.22257054
0.84441757 0.64049679 0.16733748
0.88260418 0.73593920 0.12299951
0.89860505 0.80717969 0.09417372
0.88040459 0.83156425 0.09180200
0.82784361 0.80090064 0.11705916
0.75440669 0.74567401 0.15583819
0.66719425 0.67333359 0.20441639
0.84269911 0.63661265 0.16920470
0.88154066 0.73281485 0.12438411
0.89850754 0.80506694 0.09490583
0.88184822 0.83212739 0.09117889
0.83019060 0.80250955 0.11586759
0.75739592 0.74805456 0.15421511
0.67056453 0.67621177 0.20249878
0.57679659 0.59443051 0.25699592
0.48319259 0.51016015 0.31398383
0.89836895 0.80291259 0.09566495
0.88325357 0.83264691 0.09057930
0.83250904 0.80408490 0.11469451
0.76036620 0.75041163 0.15260549
0.67392534 0.67907649 0.20058958
0.58028686 0.59752887 0.25492406
0.48655099 0.51321810 0.31188631
0.39981815 0.43359354 0.36775360
0.32718858 0.36610448 0.41880324
0.83479851 0.80562615 0.11354011
0.76331711 0.75274479 0.15100951
0.67727643 0.68192744 0.19868897
0.58377695 0.60062355 0.25285578
0.48991889 0.51628244 0.30978730
0.40280259 0.43635347 0.36576083
0.32952836 0.36828595 0.41705370
0.27719659 0.31952929 0.45994321
0.24873732 0.29052168 0.50383979
0.68061745 0.68476421 0.19679713
0.58726656 0.60371411 0.25079125
0.49329588 0.51935273 0.30768701
0.40580574 0.43912944 0.36376175
0.33189651 0.37049359 0.41529277
0.27866846 0.32089448 0.45855737
0.24960800 0.29149994 0.50211811
0.22890610 0.26671252 0.54812139
0.21480700 0.24680351 0.59283280
0.49668163 0.52242863 0.30558562
0.40882730 0.44192111 0.36175650
0.33429262 0.37272698 0.41352063
0.28017792 0.32229555 0.45715532
0.25048667 0.29248247 0.50039393
0.22955491 0.26754859 0.54645526
0.21520078 0.24742942 0.59120440
0.20810743 0.23385756 0.63519144
0.20895794 0.22856566 0.67896634
0.33671638 0.37498575 0.41173750
0.28172463 0.32373208 0.45573723
0.25137335 0.29346913 0.49866718
0.23021261 0.26839119 0.54478729
0.21560439 0.24806419 0.58957499
0.20823182 0.23422076 0.63358027
0.20877798 0.22859356 0.67735326
0.22241253 0.23755038 0.72133112
0.29616416 0.30902690 0.76915133
0.25226796 0.29445991 0.49693793
0.23087919 0.26924023 0.54311752
0.21601781 0.24870774 0.58794451
0.20836693 0.23459509 0.63196886
0.20860967 0.22863491 0.67574060
0.22081573 0.23606542 0.71970028
0.29257420 0.30549687 0.76730722
0.40541631 0.41722998 0.81790131
0.53215456 0.54367638 0.86565059
0.21644098 0.24935998 0.58631295
0.20851272 0.23498045 0.63035709
0.20845295 0.22868964 0.67412841
0.21931134 0.23467505 0.71808130
0.28903988 0.30202410 0.76546717
0.40085226 0.41268978 0.81605464
0.52756101 0.53908366 0.86401194
0.64197862 0.65361738 0.90350699
0.71691769 0.72870255 0.92870784
0.75720000 0.45220664 0.26018262
0.81337672 0.57231641 0.20052053
0.86105567 0.67930520 0.14889686
0.89178091 0.76632756 0.10992865
0.89709634 0.82653797 0.08823296
0.86327881 0.82324445 0.09959996
0.80192101 0.78233701 0.13045172
0.72239441 0.71970671 0.17340599
0.63179940 0.64280289 0.22474009
0.85955024 0.67568099 0.15060011
0.89104903 0.76355922 0.11108450
0.89744902 0.82487726 0.08867157
0.86509770 0.82423866 0.09874397
0.80454367 0.78427249 0.12907948
0.72555971 0.72230935 0.17165446
0.63524610 0.64579868 0.22274624
0.54070318 0.56218970 0.27863210
0.44903132 0.47893187 0.33558944
0.89775634 0.82317138 0.08913956
0.86688203 0.82519305 0.09790957
0.80714142 0.78617817 0.12772380
0.72870970 0.72489232 0.16991445
0.63868707 0.64878482 0.22075887
0.54417396 0.56530499 0.27653435
0.45227066 0.48190227 0.33351818
0.37007749 0.40602595 0.38798776
0.30469477 0.34512538 0.43622035
0.80971390 0.78805369 0.12638488
0.73184395 0.72745520 0.16818617
0.64212197 0.65176100 0.21877818
0.54764831 0.56842041 0.27443820
0.45552316 0.48488286 0.33144355
0.37284696 0.40859768 0.38607156
0.30671999 0.34701416 0.43459958
0.26442388 0.30748385 0.47453436
0.24019399 0.28065503 0.52154267
0.64555049 0.65472680 0.21680434
0.55112576 0.57153559 0.27234387
0.45878842 0.48787329 0.32936570
0.37563881 0.41118929 0.38414714
0.30877721 0.34893292 0.43296552
0.26542476 0.30852225 0.47276708
0.24097963 0.28158408 0.51984519
0.22271462 0.25845227 0.56529105
0.21131283 0.24085951 0.60965472
0.46206614 0.49087313 0.32728478
0.37845272 0.41380042 0.38221461
0.31086609 0.35088128 0.43131831
0.26643312 0.30956346 0.47099686
0.24177364 0.28251827 0.51814550
0.22326915 0.25921574 0.56364167
0.21160278 0.24138850 0.60803539
0.20745762 0.23076919 0.65187669
0.21151677 0.22909044 0.69571555
0.31298625 0.35285890 0.42965823
0.26755014 0.31061596 0.46963039
0.24257597 0.28345755 0.51644361
0.22383295 0.25998664 0.56199080
0.21190290 0.24192725 0.60641533
0.20746893 0.23101206 0.65026718
0.21121415 0.22897369 0.69409639
0.24407366 0.25817662 0.73886538
0.33631474 0.34864864 0.78843057
0.24338660 0.28440180 0.51473945
0.22440596 0.26076484 0.56033844
0.21221316 0.24247567 0.60479450
0.20749132 0.23126696 0.64865768
0.21092352 0.22887132 0.69247800
0.24159895 0.25579223 0.73712790
0.33222824 0.34460616 0.78656167
0.45357534 0.46520311 0.83675897
0.57845283 0.58999467 0.88188791
0.21253353 0.24303368 0.60317284
0.20752475 0.23153378 0.64704812
0.21064487 0.22878321 0.69086027
0.23920262 0.25348818 0.73539937
0.32818332 0.34060672 0.78469378
0.44888204 0.46052319 0.83496636
0.57411134 0.58564925 0.88038510
0.67668378 0.68839645 0.91511810
0.72941178 0.74117649 0.93333334
