Full Chord/Full Chord.cube
# VEGAS Pro LUT
TITLE "Full Chord"
LUT_3D_SIZE 33
0.50588238 0.00000000 0.50980395
0.51292008 0.01163056 0.50309294
0.52494502 0.03085244 0.49180534
0.54127681 0.05693853 0.47648057
0.56123501 0.08916172 0.45765805
0.58413929 0.12679490 0.43587723
0.60930926 0.16911098 0.41167754
0.63606453 0.21538283 0.38559842
0.66372472 0.26488334 0.35817927
0.69160950 0.31688544 0.32995957
0.71903843 0.37066197 0.30147874
0.73994458 0.41461748 0.27896899
0.75431019 0.44595867 0.26330432
0.76869965 0.47692913 0.24783900
0.78298098 0.50742185 0.23264518
0.79702193 0.53732991 0.21779500
0.81069040 0.56654638 0.20336060
0.82385433 0.59496421 0.18941413
0.83638149 0.62247646 0.17602772
0.84813982 0.64897621 0.16327351
0.85899717 0.67435652 0.15122366
0.86882144 0.69851035 0.13995031
0.87748051 0.72133076 0.12952557
0.88484222 0.74271083 0.12002160
0.89077443 0.76254362 0.11151056
0.89514500 0.78072208 0.10406457
0.89782190 0.79713929 0.09775578
0.89867294 0.81168830 0.09265633
0.89756602 0.82426214 0.08883835
0.89436895 0.83475387 0.08637401
0.88671452 0.83378690 0.08913659
0.87708879 0.83017015 0.09325785
0.86575055 0.82459038 0.09843804
0.52442217 0.03001921 0.49229544
0.54060757 0.05586566 0.47710964
0.56044441 0.08787595 0.45840624
0.58325237 0.12532298 0.43672469
0.60835099 0.16747966 0.41260445
0.63506001 0.21361886 0.38658491
0.66269898 0.26301348 0.35920551
0.69058758 0.31493643 0.33100569
0.71804529 0.36866057 0.30252489
0.73941827 0.41345876 0.27954817
0.75378042 0.44481155 0.26387751
0.76817137 0.47579756 0.24840359
0.78245902 0.50630975 0.23319851
0.79651117 0.53624123 0.21833441
0.81019568 0.56548500 0.20388342
0.82338047 0.59393412 0.18991773
0.83593345 0.62148160 0.17650944
0.84772241 0.64802051 0.16373070
0.85861522 0.67344385 0.15165365
0.86847985 0.69764471 0.14035045
0.87718409 0.72051609 0.12989321
0.88459587 0.74195105 0.12035410
0.89058304 0.76184261 0.11180525
0.89501345 0.78008384 0.10431880
0.89775497 0.79656774 0.09796689
0.89867556 0.81118739 0.09282167
0.89764297 0.82383585 0.08895528
0.89452517 0.83440602 0.08643985
0.88703454 0.83388102 0.08900591
0.87747395 0.83033872 0.09308711
0.86619675 0.82482904 0.09822938
0.85331386 0.81746852 0.10437452
0.83893627 0.80837345 0.11146439
0.55965781 0.08659753 0.45915040
0.58236849 0.12385744 0.43756884
0.60739493 0.16585372 0.41352877
0.63405681 0.21185930 0.38756955
0.66167361 0.26114705 0.36023059
0.68956500 0.31298983 0.33205143
0.71705067 0.36666059 0.30357140
0.73889214 0.41229969 0.28012750
0.75325072 0.44366395 0.26445100
0.76764297 0.47466534 0.24896854
0.78193676 0.50519687 0.23375228
0.79599988 0.53515160 0.21887437
0.80970031 0.56442255 0.20440692
0.82290578 0.59290278 0.19042209
0.83548433 0.62048537 0.17699200
0.84730375 0.64706326 0.16418883
0.85823190 0.67252952 0.15208469
0.86813670 0.69677728 0.14075173
0.87688595 0.71969944 0.13026211
0.88434762 0.74118918 0.12068793
0.89038956 0.76113939 0.11210138
0.89487958 0.77944326 0.10457456
0.89768559 0.79599369 0.09817963
0.89867544 0.81068385 0.09298874
0.89771706 0.82340664 0.08907402
0.89467835 0.83405524 0.08650761
0.88735211 0.83397233 0.08887675
0.87785679 0.83050460 0.09291781
0.86664075 0.82506526 0.09802207
0.85381502 0.81777078 0.10413135
0.83949041 0.80873746 0.11118749
0.82377803 0.79808176 0.11913233
0.80678868 0.78592008 0.12790768
0.60644108 0.16423322 0.41445050
0.63305485 0.21010418 0.38855231
0.66064858 0.25928405 0.36125457
0.68854195 0.31104574 0.33309674
0.71605456 0.36466214 0.30461824
0.73836625 0.41114029 0.28070697
0.75272107 0.44251588 0.26502472
0.76711446 0.47353250 0.24953386
0.78141415 0.50408322 0.23430653
0.79548812 0.53406107 0.21941487
0.80920422 0.56335908 0.20493105
0.82243031 0.59187031 0.19092719
0.83503425 0.61948776 0.17747542
0.84688389 0.64610451 0.16464791
0.85784721 0.67161357 0.15251677
0.86779195 0.69590807 0.14115417
0.87658608 0.71888089 0.13063224
0.88409746 0.74042517 0.12102310
0.89019394 0.76043397 0.11239893
0.89474338 0.77880025 0.10483185
0.89761370 0.79541713 0.09839401
0.89867276 0.81017762 0.09315754
0.89778841 0.82297468 0.08919460
0.89482850 0.83370149 0.08657730
0.88766718 0.83406079 0.08874912
0.87823725 0.83066779 0.09274995
0.86708260 0.82529896 0.09781612
0.85431409 0.81807065 0.10388947
0.84004271 0.80909926 0.11091180
0.82437938 0.79850119 0.11882497
0.80743504 0.78639281 0.12757081
0.78932065 0.77289057 0.13709114
0.77014720 0.75811088 0.14732781
0.65962392 0.25742456 0.36227739
0.68751836 0.30910414 0.33414164
0.71505702 0.36266521 0.30566537
0.73784059 0.40998054 0.28128663
0.75219148 0.44136730 0.26559871
0.76658577 0.47239900 0.25009954
0.78089130 0.50296879 0.23486122
0.79497588 0.53296959 0.21995595
0.80870748 0.56229448 0.20545584
0.82195389 0.59083658 0.19143304
0.83458310 0.61848879 0.17795968
0.84646285 0.64514428 0.16510792
0.85746109 0.67069602 0.15294990
0.86744571 0.69503701 0.14155774
0.87628448 0.71806037 0.13100359
0.88384539 0.73965913 0.12135961
0.88999629 0.75972629 0.11269792
0.89460498 0.77815491 0.10509067
0.89753938 0.79483807 0.09861001
0.89866740 0.80966872 0.09332807
0.89785689 0.82253993 0.08931699
0.89497572 0.83334476 0.08664891
0.88797981 0.83414644 0.08862300
0.87861544 0.83082837 0.09258354
0.86752224 0.82553011 0.09761155
0.85481113 0.81836814 0.10364886
0.84059310 0.80945885 0.11063731
0.82497901 0.79891855 0.11851874
0.80807984 0.78686368 0.12723497
0.79000652 0.77341068 0.13672784
0.77087003 0.75867587 0.14693919
0.75078130 0.74277574 0.15781084
0.72985125 0.72582662 0.16928463
0.71405810 0.36066982 0.30671278
0.73731518 0.40882048 0.28186643
0.75166196 0.44021824 0.26617295
0.76605695 0.47126490 0.25066555
0.78036809 0.50185353 0.23541637
0.79446316 0.53187716 0.22049756
0.80821007 0.56122887 0.20598127
0.82147670 0.58980161 0.19193964
0.83413094 0.61748850 0.17844479
0.84604061 0.64418256 0.16556887
0.85707361 0.66977674 0.15338404
0.86709785 0.69416422 0.14196244
0.87598115 0.71723795 0.13137619
0.88359141 0.73889101 0.12169744
0.88979650 0.75901645 0.11299834
0.89446425 0.77750725 0.10535102
0.89746267 0.79425645 0.09882763
0.89865947 0.80915713 0.09350031
0.89792258 0.82210237 0.08944120
0.89511991 0.83298510 0.08672244
0.88828987 0.83422923 0.08849841
0.87899125 0.83098620 0.09241856
0.86795968 0.82575881 0.09740832
0.85530615 0.81866330 0.10340954
0.84114158 0.80981618 0.11036403
0.82557684 0.79933387 0.11821364
0.80872303 0.78733265 0.12690020
0.79069096 0.77392906 0.13636552
0.77159160 0.75923932 0.14655146
0.75153595 0.74338001 0.15739985
0.73063487 0.72646737 0.16885252
0.70899940 0.70861793 0.18085130
0.68674040 0.68994802 0.19333802
0.75113249 0.43906868 0.26674744
0.76552808 0.47013018 0.25123191
0.77984464 0.50073755 0.23597197
0.79394996 0.53078389 0.22103973
0.80771208 0.56016219 0.20650735
0.82099867 0.58876550 0.19244698
0.83367777 0.61648685 0.17893073
0.84561718 0.64321929 0.16603078
0.85668480 0.66885591 0.15381923
0.86674845 0.69328964 0.14236827
0.87567610 0.71641362 0.13175002
0.88333553 0.73812085 0.12203660
0.88959461 0.75830436 0.11330017
0.89432132 0.77685714 0.10561289
0.89738345 0.79367238 0.09904687
0.89864886 0.80864298 0.09367427
0.89798552 0.82166201 0.08956722
0.89526117 0.83262253 0.08679788
0.88859749 0.83430922 0.08837534
0.87936473 0.83114141 0.09225503
0.86839497 0.82598490 0.09720648
0.85579914 0.81895608 0.10317151
0.84168816 0.81017137 0.11009197
0.82617301 0.79974711 0.11790967
0.80936462 0.78779978 0.12656647
0.79137391 0.77444565 0.13600418
0.77231187 0.75980121 0.14616464
0.75228941 0.74398285 0.15698969
0.73141754 0.72710693 0.16842115
0.70980704 0.70928985 0.18040088
0.68756902 0.69064802 0.19287068
0.66481435 0.67129785 0.20577240
0.64165395 0.65135574 0.21904786
0.77932084 0.49962083 0.23652801
0.79343635 0.52968967 0.22158243
0.80721337 0.55909443 0.20703407
0.82051986 0.58772814 0.19295505
0.83322364 0.61548388 0.17941751
0.84519261 0.64225459 0.16649359
0.85629463 0.66793340 0.15425546
0.86639756 0.69241333 0.14277524
0.87536931 0.71558738 0.13212506
0.88307774 0.73734856 0.12237708
0.88939071 0.75759006 0.11360344
0.89417613 0.77620476 0.10587627
0.89730179 0.79308575 0.09926773
0.89863569 0.80812615 0.09384994
0.89804560 0.82121885 0.08969506
0.89539945 0.83225703 0.08687522
0.88890260 0.83438629 0.08825380
0.87973583 0.83129388 0.09209295
0.86882800 0.82620847 0.09700601
0.85629004 0.81924653 0.10293478
0.84223282 0.81052434 0.10982112
0.82676739 0.80015832 0.11760684
0.81000459 0.78826493 0.12623380
0.79205543 0.77496052 0.13564381
0.77303088 0.76036149 0.14577872
0.75304180 0.74458420 0.15658034
0.73219913 0.72774518 0.16799052
0.71061391 0.70996064 0.17995110
0.68839699 0.69134712 0.19240391
0.66565937 0.67202097 0.20529076
0.64251190 0.65209854 0.21855353
0.61906564 0.63169628 0.23213400
0.59543151 0.61093062 0.24597403
0.80671406 0.55802566 0.20756142
0.82004017 0.58668965 0.19346385
0.83276850 0.61447954 0.17990512
0.84476680 0.64128840 0.16695735
0.85590309 0.66700929 0.15469271
0.86604512 0.69153517 0.14318332
0.87506080 0.71475917 0.13250133
0.88281804 0.73657429 0.12271888
0.88918471 0.75687355 0.11390811
0.89402866 0.77555001 0.10614117
0.89721775 0.79249668 0.09949020
0.89861989 0.80760664 0.09402733
0.89810294 0.82077295 0.08982470
0.89553475 0.83188856 0.08695447
0.88920516 0.83446056 0.08813380
0.88010460 0.83144367 0.09193233
0.86925888 0.82642955 0.09680691
0.85677886 0.81953454 0.10269934
0.84277564 0.81087506 0.10955148
0.82736003 0.80056745 0.11730515
0.81064302 0.78872818 0.12590219
0.79273552 0.77547359 0.13528442
0.77374852 0.76092017 0.14539368
0.75379294 0.74518418 0.15617181
0.73297977 0.72838211 0.16756065
0.71141988 0.71063036 0.17950201
0.68922424 0.69204521 0.19193773
0.66650379 0.67274320 0.20480965
0.64336950 0.65284067 0.21805961
0.61993223 0.63245404 0.23162943
0.59630305 0.61169964 0.24546094
0.57259279 0.59069389 0.25949597
0.54891247 0.56955326 0.27367640
0.83231235 0.61347389 0.18039355
0.84433985 0.64032078 0.16742203
0.85551018 0.66608357 0.15513097
0.86569113 0.69065529 0.14359252
0.87475061 0.71392912 0.13287881
0.88255650 0.73579794 0.12306199
0.88897663 0.75615484 0.11421420
0.89387894 0.77489287 0.10640758
0.89713126 0.79190511 0.09971427
0.89860153 0.80708456 0.09420642
0.89815748 0.82032424 0.08995615
0.89566714 0.83151722 0.08703562
0.88950527 0.83453196 0.08801533
0.88047099 0.83159077 0.09177317
0.86968750 0.82664806 0.09660918
0.85726571 0.81982017 0.10246520
0.84331650 0.81122351 0.10928307
0.82795089 0.80097449 0.11700460
0.81127977 0.78918952 0.12557164
0.79341412 0.77598494 0.13492602
0.77446491 0.76147723 0.14500956
0.75454301 0.74578267 0.15576412
0.73375934 0.72901779 0.16713151
0.71222496 0.71129888 0.17905357
0.69005078 0.69274241 0.19147214
0.66734767 0.67346466 0.20432906
0.64422661 0.65358216 0.21756613
0.62079859 0.63321126 0.23112521
0.59717447 0.61246836 0.24494813
0.57346523 0.59146982 0.25897673
0.54978186 0.57033205 0.27315280
0.52623522 0.54917145 0.28741825
0.50293630 0.52810448 0.30171484
0.85511595 0.66515619 0.15557025
0.86533564 0.68977368 0.14400284
0.87443870 0.71309710 0.13325752
0.88229311 0.73501951 0.12340643
0.88876653 0.75543398 0.11452170
0.89372706 0.77423346 0.10667550
0.89704239 0.79131109 0.09993995
0.89858055 0.80655980 0.09438720
0.89820927 0.81987274 0.09008940
0.89579654 0.83114290 0.08711867
0.88980281 0.83460045 0.08789839
0.88083506 0.83173513 0.09161546
0.87011391 0.82686400 0.09641284
0.85775042 0.82010341 0.10223237
0.84385544 0.81156981 0.10901587
0.82853997 0.80137950 0.11670519
0.81191492 0.78964895 0.12524216
0.79409128 0.77649456 0.13456860
0.77517992 0.76203269 0.14462635
0.75529182 0.74637979 0.15535726
0.73453796 0.72965217 0.16670313
0.71302927 0.71196628 0.17860582
0.69087660 0.69343853 0.19100715
0.66819096 0.67418534 0.20384896
0.64508337 0.65432298 0.21707308
0.62166464 0.63396800 0.23062135
0.59804577 0.61323673 0.24443559
0.57433772 0.59224552 0.25845766
0.55065137 0.57111079 0.27262935
0.52709776 0.54994899 0.28689250
0.50378776 0.52887648 0.30118901
0.48083234 0.50800967 0.31546062
0.45834243 0.48746493 0.32964921
0.87412512 0.71226323 0.13363743
0.88202780 0.73423904 0.12375215
0.88855439 0.75471085 0.11483061
0.89357287 0.77357167 0.10694492
0.89695114 0.79071456 0.10016723
0.89855695 0.80603248 0.09456969
0.89825827 0.81941855 0.09022444
0.89592296 0.83076572 0.08720361
0.89009786 0.83466613 0.08778300
0.88119674 0.83187681 0.09145921
0.87053812 0.82707739 0.09621788
0.85823309 0.82038426 0.10200083
0.84439248 0.81191379 0.10874991
0.82912731 0.80178237 0.11640693
0.81254846 0.79010648 0.12491374
0.79476696 0.77700239 0.13421217
0.77589363 0.76258653 0.14424406
0.75603956 0.74697536 0.15495121
0.73531556 0.73028529 0.16627550
0.71383262 0.71263260 0.17815875
0.69170171 0.69413376 0.19054276
0.66903371 0.67490512 0.20336939
0.64593965 0.65506315 0.21658048
0.62253040 0.63472426 0.23011786
0.59891695 0.61400473 0.24392334
0.57521021 0.59302104 0.25793877
0.55152112 0.57188952 0.27210599
0.52796066 0.55072665 0.28636682
0.50463974 0.52964884 0.30066311
0.48166928 0.50877237 0.31493670
0.45916030 0.48821372 0.32912937
0.43722367 0.46808925 0.34318301
0.41597036 0.44851539 0.35703942
0.88834018 0.75398564 0.11514091
0.89341652 0.77290761 0.10721584
0.89685744 0.79011554 0.10039611
0.89853084 0.80550253 0.09475388
0.89830458 0.81896156 0.09036127
0.89604652 0.83038563 0.08729044
0.89039040 0.83472890 0.08766915
0.88155597 0.83201575 0.09130444
0.87096012 0.82728821 0.09602431
0.85871369 0.82066268 0.10177061
0.84492761 0.81225556 0.10848517
0.82971287 0.80218321 0.11610983
0.81318039 0.79056203 0.12458640
0.79544115 0.77750844 0.13385674
0.77660602 0.76313877 0.14386266
0.75678605 0.74756956 0.15454602
0.73609209 0.73091704 0.16584863
0.71463513 0.71329772 0.17771234
0.69252604 0.69482797 0.19007896
0.66987592 0.67562413 0.20289034
0.64679551 0.65580267 0.21608832
0.62339592 0.63547993 0.22961472
0.59978801 0.61477238 0.24341136
0.57608271 0.59379631 0.25742012
0.55239105 0.57266819 0.27158278
0.52882385 0.55150443 0.28584120
0.50549215 0.53042138 0.30013722
0.48250687 0.50953549 0.31441265
0.45997891 0.48896307 0.32860935
0.43801928 0.46882057 0.34266913
0.41673887 0.44922438 0.35653383
0.39624864 0.43029091 0.37014526
0.37665951 0.41213655 0.38344532
0.89676136 0.78951406 0.10062658
0.89850211 0.80496997 0.09493975
0.89834809 0.81850177 0.09049989
0.89616710 0.83000267 0.08737916
0.89068037 0.83478880 0.08755685
0.88191289 0.83215201 0.09115112
0.87137985 0.82749653 0.09583212
0.85919213 0.82093871 0.10154170
0.84546077 0.81259507 0.10822167
0.83029664 0.80258191 0.11581387
0.81381065 0.79101562 0.12426013
0.79611385 0.77801269 0.13350230
0.77731711 0.76368940 0.14348219
0.75753140 0.74816221 0.15414166
0.73686761 0.73154753 0.16542251
0.71543676 0.71396172 0.17726661
0.69334972 0.69552118 0.18961577
0.67071748 0.67634231 0.20241182
0.64765096 0.65654147 0.21559660
0.62426114 0.63623512 0.22911194
0.60065889 0.61553967 0.24289969
0.57695526 0.59457141 0.25690165
0.55326110 0.57344687 0.27105969
0.52968740 0.55228233 0.28531563
0.50634503 0.53119427 0.29961127
0.48334506 0.51029903 0.31388852
0.46079832 0.48971301 0.32808912
0.43881580 0.46955264 0.34215498
0.41750842 0.44993430 0.35602787
0.39698717 0.43097436 0.36964968
0.37736294 0.41278929 0.38296223
0.35874671 0.39549538 0.39590731
0.34124938 0.37920913 0.40842679
0.89838886 0.81803930 0.09064030
0.89628482 0.82961679 0.08746976
0.89096779 0.83484578 0.08744609
0.88226742 0.83228546 0.09099928
0.87179732 0.82770216 0.09564134
0.85966855 0.82121235 0.10131410
0.84599197 0.81293231 0.10795940
0.83087862 0.80297852 0.11551907
0.81443930 0.79146731 0.12393495
0.79678506 0.77851516 0.13314886
0.77802682 0.76423842 0.14310265
0.75827551 0.74875343 0.15373814
0.73764211 0.73217666 0.16499718
0.71623749 0.71462452 0.17682157
0.69417262 0.69621336 0.18915318
0.67155850 0.67705959 0.20193382
0.64850599 0.65727961 0.21510532
0.62512606 0.63698977 0.22860955
0.60152972 0.61630654 0.24238829
0.57782781 0.59534633 0.25638342
0.55413133 0.57422543 0.27053675
0.53055120 0.55306029 0.28479010
0.50719839 0.53196734 0.29908532
0.48418385 0.51106298 0.31336427
0.46161848 0.49046353 0.32756874
0.43961322 0.47028542 0.34164056
0.41827905 0.45064509 0.35552159
0.39772692 0.43165886 0.36915368
0.37806773 0.41344321 0.38247859
0.35941243 0.39611450 0.39543825
0.34187198 0.37978908 0.40797442
0.32555732 0.36458340 0.42002895
0.31057939 0.35061386 0.43154371
0.89125270 0.83489990 0.08733690
0.88261950 0.83241624 0.09084892
0.87221259 0.82790530 0.09545194
0.86014289 0.82148355 0.10108781
0.84652126 0.81326729 0.10769837
0.83145881 0.80337304 0.11522543
0.81506628 0.79191709 0.12361083
0.79745477 0.77901584 0.13279642
0.77873522 0.76478577 0.14272402
0.75901848 0.74934316 0.15333547
0.73841554 0.73280454 0.16457258
0.71703732 0.71528620 0.17637722
0.69499481 0.69690454 0.18869118
0.67239887 0.67777604 0.20145634
0.64936054 0.65801704 0.21461451
0.62599075 0.63774395 0.22810751
0.60240036 0.61707312 0.24187720
0.57870036 0.59612101 0.25586540
0.55500174 0.57500392 0.27001393
0.53141534 0.55383837 0.28426462
0.50805223 0.53274071 0.29855934
0.48502326 0.51182735 0.31283990
0.46243939 0.49121460 0.32704815
0.44041157 0.47101894 0.34112591
0.41905075 0.45135677 0.35501498
0.39846787 0.43234444 0.36865723
0.37877387 0.41409835 0.38199452
0.36007968 0.39673492 0.39496863
0.34249625 0.38037056 0.40752140
0.32613453 0.36512163 0.41959471
0.31110546 0.35110456 0.43113032
0.29751995 0.33843568 0.44207013
0.28548902 0.32723147 0.45235595
0.87262559 0.82810581 0.09526394
0.86061507 0.82175231 0.10086285
0.84704864 0.81360000 0.10743857
0.83203715 0.80376542 0.11493295
0.81569165 0.79236484 0.12328780
0.79812300 0.77951473 0.13244499
0.77944225 0.76533145 0.14234632
0.75976020 0.74993145 0.15293363
0.73918790 0.73343104 0.16414876
0.71783626 0.71594667 0.17593355
0.69581622 0.69759476 0.18822981
0.67323869 0.67849165 0.20097940
0.65021467 0.65875375 0.21412414
0.62685508 0.63849753 0.22760585
0.60327083 0.61783928 0.24136639
0.57957292 0.59689546 0.25534758
0.55587226 0.57578242 0.26949123
0.53227985 0.55461657 0.28373921
0.50890648 0.53351432 0.29803336
0.48586327 0.51259208 0.31231546
0.46326107 0.49196625 0.32652739
0.44121084 0.47175318 0.34061098
0.41982350 0.45206931 0.35450801
0.39921004 0.43303102 0.36816040
0.37948135 0.41475469 0.38150993
0.36074841 0.39735672 0.39449841
0.34312215 0.38095355 0.40706775
0.32671353 0.36566150 0.41915971
0.31163347 0.35159704 0.43071613
0.29799291 0.33887655 0.44167888
0.28590280 0.32761636 0.45198980
0.27547410 0.31793296 0.46159068
0.26681772 0.30994269 0.47042337
0.84757400 0.81393045 0.10718002
0.83261377 0.80415565 0.11464163
0.81631535 0.79281068 0.12296586
0.79878974 0.78001183 0.13209456
0.78014791 0.76587552 0.14196955
0.76050073 0.75051820 0.15253265
0.73995924 0.73405623 0.16372572
0.71863431 0.71660602 0.17549057
0.69663686 0.69828391 0.18776906
0.67407787 0.67920643 0.20050299
0.65106833 0.65948981 0.21363422
0.62771910 0.63925058 0.22710457
0.60414118 0.61860502 0.24085589
0.58044547 0.59766966 0.25482997
0.55674297 0.57656080 0.26896870
0.53314459 0.55539483 0.28321388
0.50976121 0.53428823 0.29750735
0.48670387 0.51335728 0.31179091
0.46408349 0.49271846 0.32600647
0.44201097 0.47248816 0.34009579
0.42059729 0.45278275 0.35400075
0.39995340 0.43371862 0.36766315
0.38019019 0.41541222 0.38102484
0.36141866 0.39797989 0.39402765
0.34374973 0.38153803 0.40661341
0.32729432 0.36620307 0.41872397
0.31216341 0.35209137 0.43030116
0.29846793 0.33931935 0.44128677
0.28631884 0.32800341 0.45162269
0.27582702 0.31825992 0.46125072
0.26710349 0.31020528 0.47011271
0.26031968 0.30317384 0.48189336
0.25393552 0.29629424 0.49374777
0.81693739 0.79325449 0.12264501
0.79945499 0.78050709 0.13174514
0.78085220 0.76641792 0.14159371
0.76124007 0.75110346 0.15213253
0.74072951 0.73468006 0.16330345
0.71943140 0.71726418 0.17504831
0.69745678 0.69897211 0.18730892
0.67491651 0.67992032 0.20002712
0.65192151 0.66022515 0.21314476
0.62858284 0.64000309 0.22660367
0.60501134 0.61937040 0.24034567
0.58131802 0.59844363 0.25431260
0.55761379 0.57733911 0.26844630
0.53400958 0.55617321 0.28268859
0.51061636 0.53506231 0.29698130
0.48754507 0.51412284 0.31126630
0.46490663 0.49347124 0.32548535
0.44281203 0.47322384 0.33958036
0.42137212 0.45349705 0.35349312
0.40069795 0.43440726 0.36716548
0.38090038 0.41607091 0.38053927
0.36209038 0.39860436 0.39355633
0.34437892 0.38212401 0.40615845
0.32787693 0.36674628 0.41828752
0.31269532 0.35258749 0.42988536
0.29894507 0.33976415 0.44089377
0.28673711 0.32839257 0.45125464
0.27618235 0.31858915 0.46090972
0.26739180 0.31047034 0.46980092
0.26056132 0.30342996 0.48145482
0.25416401 0.29654434 0.49331385
0.24812871 0.28983507 0.50505131
0.24246606 0.28332916 0.51667583
0.78155518 0.76695871 0.14121880
0.76197821 0.75168723 0.15173325
0.74149871 0.73530257 0.16288196
0.72022760 0.71792108 0.17460673
0.69827586 0.69965923 0.18684939
0.67575443 0.68063331 0.19955181
0.65277427 0.66095978 0.21265578
0.62944627 0.64075500 0.22610316
0.60588139 0.62013543 0.23983578
0.58219057 0.59921736 0.25379547
0.55848479 0.57811731 0.26792404
0.53487492 0.55695158 0.28216338
0.51147199 0.53583664 0.29645526
0.48838687 0.51488882 0.31074157
0.46573055 0.49422455 0.32496411
0.44361395 0.47396019 0.33906469
0.42214799 0.45421222 0.35298520
0.40144366 0.43509695 0.36666742
0.38161188 0.41673079 0.38005322
0.36276361 0.39923018 0.39308444
0.34500977 0.38271150 0.40570286
0.32846129 0.36729112 0.41785038
0.31322917 0.35308546 0.42946878
0.29942429 0.34021088 0.44049990
0.28715762 0.32878384 0.45088559
0.27654010 0.31892067 0.46056771
0.26768267 0.31073782 0.46948802
0.26080343 0.30368629 0.48101610
0.25439301 0.29679471 0.49287978
0.24834421 0.29007846 0.50462157
0.24266766 0.28356460 0.51625007
0.23737405 0.27728021 0.52777386
0.23247406 0.27125239 0.53920162
0.74226683 0.73592371 0.16246124
0.72102290 0.71857685 0.17416584
0.69909424 0.70034528 0.18639049
0.67659181 0.68134546 0.19907701
0.65362656 0.66169369 0.21216725
0.63030934 0.64150637 0.22560303
0.60675120 0.62089998 0.23932618
0.58306307 0.59999090 0.25327855
0.55935585 0.57889545 0.26740196
0.53574055 0.55773008 0.28163823
0.51232803 0.53661120 0.29592922
0.48922923 0.51565516 0.31021675
0.46655518 0.49497840 0.32444265
0.44441673 0.47469729 0.33854878
0.42292491 0.45492822 0.35247692
0.40219060 0.43578762 0.36616898
0.38232476 0.41739187 0.37956670
0.36343831 0.39985734 0.39261198
0.34564224 0.38330045 0.40524662
0.32904747 0.36783761 0.41741249
0.31376493 0.35358518 0.42905137
0.29990557 0.34065962 0.44010514
0.28758034 0.32917723 0.45051563
0.27690020 0.31925449 0.46022466
0.26797605 0.31100774 0.46917403
0.26104602 0.30394283 0.48057723
0.25462252 0.29704532 0.49244553
0.24856022 0.29032212 0.50419164
0.24286978 0.28380033 0.51582420
0.23756190 0.27750704 0.52735168
0.23264723 0.27146930 0.53878278
0.22813645 0.26571420 0.55012608
0.22404025 0.26026878 0.56139010
0.69991183 0.70103037 0.18593222
0.67742854 0.68205673 0.19860278
0.65447831 0.66242683 0.21167919
0.63117212 0.64225721 0.22510329
0.60762089 0.62166417 0.23881690
0.58393556 0.60076416 0.25276187
0.56022710 0.57967347 0.26688001
0.53660643 0.55850863 0.28111318
0.51318443 0.53738594 0.29540318
0.49007219 0.51642185 0.30969188
0.46738052 0.49573278 0.32392105
0.44522041 0.47543505 0.33803263
0.42370284 0.45564508 0.35196835
0.40293869 0.43647930 0.36567011
0.38303891 0.41805407 0.37907970
0.36411449 0.40048581 0.39213896
0.34627634 0.38389090 0.40478975
0.32963541 0.36838573 0.41697389
0.31430262 0.35408673 0.42863321
0.30038896 0.34111026 0.43970954
0.28800532 0.32957274 0.45014471
0.27726269 0.31959057 0.45988056
0.26827195 0.31128010 0.46885893
0.26128909 0.30419958 0.48013815
0.25485250 0.29729614 0.49201113
0.24877672 0.29056606 0.50376159
0.24307242 0.28403640 0.51539814
0.23775026 0.27773422 0.52692938
0.23282094 0.27168658 0.53836387
0.22829512 0.26592058 0.54971021
0.22418347 0.26046330 0.56097704
0.22049667 0.25534180 0.57217294
