Full Chord/Full Chord.cube
# VEGAS Pro LUT
TITLE "Full Chord"
LUT_3D_SIZE 5
0.50588238 0.00000000 0.50980395
0.66372472 0.26488334 0.35817927
0.81069040 0.56654638 0.20336060
0.89077443 0.76254362 0.11151056
0.86575055 0.82459038 0.09843804
0.80671406 0.55802566 0.20756142
0.88918471 0.75687355 0.11390811
0.86925888 0.82642955 0.09680691
0.73297977 0.72838211 0.16756065
0.54891247 0.56955326 0.27367640
0.87262559 0.82810581 0.09526394
0.73918790 0.73343104 0.16414876
0.55587226 0.57578242 0.26949123
0.37948135 0.41475469 0.38150993
0.26681772 0.30994269 0.47042337
0.56284148 0.58200699 0.26531512
0.38518935 0.42004767 0.37761584
0.26917481 0.31211165 0.46790698
0.22461660 0.26104963 0.55973721
0.20750220 0.23136260 0.64807236
0.27169222 0.31443435 0.46532053
0.22579682 0.26263285 0.55642658
0.20758805 0.23191668 0.64485312
0.23606364 0.25047830 0.73305714
0.44249225 0.45415309 0.83251131
0.54219735 0.05841493 0.47561514
0.74066263 0.41619694 0.27817950
0.84870708 0.65027702 0.16265163
0.89866519 0.81236708 0.09243365
0.82174265 0.79665607 0.12017439
0.84534711 0.64260560 0.16632520
0.89864081 0.80831438 0.09378586
0.82655144 0.80000901 0.11771683
0.66535211 0.67175812 0.20546585
0.47802183 0.50544751 0.31722209
0.83124804 0.80322981 0.11533207
0.67209333 0.67751563 0.20162991
0.48471794 0.51154935 0.31303060
0.32592443 0.36492571 0.41975269
0.24740757 0.28901839 0.50649577
0.49145275 0.51767731 0.30883276
0.33060130 0.36928621 0.41625467
0.24913208 0.29096583 0.50305748
0.21459636 0.24646586 0.59372056
0.20925903 0.22854924 0.68146014
0.25088874 0.29293045 0.49960935
0.21538302 0.24771686 0.59046388
0.20887470 0.22857666 0.67823309
0.29814526 0.31097600 0.77015877
0.53921789 0.55073941 0.86815983
0.61193347 0.17358713 0.40913680
0.78440279 0.51045084 0.23113850
0.87827986 0.72354269 0.12852924
0.88582921 0.83351594 0.08950064
0.76598263 0.75484478 0.14957060
0.87589812 0.71701336 0.13147801
0.88837403 0.83425134 0.08846469
0.77178818 0.75939274 0.14644589
0.59392589 0.60960144 0.24686092
0.41158983 0.44447228 0.35992837
0.77751082 0.76383930 0.14337859
0.60089642 0.61574882 0.24276018
0.41771850 0.45012805 0.35588983
0.28477961 0.32657170 0.45298609
0.23149283 0.27001759 0.54159802
0.42391518 0.45584074 0.35182959
0.28812161 0.32968098 0.45004338
0.23286842 0.27174592 0.53824955
0.20882061 0.23574646 0.62727898
0.21670079 0.23228836 0.71502483
0.23427895 0.27349859 0.53489351
0.20918451 0.23659110 0.62405264
0.21517104 0.23104182 0.71180415
0.38321695 0.39515877 0.80880457
0.62731624 0.63892710 0.89857024
0.69578344 0.32488328 0.32567662
0.82578361 0.59916532 0.18736188
0.89565939 0.78330809 0.10304062
0.85073149 0.81589359 0.10563224
0.70161879 0.70245934 0.18497604
0.89461768 0.77821368 0.10506708
0.85476601 0.81834120 0.10367068
0.70811731 0.70788366 0.18134344
0.52184933 0.54521519 0.29009524
0.35276473 0.38993058 0.40014467
0.71456218 0.71323729 0.17775288
0.52874535 0.55143374 0.28588900
0.35802215 0.39482158 0.39641833
0.25909689 0.30187312 0.48412320
0.21936029 0.25370854 0.57590300
0.36337692 0.39980027 0.39265496
0.26102394 0.30391949 0.48061714
0.22035773 0.25514364 0.57262087
0.20759225 0.22965966 0.66065627
0.26184040 0.27540687 0.75027514
0.22139293 0.25661027 0.56933337
0.20750417 0.23002380 0.65743685
0.25601405 0.26973835 0.74670595
0.47922391 0.49079403 0.84640861
0.69473249 0.70648366 0.92115670
0.75720000 0.45220664 0.26018262
0.86105567 0.67930520 0.14889686
0.89709634 0.82653797 0.08823296
0.80192101 0.78233701 0.13045172
0.63179940 0.64280289 0.22474009
0.89775634 0.82317138 0.08913956
0.80714142 0.78617817 0.12772380
0.63868707 0.64878482 0.22075887
0.45227066 0.48190227 0.33351818
0.30469477 0.34512538 0.43622035
0.64555049 0.65472680 0.21680434
0.45878842 0.48787329 0.32936570
0.30877721 0.34893292 0.43296552
0.24097963 0.28158408 0.51984519
0.21131283 0.24085951 0.60965472
0.31298625 0.35285890 0.42965823
0.24257597 0.28345755 0.51644361
0.21190290 0.24192725 0.60641533
0.21121415 0.22897369 0.69409639
0.33631474 0.34864864 0.78843057
0.21253353 0.24303368 0.60317284
0.21064487 0.22878321 0.69086027
0.32818332 0.34060672 0.78469378
0.57411134 0.58564925 0.88038510
0.72941178 0.74117649 0.93333334
